<?xml version="1.0" encoding="UTF-8"?>
<map version="1.10" tiledversion="1.11.1" orientation="orthogonal" renderorder="right-down" width="80" height="65" tilewidth="16" tileheight="16" infinite="0" nextlayerid="6" nextobjectid="1">
 <properties>
  <property name="Arch" value="111 .01 113 .009"/>
  <property name="Debris" value="8 .01 3"/>
  <property name="Fish" value="142 .1 153 .25 166 .0005"/>
  <property name="Light" value="48 6 4"/>
  <property name="Outdoors" value="T"/>
  <property name="Spouse" value="3 22 2 11 11 2 4 5 0 1 12 2 17 11 2 23 3 2"/>
  <property name="Warp" value="80 15 BusStop 11 23 80 18 BusStop 11 24 80 16 BusStop 11 23 80 17 BusStop 11 23 40 65 Forest 68 0 41 65 Forest 68 0 42 65 Forest 68 0 34 5 FarmCave 8 11 40 -1 Backwoods 14 39 41 -1 Backwoods 14 39 42 -1 Backwoods 14 39"/>
 </properties>
 <tileset firstgid="1" name="Paths" tilewidth="16" tileheight="16" tilecount="36" columns="4">
  <image source="paths.png" width="64" height="144"/>
  <tile id="0">
   <properties>
    <property name="PathType" value="NE"/>
   </properties>
  </tile>
  <tile id="1">
   <properties>
    <property name="PathType" value="SE"/>
   </properties>
  </tile>
  <tile id="2">
   <properties>
    <property name="PathType" value="WS"/>
   </properties>
  </tile>
  <tile id="3">
   <properties>
    <property name="PathType" value="WN"/>
   </properties>
  </tile>
  <tile id="4">
   <properties>
    <property name="PathType" value="Crossroad"/>
   </properties>
  </tile>
  <tile id="7">
   <properties>
    <property name="PathType" value="End"/>
   </properties>
  </tile>
 </tileset>
 <tileset firstgid="37" name="untitled tile sheet" tilewidth="16" tileheight="16" tilecount="1975" columns="25">
  <image source="spring_outdoorsTileSheet.png" width="400" height="1264"/>
  <tile id="1092">
   <properties>
    <property name="Diggable" value="T"/>
    <property name="Type" value="Grass"/>
   </properties>
  </tile>
  <tile id="1093">
   <properties>
    <property name="Diggable" value="T"/>
    <property name="Type" value="Grass"/>
   </properties>
  </tile>
  <tile id="1094">
   <properties>
    <property name="Diggable" value="T"/>
    <property name="Type" value="Grass"/>
   </properties>
  </tile>
  <tile id="1095">
   <properties>
    <property name="Diggable" value="T"/>
    <property name="Type" value="Grass"/>
   </properties>
  </tile>
  <tile id="1096">
   <properties>
    <property name="Diggable" value="T"/>
    <property name="Type" value="Grass"/>
   </properties>
  </tile>
  <tile id="1119">
   <properties>
    <property name="Diggable" value="T"/>
    <property name="Type" value="Grass"/>
   </properties>
  </tile>
  <tile id="1120">
   <properties>
    <property name="Diggable" value="T"/>
    <property name="Type" value="Grass"/>
   </properties>
  </tile>
  <tile id="1121">
   <properties>
    <property name="Diggable" value="T"/>
    <property name="Type" value="Grass"/>
   </properties>
  </tile>
  <tile id="1186">
   <properties>
    <property name="Water" value="T"/>
   </properties>
  </tile>
  <tile id="1187">
   <properties>
    <property name="Water" value="T"/>
   </properties>
  </tile>
  <tile id="1188">
   <properties>
    <property name="Water" value="T"/>
   </properties>
  </tile>
  <tile id="1211">
   <properties>
    <property name="Water" value="T"/>
   </properties>
  </tile>
  <tile id="1212">
   <properties>
    <property name="Water" value="T"/>
   </properties>
  </tile>
  <tile id="1213">
   <properties>
    <property name="Water" value="T"/>
   </properties>
  </tile>
  <tile id="1227">
   <properties>
    <property name="Water" value="T"/>
   </properties>
  </tile>
  <tile id="1228">
   <properties>
    <property name="Water" value="T"/>
   </properties>
  </tile>
  <tile id="1229">
   <properties>
    <property name="Water" value="T"/>
   </properties>
  </tile>
  <tile id="1230">
   <properties>
    <property name="Water" value="T"/>
   </properties>
  </tile>
  <tile id="1231">
   <properties>
    <property name="Water" value="T"/>
   </properties>
  </tile>
  <tile id="1237">
   <properties>
    <property name="Water" value="T"/>
   </properties>
  </tile>
  <tile id="1238">
   <properties>
    <property name="Water" value="T"/>
   </properties>
  </tile>
  <tile id="1239">
   <properties>
    <property name="Water" value="T"/>
   </properties>
  </tile>
  <tile id="1240">
   <properties>
    <property name="Water" value="T"/>
   </properties>
  </tile>
  <tile id="1241">
   <properties>
    <property name="Water" value="T"/>
   </properties>
  </tile>
  <tile id="1242">
   <properties>
    <property name="Water" value="T"/>
   </properties>
  </tile>
  <tile id="1243">
   <properties>
    <property name="Water" value="T"/>
   </properties>
  </tile>
  <tile id="1244">
   <properties>
    <property name="Water" value="T"/>
   </properties>
  </tile>
  <tile id="1245">
   <properties>
    <property name="Water" value="T"/>
   </properties>
  </tile>
  <tile id="1246">
   <properties>
    <property name="Water" value="T"/>
   </properties>
  </tile>
  <tile id="1247">
   <properties>
    <property name="Water" value="T"/>
   </properties>
  </tile>
  <tile id="1248">
   <properties>
    <property name="Water" value="T"/>
   </properties>
  </tile>
  <tile id="1249">
   <properties>
    <property name="Water" value="T"/>
   </properties>
  </tile>
  <tile id="1252">
   <properties>
    <property name="Water" value="T"/>
   </properties>
  </tile>
  <tile id="1253">
   <properties>
    <property name="Water" value="T"/>
   </properties>
  </tile>
  <tile id="1254">
   <properties>
    <property name="Water" value="T"/>
   </properties>
  </tile>
  <tile id="1255">
   <properties>
    <property name="Water" value="T"/>
   </properties>
  </tile>
  <tile id="1256">
   <properties>
    <property name="Water" value="T"/>
   </properties>
  </tile>
  <tile id="1263">
   <properties>
    <property name="Water" value="T"/>
   </properties>
  </tile>
  <tile id="1264">
   <properties>
    <property name="Water" value="T"/>
   </properties>
  </tile>
  <tile id="1265">
   <properties>
    <property name="Water" value="T"/>
   </properties>
  </tile>
  <tile id="1266">
   <properties>
    <property name="Water" value="T"/>
   </properties>
  </tile>
  <tile id="1267">
   <properties>
    <property name="Water" value="T"/>
   </properties>
  </tile>
  <tile id="1268">
   <properties>
    <property name="Water" value="T"/>
   </properties>
  </tile>
  <tile id="1269">
   <properties>
    <property name="Water" value="T"/>
   </properties>
  </tile>
  <tile id="1270">
   <properties>
    <property name="Water" value="T"/>
   </properties>
  </tile>
  <tile id="1271">
   <properties>
    <property name="Water" value="T"/>
   </properties>
  </tile>
  <tile id="1272">
   <properties>
    <property name="Water" value="T"/>
   </properties>
  </tile>
  <tile id="1273">
   <properties>
    <property name="Water" value="T"/>
   </properties>
  </tile>
  <tile id="1274">
   <properties>
    <property name="Water" value="T"/>
   </properties>
  </tile>
  <tile id="1277">
   <properties>
    <property name="Water" value="T"/>
   </properties>
  </tile>
  <tile id="1278">
   <properties>
    <property name="Water" value="T"/>
   </properties>
  </tile>
  <tile id="1279">
   <properties>
    <property name="Water" value="T"/>
   </properties>
  </tile>
  <tile id="1280">
   <properties>
    <property name="Water" value="T"/>
   </properties>
  </tile>
  <tile id="1281">
   <properties>
    <property name="Water" value="T"/>
   </properties>
  </tile>
  <tile id="1297">
   <properties>
    <property name="Water" value="T"/>
   </properties>
  </tile>
  <tile id="1298">
   <properties>
    <property name="Water" value="T"/>
   </properties>
  </tile>
  <tile id="1299">
   <properties>
    <property name="Water" value="T"/>
   </properties>
  </tile>
  <tile id="1302">
   <properties>
    <property name="Water" value="T"/>
   </properties>
  </tile>
  <tile id="1303">
   <properties>
    <property name="Water" value="T"/>
   </properties>
  </tile>
  <tile id="1304">
   <properties>
    <property name="Water" value="T"/>
   </properties>
  </tile>
  <tile id="1305">
   <properties>
    <property name="Water" value="T"/>
   </properties>
  </tile>
  <tile id="1306">
   <properties>
    <property name="Water" value="T"/>
   </properties>
  </tile>
  <tile id="1322">
   <properties>
    <property name="Water" value="T"/>
   </properties>
  </tile>
  <tile id="1323">
   <properties>
    <property name="Water" value="T"/>
   </properties>
  </tile>
  <tile id="1324">
   <properties>
    <property name="Water" value="T"/>
   </properties>
  </tile>
  <tile id="150">
   <properties>
    <property name="Buildable" type="bool" value="true"/>
    <property name="Diggable" value="T"/>
    <property name="Type" value="Grass"/>
   </properties>
  </tile>
  <tile id="151">
   <properties>
    <property name="Buildable" type="bool" value="true"/>
    <property name="Diggable" value="T"/>
    <property name="Type" value="Grass"/>
   </properties>
  </tile>
  <tile id="152">
   <properties>
    <property name="Buildable" type="bool" value="true"/>
    <property name="Diggable" value="T"/>
    <property name="Type" value="Grass"/>
   </properties>
  </tile>
  <tile id="153">
   <properties>
    <property name="Diggable" value="T"/>
    <property name="Type" value="Dirt"/>
   </properties>
  </tile>
  <tile id="156">
   <properties>
    <property name="Buildable" type="bool" value="true"/>
    <property name="Diggable" value="T"/>
    <property name="Type" value="Grass"/>
   </properties>
  </tile>
  <tile id="175">
   <properties>
    <property name="Buildable" value="T"/>
    <property name="Diggable" value="T"/>
    <property name="Type" value="Grass"/>
   </properties>
  </tile>
  <tile id="176">
   <properties>
    <property name="Diggable" value="T"/>
    <property name="Type" value="Dirt"/>
   </properties>
  </tile>
  <tile id="177">
   <properties>
    <property name="Buildable" type="bool" value="true"/>
    <property name="Diggable" value="T"/>
    <property name="Type" value="Dirt"/>
   </properties>
  </tile>
  <tile id="178">
   <properties>
    <property name="Buildable" type="bool" value="true"/>
    <property name="Diggable" value="T"/>
    <property name="Type" value="Dirt"/>
   </properties>
  </tile>
  <tile id="179">
   <properties>
    <property name="Buildable" type="bool" value="true"/>
    <property name="Diggable" value="T"/>
    <property name="Type" value="Grass"/>
   </properties>
  </tile>
  <tile id="180">
   <properties>
    <property name="Buildable" type="bool" value="true"/>
    <property name="Diggable" value="T"/>
    <property name="Type" value="Grass"/>
   </properties>
  </tile>
  <tile id="181">
   <properties>
    <property name="Buildable" type="bool" value="true"/>
    <property name="Diggable" value="T"/>
    <property name="Type" value="Dirt"/>
   </properties>
  </tile>
  <tile id="182">
   <properties>
    <property name="Buildable" type="bool" value="true"/>
    <property name="Diggable" value="T"/>
    <property name="Type" value="Dirt"/>
   </properties>
  </tile>
  <tile id="1937">
   <properties>
    <property name="NoFurniture" value="T"/>
   </properties>
  </tile>
  <tile id="1957">
   <properties>
    <property name="Type" value="Wood"/>
   </properties>
  </tile>
  <tile id="1958">
   <properties>
    <property name="Type" value="Wood"/>
   </properties>
  </tile>
  <tile id="1962">
   <properties>
    <property name="NoFurniture" value="T"/>
   </properties>
  </tile>
  <tile id="1963">
   <properties>
    <property name="NoFurniture" value="T"/>
   </properties>
  </tile>
  <tile id="1964">
   <properties>
    <property name="NoFurniture" value="T"/>
    <property name="Type" value="Stone"/>
    <property name="placeable" value="F"/>
   </properties>
  </tile>
  <tile id="1965">
   <properties>
    <property name="NoFurniture" value="T"/>
    <property name="Type" value="Stone"/>
    <property name="placeable" value="f"/>
   </properties>
  </tile>
  <tile id="1966">
   <properties>
    <property name="NoFurniture" value="T"/>
    <property name="Type" value="Stone"/>
    <property name="placeable" value="f"/>
   </properties>
  </tile>
  <tile id="200">
   <properties>
    <property name="Buildable" type="bool" value="true"/>
    <property name="Diggable" value="T"/>
    <property name="Type" value="Grass"/>
   </properties>
  </tile>
  <tile id="201">
   <properties>
    <property name="Buildable" type="bool" value="true"/>
    <property name="Diggable" value="T"/>
    <property name="Type" value="Grass"/>
   </properties>
  </tile>
  <tile id="202">
   <properties>
    <property name="Buildable" type="bool" value="true"/>
    <property name="Diggable" value="T"/>
   </properties>
  </tile>
  <tile id="203">
   <properties>
    <property name="Buildable" type="bool" value="true"/>
    <property name="Diggable" value="T"/>
    <property name="Type" value="Grass"/>
   </properties>
  </tile>
  <tile id="204">
   <properties>
    <property name="Buildable" type="bool" value="true"/>
    <property name="Diggable" value="T"/>
    <property name="Type" value="Grass"/>
   </properties>
  </tile>
  <tile id="205">
   <properties>
    <property name="Buildable" type="bool" value="true"/>
    <property name="Diggable" value="T"/>
    <property name="Type" value="Grass"/>
   </properties>
  </tile>
  <tile id="206">
   <properties>
    <property name="Diggable" value="T"/>
    <property name="Type" value="Dirt"/>
   </properties>
  </tile>
  <tile id="207">
   <properties>
    <property name="Diggable" value="T"/>
    <property name="Type" value="Dirt"/>
   </properties>
  </tile>
  <tile id="209">
   <properties>
    <property name="Water" value="T"/>
   </properties>
  </tile>
  <tile id="225">
   <properties>
    <property name="Buildable" type="bool" value="true"/>
    <property name="Diggable" value="T"/>
    <property name="Type" value="Grass"/>
   </properties>
  </tile>
  <tile id="226">
   <properties>
    <property name="Diggable" value="T"/>
    <property name="Type" value="Dirt"/>
   </properties>
  </tile>
  <tile id="227">
   <properties>
    <property name="Diggable" value="T"/>
    <property name="Type" value="Dirt"/>
   </properties>
  </tile>
  <tile id="228">
   <properties>
    <property name="Buildable" type="bool" value="true"/>
    <property name="Diggable" value="T"/>
    <property name="Type" value="Grass"/>
   </properties>
  </tile>
  <tile id="229">
   <properties>
    <property name="Buildable" type="bool" value="true"/>
    <property name="Diggable" value="T"/>
    <property name="Type" value="Grass"/>
   </properties>
  </tile>
  <tile id="230">
   <properties>
    <property name="Buildable" type="bool" value="true"/>
    <property name="Diggable" value="T"/>
    <property name="Type" value="Grass"/>
   </properties>
  </tile>
  <tile id="231">
   <properties>
    <property name="Diggable" value="T"/>
    <property name="Type" value="Dirt"/>
   </properties>
  </tile>
  <tile id="232">
   <properties>
    <property name="Buildable" type="bool" value="true"/>
    <property name="Diggable" value="T"/>
    <property name="Passable" value="T"/>
    <property name="Type" value="Grass"/>
   </properties>
  </tile>
  <tile id="234">
   <properties>
    <property name="Water" value="T"/>
   </properties>
  </tile>
  <tile id="250">
   <properties>
    <property name="Buildable" type="bool" value="true"/>
    <property name="Diggable" value="T"/>
    <property name="Type" value="Grass"/>
   </properties>
  </tile>
  <tile id="251">
   <properties>
    <property name="Buildable" type="bool" value="true"/>
    <property name="Diggable" value="T"/>
    <property name="Type" value="Grass"/>
   </properties>
  </tile>
  <tile id="252">
   <properties>
    <property name="Buildable" type="bool" value="true"/>
    <property name="Diggable" value="T"/>
   </properties>
  </tile>
  <tile id="253">
   <properties>
    <property name="Buildable" type="bool" value="true"/>
    <property name="Diggable" value="T"/>
    <property name="Type" value="Grass"/>
   </properties>
  </tile>
  <tile id="254">
   <properties>
    <property name="Buildable" type="bool" value="true"/>
    <property name="Diggable" value="T"/>
    <property name="Type" value="Grass"/>
   </properties>
  </tile>
  <tile id="255">
   <properties>
    <property name="Buildable" type="bool" value="true"/>
    <property name="Diggable" value="T"/>
    <property name="Type" value="Grass"/>
   </properties>
  </tile>
  <tile id="256">
   <properties>
    <property name="Buildable" type="bool" value="true"/>
    <property name="Diggable" value="T"/>
    <property name="Type" value="Grass"/>
   </properties>
  </tile>
  <tile id="257">
   <properties>
    <property name="Buildable" type="bool" value="true"/>
    <property name="Diggable" value="T"/>
    <property name="Passable" value="T"/>
    <property name="Type" value="Grass"/>
   </properties>
  </tile>
  <tile id="261">
   <properties>
    <property name="Buildable" type="bool" value="true"/>
   </properties>
  </tile>
  <tile id="275">
   <properties>
    <property name="Buildable" type="bool" value="true"/>
    <property name="Diggable" value="T"/>
    <property name="Type" value="Grass"/>
   </properties>
  </tile>
  <tile id="276">
   <properties>
    <property name="Buildable" type="bool" value="true"/>
    <property name="Diggable" value="T"/>
    <property name="Type" value="Grass"/>
   </properties>
  </tile>
  <tile id="277">
   <properties>
    <property name="Buildable" type="bool" value="true"/>
    <property name="Diggable" value="T"/>
    <property name="Type" value="Grass"/>
   </properties>
  </tile>
  <tile id="278">
   <properties>
    <property name="Buildable" type="bool" value="true"/>
    <property name="Diggable" value="T"/>
    <property name="Type" value="Grass"/>
   </properties>
  </tile>
  <tile id="279">
   <properties>
    <property name="Buildable" type="bool" value="true"/>
    <property name="Diggable" value="T"/>
    <property name="Type" value="Grass"/>
   </properties>
  </tile>
  <tile id="281">
   <properties>
    <property name="Buildable" type="bool" value="true"/>
    <property name="Diggable" value="T"/>
    <property name="Type" value="Grass"/>
   </properties>
  </tile>
  <tile id="282">
   <properties>
    <property name="Buildable" type="bool" value="true"/>
    <property name="Diggable" value="T"/>
    <property name="Passable" value="T"/>
    <property name="Type" value="Grass"/>
   </properties>
  </tile>
  <tile id="286">
   <properties>
    <property name="Buildable" type="bool" value="true"/>
   </properties>
  </tile>
  <tile id="300">
   <properties>
    <property name="Buildable" type="bool" value="true"/>
    <property name="Diggable" value="T"/>
    <property name="Type" value="Grass"/>
   </properties>
  </tile>
  <tile id="301">
   <properties>
    <property name="Buildable" type="bool" value="true"/>
    <property name="Diggable" value="T"/>
    <property name="Type" value="Grass"/>
   </properties>
  </tile>
  <tile id="302">
   <properties>
    <property name="Buildable" type="bool" value="true"/>
    <property name="Diggable" value="T"/>
    <property name="Type" value="Grass"/>
   </properties>
  </tile>
  <tile id="303">
   <properties>
    <property name="Buildable" type="bool" value="true"/>
    <property name="Diggable" value="T"/>
    <property name="Type" value="Grass"/>
   </properties>
  </tile>
  <tile id="304">
   <properties>
    <property name="Buildable" type="bool" value="true"/>
    <property name="Diggable" value="T"/>
    <property name="Type" value="Grass"/>
   </properties>
  </tile>
  <tile id="305">
   <properties>
    <property name="Buildable" type="bool" value="true"/>
    <property name="Diggable" value="T"/>
    <property name="Type" value="Grass"/>
   </properties>
  </tile>
  <tile id="306">
   <properties>
    <property name="Buildable" type="bool" value="true"/>
    <property name="Diggable" value="T"/>
    <property name="Type" value="Grass"/>
   </properties>
  </tile>
  <tile id="307">
   <properties>
    <property name="Buildable" type="bool" value="true"/>
    <property name="Diggable" value="T"/>
    <property name="Passable" value="T"/>
    <property name="Type" value="Grass"/>
   </properties>
  </tile>
  <tile id="311">
   <properties>
    <property name="Buildable" type="bool" value="true"/>
   </properties>
  </tile>
  <tile id="312">
   <properties>
    <property name="Type" value="Wood"/>
   </properties>
  </tile>
  <tile id="313">
   <properties>
    <property name="Type" value="Wood"/>
   </properties>
  </tile>
  <tile id="314">
   <properties>
    <property name="Type" value="Wood"/>
   </properties>
  </tile>
  <tile id="325">
   <properties>
    <property name="Buildable" type="bool" value="true"/>
    <property name="Diggable" value="T"/>
    <property name="Type" value="Grass"/>
   </properties>
  </tile>
  <tile id="326">
   <properties>
    <property name="Buildable" type="bool" value="true"/>
    <property name="Diggable" value="T"/>
    <property name="Type" value="Grass"/>
   </properties>
  </tile>
  <tile id="327">
   <properties>
    <property name="Buildable" type="bool" value="true"/>
    <property name="Diggable" value="T"/>
    <property name="Type" value="Grass"/>
   </properties>
  </tile>
  <tile id="328">
   <properties>
    <property name="Buildable" type="bool" value="true"/>
    <property name="Diggable" value="T"/>
    <property name="Type" value="Grass"/>
   </properties>
  </tile>
  <tile id="329">
   <properties>
    <property name="Buildable" type="bool" value="true"/>
    <property name="Diggable" value="T"/>
    <property name="Type" value="Grass"/>
   </properties>
  </tile>
  <tile id="331">
   <properties>
    <property name="Buildable" type="bool" value="true"/>
    <property name="Diggable" value="T"/>
    <property name="Type" value="Grass"/>
   </properties>
  </tile>
  <tile id="332">
   <properties>
    <property name="Buildable" type="bool" value="true"/>
    <property name="Diggable" value="T"/>
    <property name="Type" value="Grass"/>
   </properties>
  </tile>
  <tile id="337">
   <properties>
    <property name="Type" value="Wood"/>
   </properties>
  </tile>
  <tile id="338">
   <properties>
    <property name="Type" value="Wood"/>
   </properties>
  </tile>
  <tile id="339">
   <properties>
    <property name="Type" value="Wood"/>
   </properties>
  </tile>
  <tile id="350">
   <properties>
    <property name="Buildable" type="bool" value="true"/>
    <property name="Diggable" value="T"/>
    <property name="Type" value="Grass"/>
   </properties>
  </tile>
  <tile id="351">
   <properties>
    <property name="Buildable" type="bool" value="true"/>
    <property name="Diggable" value="T"/>
    <property name="Type" value="Grass"/>
   </properties>
  </tile>
  <tile id="352">
   <properties>
    <property name="Buildable" type="bool" value="true"/>
    <property name="Diggable" value="T"/>
    <property name="Type" value="Grass"/>
   </properties>
  </tile>
  <tile id="353">
   <properties>
    <property name="Buildable" type="bool" value="true"/>
    <property name="Diggable" value="T"/>
    <property name="Type" value="Grass"/>
   </properties>
  </tile>
  <tile id="354">
   <properties>
    <property name="Buildable" type="bool" value="true"/>
    <property name="Diggable" value="T"/>
    <property name="Type" value="Grass"/>
   </properties>
  </tile>
  <tile id="355">
   <properties>
    <property name="Buildable" type="bool" value="true"/>
    <property name="Diggable" value="T"/>
    <property name="Type" value="Grass"/>
   </properties>
  </tile>
  <tile id="356">
   <properties>
    <property name="Buildable" type="bool" value="true"/>
    <property name="Diggable" value="T"/>
    <property name="Type" value="Grass"/>
   </properties>
  </tile>
  <tile id="357">
   <properties>
    <property name="Buildable" type="bool" value="true"/>
    <property name="Diggable" value="T"/>
    <property name="Type" value="Grass"/>
   </properties>
  </tile>
  <tile id="375">
   <properties>
    <property name="Buildable" type="bool" value="true"/>
    <property name="Diggable" value="T"/>
    <property name="Type" value="Grass"/>
   </properties>
  </tile>
  <tile id="376">
   <properties>
    <property name="Buildable" type="bool" value="true"/>
    <property name="Diggable" value="T"/>
    <property name="Type" value="Grass"/>
   </properties>
  </tile>
  <tile id="377">
   <properties>
    <property name="Buildable" type="bool" value="true"/>
    <property name="Diggable" value="T"/>
    <property name="Type" value="Grass"/>
   </properties>
  </tile>
  <tile id="378">
   <properties>
    <property name="Buildable" type="bool" value="true"/>
    <property name="Diggable" value="T"/>
    <property name="Type" value="Grass"/>
   </properties>
  </tile>
  <tile id="379">
   <properties>
    <property name="Buildable" type="bool" value="true"/>
    <property name="Diggable" value="T"/>
    <property name="Type" value="Grass"/>
   </properties>
  </tile>
  <tile id="380">
   <properties>
    <property name="Buildable" type="bool" value="true"/>
    <property name="Diggable" value="T"/>
    <property name="Type" value="Grass"/>
   </properties>
  </tile>
  <tile id="381">
   <properties>
    <property name="Buildable" type="bool" value="true"/>
    <property name="Diggable" value="T"/>
    <property name="Type" value="Grass"/>
   </properties>
  </tile>
  <tile id="382">
   <properties>
    <property name="Buildable" type="bool" value="true"/>
    <property name="Diggable" value="T"/>
    <property name="Type" value="Grass"/>
   </properties>
  </tile>
  <tile id="400">
   <properties>
    <property name="Buildable" type="bool" value="true"/>
    <property name="Diggable" value="T"/>
    <property name="Type" value="Grass"/>
   </properties>
  </tile>
  <tile id="401">
   <properties>
    <property name="Buildable" type="bool" value="true"/>
    <property name="Diggable" value="T"/>
    <property name="Type" value="Grass"/>
   </properties>
  </tile>
  <tile id="402">
   <properties>
    <property name="Buildable" type="bool" value="true"/>
    <property name="Diggable" value="T"/>
    <property name="Type" value="Grass"/>
   </properties>
  </tile>
  <tile id="403">
   <properties>
    <property name="Buildable" type="bool" value="true"/>
    <property name="Diggable" value="T"/>
    <property name="Type" value="Grass"/>
   </properties>
  </tile>
  <tile id="404">
   <properties>
    <property name="Buildable" type="bool" value="true"/>
    <property name="Diggable" value="T"/>
    <property name="Type" value="Grass"/>
   </properties>
  </tile>
  <tile id="405">
   <properties>
    <property name="Buildable" type="bool" value="true"/>
    <property name="Diggable" value="T"/>
    <property name="Type" value="Grass"/>
   </properties>
  </tile>
  <tile id="406">
   <properties>
    <property name="Buildable" type="bool" value="true"/>
    <property name="Diggable" value="T"/>
    <property name="Type" value="Grass"/>
   </properties>
  </tile>
  <tile id="407">
   <properties>
    <property name="Buildable" type="bool" value="true"/>
    <property name="Diggable" value="T"/>
    <property name="Type" value="Grass"/>
   </properties>
  </tile>
  <tile id="420">
   <properties>
    <property name="Buildable" type="bool" value="true"/>
   </properties>
  </tile>
  <tile id="421">
   <properties>
    <property name="Buildable" type="bool" value="true"/>
   </properties>
  </tile>
  <tile id="422">
   <properties>
    <property name="Buildable" type="bool" value="true"/>
   </properties>
  </tile>
  <tile id="423">
   <properties>
    <property name="Buildable" type="bool" value="true"/>
   </properties>
  </tile>
  <tile id="436">
   <properties>
    <property name="Type" value="Wood"/>
   </properties>
  </tile>
  <tile id="460">
   <properties>
    <property name="NoSpawn" type="bool" value="true"/>
   </properties>
  </tile>
  <tile id="463">
   <properties>
    <property name="Diggable" value="T"/>
   </properties>
  </tile>
  <tile id="471">
   <properties>
    <property name="Diggable" value="T"/>
    <property name="Type" value="Dirt"/>
   </properties>
  </tile>
  <tile id="472">
   <properties>
    <property name="Diggable" value="T"/>
    <property name="Type" value="Dirt"/>
   </properties>
  </tile>
  <tile id="473">
   <properties>
    <property name="Diggable" value="T"/>
    <property name="Type" value="Dirt"/>
   </properties>
  </tile>
  <tile id="488">
   <properties>
    <property name="Diggable" value="T"/>
   </properties>
  </tile>
  <tile id="509">
   <properties>
    <property name="NoSpawn" value="T"/>
   </properties>
  </tile>
  <tile id="512">
   <properties>
    <property name="Buildable" type="bool" value="true"/>
   </properties>
  </tile>
  <tile id="513">
   <properties>
    <property name="Diggable" value="T"/>
   </properties>
  </tile>
  <tile id="534">
   <properties>
    <property name="NoSpawn" value="t"/>
   </properties>
  </tile>
  <tile id="536">
   <properties>
    <property name="Buildable" value="t"/>
   </properties>
  </tile>
  <tile id="537">
   <properties>
    <property name="Buildable" type="bool" value="true"/>
   </properties>
  </tile>
  <tile id="538">
   <properties>
    <property name="Buildable" value="T"/>
   </properties>
  </tile>
  <tile id="560">
   <properties>
    <property name="Diggable" value="T"/>
   </properties>
  </tile>
  <tile id="562">
   <properties>
    <property name="Buildable" type="bool" value="true"/>
    <property name="NoSpawn" value="Tree"/>
   </properties>
  </tile>
  <tile id="563">
   <properties>
    <property name="Buildable" type="bool" value="true"/>
   </properties>
  </tile>
  <tile id="564">
   <properties>
    <property name="Diggable" value="T"/>
   </properties>
  </tile>
  <tile id="565">
   <properties>
    <property name="Buildable" type="bool" value="true"/>
   </properties>
  </tile>
  <tile id="585">
   <properties>
    <property name="Diggable" value="T"/>
   </properties>
  </tile>
  <tile id="586">
   <properties>
    <property name="Buildable" value="T"/>
   </properties>
  </tile>
  <tile id="587">
   <properties>
    <property name="Diggable" value="T"/>
    <property name="Type" value="Dirt"/>
   </properties>
  </tile>
  <tile id="588">
   <properties>
    <property name="Buildable" value="T"/>
    <property name="Type" value="Dirt"/>
   </properties>
  </tile>
  <tile id="589">
   <properties>
    <property name="Diggable" value="T"/>
   </properties>
  </tile>
  <tile id="610">
   <properties>
    <property name="Diggable" value="T"/>
   </properties>
  </tile>
  <tile id="611">
   <properties>
    <property name="Buildable" value="t"/>
   </properties>
  </tile>
  <tile id="612">
   <properties>
    <property name="Buildable" value="T"/>
    <property name="Type" value="Dirt"/>
   </properties>
  </tile>
  <tile id="613">
   <properties>
    <property name="Buildable" type="bool" value="true"/>
   </properties>
  </tile>
  <tile id="614">
   <properties>
    <property name="Diggable" value="T"/>
   </properties>
  </tile>
  <tile id="615">
   <properties>
    <property name="Buildable" value="T"/>
   </properties>
  </tile>
  <tile id="616">
   <properties>
    <property name="Buildable" type="bool" value="true"/>
    <property name="Type" value="Dirt"/>
   </properties>
  </tile>
  <tile id="618">
   <properties>
    <property name="Buildable" value="T"/>
    <property name="Type" value="Dirt"/>
   </properties>
  </tile>
  <tile id="645">
   <properties>
    <property name="Buildable" type="bool" value="true"/>
   </properties>
  </tile>
  <tile id="779">
   <properties>
    <property name="Passable" value="T"/>
    <property name="Type" value="Wood"/>
   </properties>
  </tile>
  <tile id="780">
   <properties>
    <property name="Passable" value="T"/>
    <property name="Type" value="Wood"/>
   </properties>
  </tile>
  <tile id="781">
   <properties>
    <property name="Passable" value="T"/>
    <property name="Type" value="Wood"/>
   </properties>
  </tile>
  <tile id="782">
   <properties>
    <property name="Passable" value="T"/>
    <property name="Type" value="Wood"/>
   </properties>
  </tile>
  <tile id="809">
   <properties>
    <property name="NoSpawn" value="All"/>
    <property name="Passable" value="T"/>
    <property name="Type" value="Wood"/>
   </properties>
  </tile>
  <tile id="834">
   <properties>
    <property name="Passable" value="T"/>
    <property name="Type" value="Wood"/>
   </properties>
  </tile>
  <tile id="859">
   <properties>
    <property name="Passable" value="T"/>
    <property name="Type" value="Wood"/>
   </properties>
  </tile>
  <tile id="860">
   <properties>
    <property name="Passable" value="T"/>
    <property name="Type" value="Wood"/>
   </properties>
  </tile>
  <tile id="884">
   <properties>
    <property name="Passable" value="T"/>
    <property name="Type" value="Wood"/>
   </properties>
  </tile>
  <tile id="885">
   <properties>
    <property name="Passable" value="T"/>
    <property name="Type" value="Wood"/>
   </properties>
  </tile>
  <tile id="910">
   <properties>
    <property name="Passable" value="T"/>
    <property name="Type" value="Wood"/>
   </properties>
  </tile>
 </tileset>
 <tileset firstgid="2012" name="z_spring_town" tilewidth="16" tileheight="16" tilecount="2304" columns="32">
  <image source="spring_town.png" width="512" height="1152"/>
  <tile id="1007">
   <properties>
    <property name="Type" value="stone"/>
   </properties>
  </tile>
  <tile id="1008">
   <properties>
    <property name="Type" value="stone"/>
   </properties>
  </tile>
  <tile id="885">
   <properties>
    <property name="Buildable" type="bool" value="true"/>
    <property name="Diggable" value="T"/>
    <property name="Passable" value="T"/>
    <property name="Type" value="Grass"/>
   </properties>
  </tile>
  <tile id="886">
   <properties>
    <property name="Buildable" type="bool" value="true"/>
    <property name="Diggable" value="T"/>
    <property name="Passable" value="T"/>
    <property name="Type" value="Grass"/>
   </properties>
  </tile>
  <tile id="887">
   <properties>
    <property name="Buildable" type="bool" value="true"/>
    <property name="Diggable" value="T"/>
    <property name="Passable" value="T"/>
    <property name="Type" value="Grass"/>
   </properties>
  </tile>
  <tile id="909">
   <properties>
    <property name="Type" value="stone"/>
   </properties>
  </tile>
  <tile id="916">
   <properties>
    <property name="Water" value="T"/>
   </properties>
  </tile>
  <tile id="950">
   <properties>
    <property name="Water" value="T"/>
   </properties>
  </tile>
  <tile id="969">
   <properties>
    <property name="Type" value="stone"/>
   </properties>
  </tile>
  <tile id="970">
   <properties>
    <property name="Type" value="stone"/>
   </properties>
  </tile>
 </tileset>
 <tileset firstgid="4316" name="z_extras" tilewidth="16" tileheight="16" tilecount="1800" columns="30">
  <image source="spring_daisyextras.png" width="480" height="960"/>
  <tile id="318">
   <properties>
    <property name="Passable" value="T"/>
   </properties>
  </tile>
  <tile id="319">
   <properties>
    <property name="Passable" value="T"/>
   </properties>
  </tile>
  <tile id="320">
   <properties>
    <property name="Passable" value="T"/>
   </properties>
  </tile>
  <tile id="34">
   <properties>
    <property name="Passable" value="T"/>
    <property name="Type" value="Wood"/>
   </properties>
  </tile>
  <tile id="4">
   <properties>
    <property name="Passable" value="T"/>
    <property name="Type" value="Wood"/>
   </properties>
  </tile>
  <tile id="64">
   <properties>
    <property name="Passable" value="T"/>
    <property name="Type" value="Wood"/>
   </properties>
  </tile>
  <tile id="94">
   <properties>
    <property name="Passable" value="T"/>
    <property name="Type" value="Wood"/>
   </properties>
  </tile>
 </tileset>
 <layer id="1" name="Back" width="80" height="65">
  <data encoding="csv">
417,417,417,417,417,417,417,417,417,417,417,417,417,417,417,417,417,417,417,417,417,212,212,388,388,388,388,388,388,388,416,417,417,417,417,417,417,417,417,388,388,388,388,388,388,388,390,414,237,239,1283,1285,1360,1310,1283,265,387,416,417,417,417,417,417,417,417,417,417,417,417,417,417,417,417,417,417,417,417,417,417,417,
417,417,417,417,417,417,417,417,417,417,417,417,417,417,417,417,417,417,417,388,212,212,388,388,388,388,388,388,388,388,416,417,417,417,417,417,417,417,417,388,388,337,388,390,413,413,414,237,239,1283,1283,1283,1336,1359,1283,265,387,416,417,417,417,417,417,417,417,417,417,417,417,417,417,417,417,417,417,417,417,417,417,417,
417,417,417,417,417,417,417,417,417,417,417,417,417,417,417,417,417,388,388,388,388,388,388,388,388,388,388,388,388,388,416,417,417,417,417,417,417,417,418,388,337,366,337,389,237,238,238,239,1283,1283,1360,1360,1283,1283,215,290,387,416,417,417,417,417,417,417,417,417,417,417,417,417,417,417,417,417,417,417,417,417,417,417,
417,417,388,413,413,413,413,413,413,413,413,413,413,413,413,413,413,388,388,388,388,388,417,417,417,417,417,417,417,417,441,442,442,442,442,442,442,442,443,388,388,388,390,414,262,1283,1283,1283,1283,1283,1310,1359,1283,1283,265,362,365,416,417,417,417,417,417,417,417,417,417,417,417,417,417,417,417,417,417,417,417,417,417,417,
417,417,388,388,388,388,388,388,388,388,388,388,388,388,388,388,388,388,388,388,388,417,417,417,417,417,417,417,417,417,388,388,388,388,388,388,388,388,388,388,388,337,389,237,239,1283,1336,1283,1359,1283,1283,1283,1283,215,290,412,440,441,442,442,442,442,442,442,442,442,442,444,417,417,417,417,417,417,417,417,417,417,417,417,
388,388,388,388,388,388,388,388,388,388,388,388,388,388,388,388,388,388,388,388,388,442,442,442,442,442,442,442,444,417,388,388,1131,1131,1131,1131,1131,388,388,388,388,388,389,262,1283,1283,1309,1360,1283,1283,215,288,288,290,362,187,412,440,388,388,388,388,388,388,388,388,388,441,442,442,442,442,442,442,442,442,442,442,442,442,
388,388,388,388,388,388,388,388,388,388,388,388,388,388,388,388,388,388,388,388,342,388,341,366,366,366,366,366,441,417,388,388,1156,1156,1156,1156,1156,388,388,418,337,388,389,262,1283,1360,1285,1283,263,263,265,362,364,237,240,237,240,387,388,341,388,388,388,388,388,388,388,342,388,337,388,388,388,388,388,341,388,341,388,388,
388,388,388,388,388,388,388,388,388,388,388,388,388,388,388,388,388,388,388,388,337,342,337,341,341,388,388,342,342,416,417,417,417,417,417,417,417,417,417,418,388,342,389,262,1283,1283,1283,1283,636,215,290,387,389,262,214,239,265,387,366,341,388,342,388,388,388,342,388,388,390,413,413,413,440,388,388,388,337,388,388,388,
388,388,388,388,388,388,388,1009,1010,1011,390,440,388,388,341,388,388,388,388,342,388,388,342,388,337,341,341,337,366,441,442,442,442,442,442,442,442,442,442,443,337,337,389,262,3019,2982,2982,3020,215,290,362,365,389,287,289,215,290,388,388,342,388,388,342,388,388,388,342,337,389,187,437,291,412,440,342,388,388,388,388,388,
388,388,388,342,342,337,388,337,388,337,415,365,341,388,341,388,342,388,342,388,366,341,388,341,388,337,388,388,337,388,388,388,388,342,337,341,342,337,388,388,342,341,389,262,3019,2981,2981,3020,265,362,365,341,415,363,287,290,363,365,388,337,341,388,388,388,337,388,342,388,415,364,291,187,437,387,388,337,388,388,388,388,
388,388,388,388,388,342,388,388,341,388,342,388,337,388,337,388,388,388,337,388,388,388,337,341,388,388,388,388,388,388,388,388,388,341,337,390,413,413,440,337,388,390,414,262,1283,1283,1283,1283,265,387,388,337,388,341,388,342,390,440,388,388,388,337,388,388,388,388,388,388,337,415,363,363,363,365,337,342,342,388,388,388,
388,388,341,341,337,388,341,388,388,388,388,388,388,388,342,388,388,341,388,388,388,440,342,388,341,388,388,388,388,388,388,388,388,388,390,414,291,188,412,440,341,389,237,239,2928,1359,1309,2962,265,387,342,388,388,390,413,413,414,412,440,388,388,388,388,388,388,388,388,388,388,341,341,388,341,337,390,413,440,388,388,388,
388,388,341,388,388,388,388,388,388,388,388,388,388,388,388,388,388,342,349,349,349,412,413,440,388,388,388,388,388,388,388,388,388,341,389,291,292,291,187,412,413,414,262,1283,1283,1336,1360,1283,265,387,342,388,390,414,438,187,438,362,365,388,388,388,388,388,388,388,388,388,388,388,388,388,388,388,415,364,387,388,388,388,
388,388,388,388,388,388,388,388,388,388,388,388,388,388,388,388,388,388,349,349,349,388,388,387,341,388,388,388,388,388,388,388,388,341,389,187,237,238,238,240,188,437,262,1283,1359,1360,1283,1283,265,387,342,366,389,437,362,363,363,365,342,388,388,388,388,388,388,388,388,388,388,341,388,388,388,342,388,415,365,388,388,388,
388,388,388,388,388,388,388,388,388,388,388,388,388,388,388,388,388,388,349,349,349,388,388,387,337,388,388,388,388,388,388,388,388,390,414,292,349,374,375,375,187,187,4346,1283,1283,1283,1283,215,290,412,413,440,415,363,365,388,341,337,388,388,388,388,388,388,388,388,388,388,388,388,388,388,388,388,337,388,388,388,388,388,
388,388,388,388,388,388,388,388,388,388,388,388,388,388,388,388,388,388,349,349,349,417,417,387,388,388,388,388,388,388,388,388,388,389,187,388,349,374,375,375,388,388,388,1283,1283,1283,1283,388,388,212,212,412,413,413,413,440,388,388,337,337,388,388,388,388,388,388,388,388,388,388,1009,1010,984,1011,337,337,342,388,342,388,
417,417,417,417,417,417,417,417,417,417,417,417,417,417,417,417,417,417,394,442,444,417,417,387,337,342,388,1009,1010,1011,342,341,388,389,388,388,349,350,351,351,388,388,388,312,1283,1283,312,388,388,388,388,388,388,388,388,412,440,337,388,388,388,388,388,388,388,388,388,388,388,388,388,342,388,388,388,388,388,388,388,388,
442,388,388,442,442,442,442,442,442,442,442,442,442,442,442,442,442,442,443,388,341,444,417,412,413,413,440,388,341,341,342,390,413,414,388,388,374,375,376,376,388,388,388,312,312,312,312,388,388,388,388,388,388,388,388,438,387,388,388,337,388,388,390,413,413,413,413,440,388,341,388,342,337,388,341,337,337,388,388,388,
388,388,388,388,388,366,366,342,337,366,342,342,337,388,388,388,388,388,342,337,341,416,417,388,388,291,412,413,413,413,413,414,388,388,417,417,418,388,390,414,237,238,238,238,238,238,238,238,238,238,240,388,388,388,388,187,387,388,341,388,390,413,414,237,238,238,240,412,413,440,388,388,388,341,388,342,388,388,388,388,
388,388,388,366,388,337,342,341,342,388,388,388,341,388,341,337,342,388,337,388,341,416,417,388,388,388,388,388,388,388,388,388,388,388,417,394,443,390,414,237,239,1283,1283,1283,1283,1283,1283,1283,1283,1283,214,240,187,387,388,188,412,413,413,413,414,237,238,239,268,601,214,238,240,412,413,413,413,413,413,413,413,413,413,413,
388,388,388,388,388,388,341,388,388,337,388,341,388,341,388,388,341,388,342,337,388,416,417,388,388,388,388,388,388,388,388,388,388,417,394,443,342,389,437,262,1283,1283,1291,1292,1292,1292,1292,1290,1359,1283,1283,265,187,387,416,388,388,388,388,291,291,652,325,326,326,550,525,263,263,212,187,388,388,388,388,388,388,388,388,388,
388,388,388,388,337,388,390,440,388,388,388,341,342,337,337,388,388,366,388,337,388,416,417,417,417,388,388,388,388,388,388,388,417,417,418,388,388,415,364,262,1283,1359,1291,1317,1314,1264,1289,1317,1293,1359,1283,265,291,387,416,388,388,388,388,388,388,349,349,375,375,375,375,375,376,388,388,388,388,388,388,388,388,388,388,388,
341,341,388,388,388,341,415,365,337,341,341,388,341,388,366,388,341,388,342,388,388,441,417,417,417,417,417,417,417,417,417,417,417,394,443,342,337,388,389,262,1283,1360,1283,1340,1264,1317,1314,1315,1283,1336,1283,265,437,387,416,388,388,388,388,388,388,349,349,375,375,376,376,375,375,388,388,388,388,388,388,388,388,388,388,388,
388,337,337,388,341,388,337,388,388,388,341,388,388,388,342,388,342,341,388,388,388,366,441,442,442,442,442,442,442,442,442,442,442,443,388,341,388,390,414,287,289,1283,1285,1283,1342,1342,1342,1283,1310,1283,215,290,188,387,416,417,417,417,417,417,417,349,349,375,376,375,375,376,376,388,388,417,417,417,417,417,417,417,417,417,
341,366,388,366,388,388,388,388,342,337,388,342,388,337,337,388,337,337,388,341,342,390,440,388,337,341,341,342,388,388,388,341,388,388,388,388,390,414,187,438,287,288,289,1283,1283,1360,1359,1283,1283,215,290,437,187,387,441,442,366,444,417,417,417,394,442,442,442,442,442,442,444,417,417,417,394,442,442,442,444,417,417,417,
366,388,388,337,388,337,337,388,366,388,337,337,388,388,337,388,337,342,388,341,337,415,365,388,341,341,388,388,337,388,341,388,388,388,388,342,389,188,187,292,292,188,262,268,1283,1336,1309,1360,1283,265,291,291,362,365,388,342,342,441,442,442,442,443,342,388,337,342,342,388,366,442,442,442,443,341,366,388,441,442,442,442,
337,337,341,337,388,341,341,388,388,337,342,388,388,388,388,388,342,337,388,388,337,341,341,388,341,341,388,388,388,388,341,342,337,388,388,342,415,363,364,212,437,291,262,1283,1283,1285,1283,1283,1283,265,291,187,387,388,366,342,337,388,342,337,341,342,388,388,388,337,341,388,388,388,388,388,337,388,341,337,388,388,388,388,
366,388,341,388,341,337,388,337,337,388,388,388,341,342,388,366,388,388,388,388,388,388,341,388,388,388,337,341,341,388,341,388,366,388,388,388,342,388,389,291,187,291,262,1283,1286,1283,1336,1283,215,290,187,187,387,342,388,388,342,388,337,388,341,337,388,388,388,341,337,341,388,337,341,341,388,341,388,366,342,342,388,388,
366,366,341,337,337,388,341,388,341,388,388,341,341,388,388,342,342,342,388,388,342,337,388,342,388,388,388,388,341,388,388,388,342,388,388,390,440,390,414,292,187,437,262,1283,1359,1360,1360,1283,265,187,188,362,365,341,342,390,440,388,337,341,388,337,341,341,388,341,341,337,388,388,388,341,388,388,388,342,388,388,388,388,
366,366,366,341,388,388,341,342,388,341,388,341,337,388,388,388,342,388,388,388,366,388,337,337,388,388,342,337,388,342,388,337,337,388,388,389,412,414,291,237,238,238,239,1283,1359,1361,1360,1283,265,291,362,365,341,341,337,415,365,388,341,337,388,388,388,341,388,388,341,388,388,342,337,388,342,341,342,388,388,388,388,388,
366,337,388,388,342,342,388,388,388,390,413,440,337,342,388,388,388,337,388,388,388,337,342,388,388,388,366,388,337,337,388,388,337,388,388,389,291,438,237,239,1283,1283,1283,1283,1283,1283,1336,1283,265,437,387,388,337,388,337,341,341,388,341,388,388,342,337,388,342,341,388,388,388,366,388,337,337,341,337,388,388,388,388,388,
366,337,337,342,337,388,388,337,390,414,292,412,440,388,388,342,388,337,342,388,337,388,388,342,388,388,388,337,342,388,388,388,388,388,388,415,364,237,239,1283,1283,1283,1359,1283,1285,1360,1309,1283,265,291,387,388,337,388,388,388,341,388,388,388,388,366,388,337,337,341,337,388,388,388,341,337,337,388,388,388,388,342,388,388,
366,388,388,388,337,388,337,388,389,438,437,291,412,413,413,413,413,413,413,440,388,388,341,388,341,388,342,388,388,341,342,390,440,337,337,388,389,262,1283,1283,1310,1283,1361,1284,1283,1283,1286,215,290,188,387,388,342,388,342,337,388,342,388,337,388,388,337,342,388,388,337,337,341,388,337,341,341,388,341,388,366,388,388,388,
413,413,413,413,413,413,413,413,414,292,187,187,187,187,237,238,238,238,240,412,413,413,440,342,366,366,342,388,388,342,341,415,365,337,388,388,389,262,1283,1336,1283,1359,1283,1283,1283,215,288,290,362,363,365,366,366,388,366,337,341,388,337,341,341,388,341,388,366,388,388,341,337,388,388,388,341,388,388,388,342,342,388,388,
388,388,388,388,388,187,188,291,187,212,388,388,388,388,349,349,349,349,349,212,212,212,412,440,388,342,388,337,388,388,390,440,341,388,341,388,389,262,1283,1283,1285,1283,1283,215,288,290,362,363,365,388,388,388,388,388,388,341,337,388,388,388,341,388,388,388,342,388,342,341,388,388,342,337,388,342,341,342,388,341,388,388,
388,388,388,388,388,388,388,388,388,388,388,388,388,388,349,349,349,349,349,388,388,212,187,412,440,388,388,341,390,413,414,387,388,341,388,390,414,262,1283,1283,1283,1283,215,290,291,362,365,337,337,341,388,337,341,341,388,341,388,366,342,337,388,342,341,342,388,388,366,388,388,388,366,388,337,337,341,337,388,341,388,388,
388,388,388,388,388,388,388,388,388,388,388,388,388,388,349,349,349,349,349,388,388,212,362,363,365,341,388,341,415,363,363,365,341,390,413,414,212,388,1283,1283,1283,1283,388,388,187,412,440,341,341,337,341,388,337,341,341,388,341,388,366,388,337,337,341,337,388,388,337,341,388,337,341,341,388,341,388,366,388,388,342,388,
388,388,416,417,388,388,388,388,388,388,417,417,417,417,394,442,442,442,444,417,417,417,387,337,342,342,388,342,341,388,341,337,388,389,291,388,388,388,212,1283,1283,212,212,388,388,388,387,337,341,341,337,388,388,388,341,388,388,388,342,388,388,388,388,388,388,388,341,337,388,388,388,341,388,388,388,342,337,342,341,388,
388,388,416,417,417,417,417,417,417,417,417,394,442,442,443,388,342,388,441,442,444,417,412,413,440,388,341,342,388,337,342,388,342,389,212,388,388,388,212,212,212,212,388,388,388,388,387,388,388,341,388,388,342,337,388,342,341,342,388,337,341,341,388,341,388,366,341,388,337,341,388,337,341,341,388,341,388,366,388,388,
337,388,441,442,442,442,442,442,442,442,442,443,337,341,342,388,388,341,388,388,416,417,388,388,412,413,440,390,413,440,388,388,342,389,212,388,237,238,238,238,238,238,238,240,388,388,387,388,388,388,388,388,366,388,337,337,341,337,388,388,388,341,388,388,388,342,388,388,341,337,388,388,388,341,388,388,388,342,341,388,
337,342,341,337,341,388,337,341,341,388,341,388,366,388,388,337,342,388,337,388,416,417,388,388,212,212,412,414,291,412,413,413,413,414,212,237,239,1283,1267,1267,1267,1267,1283,214,240,388,387,341,390,413,413,413,440,388,388,388,341,388,388,342,337,388,342,341,342,388,388,388,341,388,388,342,337,388,342,341,342,388,388,388,
337,388,341,341,337,388,388,388,341,337,341,388,337,341,341,388,341,388,366,388,416,417,388,388,388,388,388,388,388,388,388,212,187,212,212,262,1283,1291,1292,1292,1292,1292,1293,1283,265,388,412,413,414,437,187,291,412,440,388,388,388,388,388,366,388,337,337,341,337,388,388,388,388,388,388,366,388,337,337,341,337,388,388,388,
388,388,337,341,388,388,342,337,388,341,337,388,388,388,341,388,388,388,342,342,416,417,417,417,388,388,388,388,388,388,388,388,388,388,389,262,1283,1285,1340,1264,1289,1317,1318,1283,265,388,388,388,388,388,388,437,212,412,413,413,413,440,388,337,388,342,388,388,388,390,413,413,413,413,440,337,388,388,388,388,388,388,388,388,
388,341,388,388,388,388,366,388,337,341,388,388,342,337,388,342,341,342,388,337,441,444,417,417,417,388,388,388,388,388,388,388,388,388,389,262,1283,1283,1359,1340,1314,1315,1361,1283,265,388,388,388,388,388,388,388,388,212,212,187,187,412,413,413,413,413,413,413,413,414,238,238,240,291,412,440,341,390,413,413,413,413,414,388,
342,388,342,341,337,341,388,337,341,388,390,440,366,388,337,337,341,337,388,337,337,441,444,417,417,417,417,417,417,417,417,417,388,388,389,287,289,1283,1336,1283,1342,1283,1283,215,290,388,388,388,388,388,388,388,342,388,388,342,388,388,388,388,342,388,341,337,342,652,325,326,214,240,187,412,413,414,388,388,388,342,388,388,
388,366,337,337,341,337,388,388,388,341,415,365,388,342,388,388,342,388,388,388,366,337,441,442,442,442,442,442,442,442,442,442,388,388,389,291,262,1283,1359,1360,1359,1283,215,290,362,416,417,417,417,417,417,417,388,388,388,388,388,337,342,388,388,388,388,388,388,349,350,351,351,351,388,388,388,388,388,337,388,388,388,388,
388,388,388,341,341,388,388,342,337,388,342,341,342,388,341,342,388,337,341,337,337,337,388,388,341,337,337,341,337,341,341,388,390,413,414,237,239,1283,1361,1360,1286,1283,265,362,365,441,442,442,442,442,442,444,417,417,417,388,388,388,388,388,388,388,388,388,388,374,375,351,375,351,388,388,342,388,388,388,388,388,388,388,
337,388,342,341,388,388,388,366,388,337,337,341,337,388,341,337,388,337,337,341,388,337,341,341,388,341,388,366,388,341,390,413,414,187,237,239,1283,1283,1360,1283,1283,215,290,387,337,388,341,337,388,337,337,441,444,193,417,417,417,417,417,417,417,417,417,417,417,374,375,376,376,376,388,388,388,388,417,417,417,417,417,417,
337,342,388,388,341,388,337,388,337,337,388,388,341,388,342,342,388,337,341,337,388,388,388,341,388,388,388,342,342,388,389,187,187,291,262,1283,1283,1284,1283,1359,1283,265,362,365,390,440,342,342,388,337,341,388,441,442,442,442,442,442,442,442,442,442,442,444,417,394,442,442,442,444,417,417,417,417,417,417,193,417,417,417,
337,388,388,388,337,388,388,342,388,342,388,388,388,388,388,388,388,388,341,388,388,342,337,388,342,341,342,388,388,390,414,292,237,238,239,1283,1283,1360,1359,1283,1283,265,387,337,415,365,388,388,388,388,341,388,342,388,341,341,341,337,388,388,337,341,337,441,394,443,388,337,388,441,442,442,442,442,442,442,442,442,442,442,
388,342,388,342,388,342,388,388,366,337,341,388,337,341,341,388,341,388,388,388,388,366,388,337,337,341,337,388,342,415,364,212,262,1283,1283,1283,1285,1283,1283,215,288,290,387,388,388,388,342,342,388,337,341,388,337,388,341,388,342,388,337,341,341,388,388,342,388,388,342,341,388,341,342,388,388,388,341,388,388,341,388,388,
366,388,388,342,388,388,388,388,388,341,337,388,388,388,341,388,388,388,337,341,388,337,341,341,388,341,388,366,342,342,389,291,262,1283,1359,1361,1336,1283,244,265,291,362,365,388,341,388,388,388,388,366,388,337,337,341,342,388,388,388,341,388,388,342,388,342,341,388,388,388,388,388,388,341,342,388,388,388,341,388,388,388,
337,388,388,388,341,388,337,341,388,337,341,341,388,341,388,366,337,341,341,337,388,388,388,341,388,388,388,342,342,342,389,187,262,1283,1283,1360,1360,1283,1283,214,240,387,388,388,342,342,388,337,388,388,337,342,388,388,388,337,388,341,388,337,341,337,388,388,388,388,341,342,388,388,388,341,388,337,388,341,388,388,366,388,
337,388,341,388,388,337,341,337,388,388,388,341,388,388,388,342,341,337,341,388,388,342,337,388,342,341,342,388,342,342,415,364,287,289,1283,1361,1359,1283,1283,1283,265,387,388,388,388,388,337,341,341,388,341,388,366,388,388,388,388,341,342,388,388,388,388,342,388,337,388,341,342,388,388,388,341,342,388,388,388,341,388,388,
388,341,388,388,388,388,341,388,388,342,337,337,341,388,337,341,341,388,388,388,388,366,388,337,337,341,337,388,388,342,337,389,187,287,289,268,1360,1286,1285,1283,265,412,440,388,342,388,388,388,341,388,388,388,342,388,337,388,337,337,388,388,388,388,366,388,337,337,388,390,440,337,388,341,388,388,337,388,341,388,388,388,
342,388,388,388,388,342,388,388,388,366,388,341,337,388,388,388,388,388,388,366,388,337,337,341,337,388,388,388,337,388,390,414,291,187,262,268,1283,1283,1360,1283,214,240,387,337,388,366,342,337,388,342,341,342,388,388,342,388,337,341,342,388,337,388,388,337,342,388,388,415,365,388,388,390,440,388,388,388,341,342,388,388,
388,388,337,388,342,388,388,342,388,388,342,341,388,388,342,337,388,342,341,342,388,341,337,388,337,337,388,341,388,388,389,187,237,238,239,1283,1283,1284,1360,1283,1283,265,387,388,337,388,366,388,337,337,341,337,341,342,388,388,388,341,388,337,341,341,388,341,388,366,388,388,388,337,388,415,365,388,390,413,413,413,440,388,
342,341,388,388,388,342,342,342,390,440,388,388,388,388,366,388,337,337,341,337,388,342,342,388,337,341,388,388,342,390,414,237,239,1283,1283,1283,1336,1359,1361,1283,1283,265,387,388,388,388,342,388,388,388,388,388,388,388,337,388,341,388,388,388,388,341,341,342,388,388,388,341,388,388,390,413,413,413,414,437,291,187,412,440,
388,388,388,388,388,388,388,342,415,365,388,342,337,337,388,388,388,337,342,388,388,388,388,388,388,341,388,388,390,414,237,239,1283,1283,1360,1361,1283,1360,1283,1283,215,290,387,341,341,388,337,388,388,388,341,337,388,341,342,388,388,388,341,342,337,388,388,388,337,388,341,388,388,390,414,189,237,238,238,238,238,238,240,412,
388,366,388,388,388,388,388,388,388,388,342,366,388,341,342,390,413,440,388,388,388,388,388,388,388,388,388,390,414,291,262,1283,1283,1286,1359,1285,1283,1283,215,288,290,362,365,388,388,342,341,388,388,388,342,341,342,388,388,388,341,341,388,341,342,388,388,388,341,388,341,342,388,389,438,187,262,1283,1283,1283,1283,1283,214,240,
337,388,342,388,337,366,366,341,366,342,342,337,342,390,413,414,187,412,440,342,388,388,388,388,337,337,388,389,437,237,239,1283,1359,1336,1283,1283,215,288,290,187,291,412,413,413,440,388,388,388,341,388,388,388,388,337,388,341,388,341,342,388,388,337,388,341,388,388,388,341,388,389,291,237,239,1283,1283,1283,1283,1283,1283,265,
388,388,342,342,388,342,388,341,341,388,390,413,413,414,189,187,187,291,387,388,388,388,388,388,337,388,388,389,291,262,1283,1283,1283,1283,1283,215,290,362,437,365,437,237,238,240,387,388,337,388,388,341,341,388,388,388,388,341,342,388,388,388,388,388,388,341,342,388,341,388,388,415,364,262,1283,1283,1283,1283,1283,1283,1283,265,
388,388,388,388,388,388,388,388,388,390,414,438,187,187,438,187,291,212,412,440,388,388,388,388,388,388,388,389,437,262,1283,1360,1360,1336,1283,265,187,437,187,187,237,239,597,265,412,413,413,413,413,440,388,388,388,388,388,388,388,388,388,337,388,388,388,388,388,337,388,388,388,388,389,262,1283,1283,1283,1283,1283,1283,1283,265,
388,388,388,388,388,388,388,388,388,389,341,212,187,188,187,438,291,291,291,412,413,440,342,337,388,388,388,389,188,262,1283,1285,1359,1283,1283,265,291,292,291,237,239,243,263,265,438,291,291,437,292,412,440,388,388,388,388,388,388,388,388,388,388,388,388,388,388,388,388,388,388,388,389,287,288,289,1283,1283,1283,1283,1283,265,
388,388,388,388,388,388,388,388,388,389,363,187,293,187,187,293,212,212,212,187,293,412,440,388,388,388,388,389,187,262,1283,1284,1283,1283,215,290,293,293,293,262,550,268,215,290,293,438,437,291,293,438,387,388,388,388,388,388,388,388,388,388,388,388,388,388,388,388,388,388,388,388,389,388,388,287,288,288,288,288,288,290
</data>
 </layer>
 <objectgroup id="2" name="Back">
  <object id="1" name="TileData" x="640" y="0" width="16" height="16">
   <properties>
    <property name="NoSpawn" value="All"/>
   </properties>
  </object>
  <object id="2" name="TileData" x="656" y="0" width="16" height="16">
   <properties>
    <property name="NoSpawn" value="All"/>
   </properties>
  </object>
  <object id="3" name="TileData" x="672" y="0" width="16" height="16">
   <properties>
    <property name="NoSpawn" value="All"/>
   </properties>
  </object>
  <object id="4" name="TileData" x="640" y="64" width="16" height="16">
   <properties>
    <property name="NoSpawn" value="All"/>
   </properties>
  </object>
  <object id="5" name="TileData" x="656" y="64" width="16" height="16">
   <properties>
    <property name="NoSpawn" value="All"/>
   </properties>
  </object>
  <object id="6" name="TileData" x="544" y="80" width="16" height="16">
   <properties>
    <property name="NoFurniture" value="total"/>
    <property name="NoSpawn" value="All"/>
   </properties>
  </object>
  <object id="7" name="TileData" x="640" y="80" width="16" height="16">
   <properties>
    <property name="NoSpawn" value="All"/>
   </properties>
  </object>
  <object id="8" name="TileData" x="656" y="80" width="16" height="16">
   <properties>
    <property name="NoSpawn" value="All"/>
   </properties>
  </object>
  <object id="9" name="TileData" x="544" y="96" width="16" height="16">
   <properties>
    <property name="NoFurniture" value="total"/>
    <property name="NoSpawn" value="All"/>
   </properties>
  </object>
  <object id="10" name="TileData" x="640" y="96" width="16" height="16">
   <properties>
    <property name="NPCBarrier" value="t"/>
    <property name="NoSpawn" value="All"/>
   </properties>
  </object>
  <object id="11" name="TileData" x="656" y="96" width="16" height="16">
   <properties>
    <property name="NPCBarrier" value="t"/>
    <property name="NoSpawn" value="All"/>
   </properties>
  </object>
  <object id="12" name="TileData" x="544" y="112" width="16" height="16">
   <properties>
    <property name="NPCBarrier" value="T"/>
    <property name="NoSpawn" value="All"/>
   </properties>
  </object>
  <object id="13" name="TileData" x="768" y="112" width="16" height="16">
   <properties>
    <property name="NoFurniture" value="t"/>
    <property name="NoSpawn" value="All"/>
   </properties>
  </object>
  <object id="14" name="TileData" x="1248" y="240" width="16" height="16">
   <properties>
    <property name="NPCBarrier" value="t"/>
   </properties>
  </object>
  <object id="15" name="TileData" x="1248" y="256" width="16" height="16">
   <properties>
    <property name="NPCBarrier" value="t"/>
   </properties>
  </object>
  <object id="16" name="TileData" x="1248" y="272" width="16" height="16">
   <properties>
    <property name="NPCBarrier" value="T"/>
   </properties>
  </object>
  <object id="17" name="TileData" x="1248" y="288" width="16" height="16">
   <properties>
    <property name="NPCBarrier" value="T"/>
   </properties>
  </object>
  <object id="18" name="TileData" x="624" y="992" width="16" height="16">
   <properties>
    <property name="NPCBarrier" value="T"/>
   </properties>
  </object>
  <object id="19" name="TileData" x="640" y="992" width="16" height="16">
   <properties>
    <property name="NPCBarrier" value="T"/>
    <property name="NoSpawn" value="All"/>
   </properties>
  </object>
  <object id="20" name="TileData" x="656" y="992" width="16" height="16">
   <properties>
    <property name="NPCBarrier" value="T"/>
    <property name="NoSpawn" value="All"/>
   </properties>
  </object>
  <object id="21" name="TileData" x="672" y="992" width="16" height="16">
   <properties>
    <property name="NPCBarrier" value="T"/>
   </properties>
  </object>
  <object id="22" name="TileData" x="624" y="1008" width="16" height="16">
   <properties>
    <property name="NoSpawn" value="All"/>
   </properties>
  </object>
  <object id="23" name="TileData" x="640" y="1008" width="16" height="16">
   <properties>
    <property name="NoSpawn" value="All"/>
   </properties>
  </object>
  <object id="24" name="TileData" x="656" y="1008" width="16" height="16">
   <properties>
    <property name="NoSpawn" value="All"/>
   </properties>
  </object>
  <object id="25" name="TileData" x="672" y="1008" width="16" height="16">
   <properties>
    <property name="NPCBarrier" value="t"/>
    <property name="NoSpawn" value="All"/>
   </properties>
  </object>
  <object id="26" name="TileData" x="640" y="1024" width="16" height="16">
   <properties>
    <property name="NoSpawn" value="All"/>
   </properties>
  </object>
  <object id="27" name="TileData" x="656" y="1024" width="16" height="16">
   <properties>
    <property name="NoSpawn" value="All"/>
   </properties>
  </object>
 </objectgroup>
 <layer id="3" name="Buildings" width="80" height="65">
  <data encoding="csv">
76,77,75,76,77,0,53,166,53,53,163,169,170,163,75,76,77,90,91,390,294,379,332,504,505,504,505,504,327,328,387,2898,92,166,163,2898,388,388,389,456,0,0,0,423,2926,2927,2830,2831,2832,4562,270,53,53,53,272,53,53,53,53,53,53,53,53,53,0,0,53,53,53,53,53,53,53,53,53,53,53,53,53,53,
101,102,100,101,102,53,53,2899,2898,417,269,194,195,442,100,101,102,115,116,414,333,404,357,529,530,529,530,529,352,353,387,116,117,442,442,388,294,269,389,431,0,0,0,423,2898,0,2862,2863,2864,220,320,53,53,53,297,53,53,53,53,53,53,53,53,53,0,0,53,53,53,53,53,53,53,53,53,53,53,53,53,53,
2897,417,417,417,388,417,2897,294,417,2897,417,1879,294,2897,2897,390,413,414,379,405,358,429,382,554,555,554,555,554,377,378,294,141,53,4567,2899,388,388,2926,389,456,0,0,0,423,2897,4625,238,4560,220,320,0,53,53,272,53,53,53,53,53,53,53,53,53,2798,2799,2800,53,53,53,53,53,53,53,53,53,53,53,53,53,53,
51,52,417,1879,413,417,291,53,2899,53,1903,1904,269,413,413,414,379,405,404,430,383,454,407,579,580,579,580,579,402,478,412,166,150,151,413,413,413,413,414,481,0,0,0,423,0,220,221,221,320,0,0,53,53,297,53,53,53,53,53,53,53,53,53,2830,2831,2832,2897,1179,1180,53,1179,1180,53,1181,1182,1181,1182,1181,1182,53,
76,77,293,1904,333,504,505,504,505,504,505,504,505,504,505,504,404,430,429,455,408,479,0,0,0,0,0,0,0,503,504,504,505,1670,1671,1672,505,483,505,506,0,0,0,423,4623,270,1355,0,0,0,296,296,250,1557,1558,53,53,53,53,53,53,53,53,2862,2863,2864,2899,269,2862,2863,2864,4626,2899,2897,2899,2898,294,53,53,53,
101,102,291,333,358,484,530,1943,1944,1945,530,529,484,529,530,529,429,455,454,480,479,0,0,0,0,0,0,0,0,528,529,529,530,1695,0,1697,484,529,530,531,0,0,0,448,220,320,0,0,296,250,53,53,269,4625,294,1559,100,101,102,0,0,53,53,0,420,421,421,421,421,421,421,421,421,421,421,421,421,421,422,53,
2899,294,379,358,383,485,555,1968,1969,1970,555,554,555,554,555,485,454,480,479,0,0,0,0,0,0,0,0,0,0,553,554,554,555,1720,0,1722,555,4319,555,556,0,0,0,473,270,0,0,275,1904,1903,0,0,0,420,421,421,421,421,421,421,421,421,421,422,0,0,1083,0,0,0,0,0,0,0,0,0,0,0,423,53,
379,405,404,383,433,579,580,1993,1994,1995,580,579,580,579,580,579,479,194,195,0,0,0,0,0,0,0,0,0,0,578,579,579,580,1745,0,1747,580,4349,580,581,0,0,0,472,2952,2959,2960,2961,0,0,0,0,0,0,0,0,150,151,1108,1109,1110,4571,4631,4623,0,0,0,0,0,0,0,0,0,0,0,0,0,0,423,53,
404,430,429,408,2926,2927,4623,0,0,0,0,0,0,0,0,0,0,0,0,0,0,0,0,0,0,0,0,0,0,0,0,0,0,0,0,0,0,0,194,195,0,0,0,0,0,0,0,0,0,0,0,0,0,0,0,0,0,53,4563,1135,4568,0,0,0,0,0,0,0,0,0,0,0,0,0,0,0,0,0,423,141,
429,455,454,2052,0,2897,0,0,0,0,0,0,0,0,0,0,0,0,0,0,0,0,0,0,0,0,0,0,0,0,0,0,0,0,0,0,0,0,0,0,0,0,0,0,0,0,0,0,0,0,0,0,0,2801,2802,2803,0,0,0,0,0,0,0,0,0,0,0,0,0,0,0,0,0,0,0,0,0,0,423,166,
454,480,479,2084,0,0,0,0,0,0,0,0,0,0,0,0,0,0,0,0,0,0,0,0,1160,0,0,0,0,0,0,0,0,0,0,0,0,0,0,0,0,0,0,0,3016,3023,3024,3025,0,0,0,0,0,2865,2866,2867,2100,0,0,0,0,0,0,0,0,0,0,0,0,0,0,0,0,0,0,0,0,0,423,53,
479,53,53,0,0,0,0,0,0,0,0,0,0,0,0,0,0,0,475,0,476,0,0,0,2899,0,0,0,0,0,0,0,2100,0,0,0,0,0,0,0,0,0,0,4623,270,0,0,272,0,0,0,0,0,0,0,0,0,0,0,0,0,0,0,0,0,0,0,0,0,0,0,0,0,0,0,0,0,0,423,1179,
53,1160,1135,417,2004,4563,100,101,102,100,101,102,150,151,0,100,101,102,481,0,478,0,0,0,0,0,0,0,0,0,0,0,1135,0,0,0,0,0,0,0,0,0,0,220,320,0,0,272,1135,0,0,0,0,0,0,0,0,0,0,0,0,0,0,0,0,0,0,0,1135,0,0,0,0,0,0,0,0,0,423,294,
504,483,504,505,504,483,504,505,483,505,504,505,504,505,504,505,504,483,506,0,482,327,328,0,0,0,0,0,0,0,0,0,0,0,0,0,475,0,0,476,0,0,294,270,0,0,0,297,2099,4567,0,0,0,0,0,0,0,0,0,0,0,0,0,0,0,0,0,0,1160,0,0,0,0,0,0,0,0,0,448,344,
529,530,484,530,529,530,529,530,529,530,529,530,484,530,529,530,484,530,531,0,528,352,353,0,0,0,0,0,0,0,0,0,0,0,0,0,481,0,0,478,0,0,2899,270,0,0,275,4623,4627,0,0,0,0,0,0,0,0,0,0,0,0,0,0,0,0,0,0,0,0,0,0,0,0,0,0,0,0,0,473,420,
554,555,554,555,485,555,554,555,554,555,554,555,554,555,554,555,485,555,556,0,553,377,378,0,0,0,0,0,0,0,0,0,0,0,331,332,506,0,0,482,505,504,505,4376,4377,4378,4379,504,483,501,477,0,1160,269,0,0,0,0,0,0,0,0,0,0,0,0,0,0,4568,0,0,0,0,0,0,0,472,0,0,0,
579,580,579,580,579,580,579,580,579,580,579,580,579,580,579,580,579,580,581,0,578,402,403,0,0,0,0,0,0,0,0,0,0,0,431,357,531,0,0,528,530,484,530,529,530,529,529,484,530,526,502,504,505,327,328,0,0,0,0,0,0,0,0,0,0,0,0,0,0,0,0,0,0,0,0,0,0,0,0,0,
417,2955,2956,0,0,53,53,0,0,0,0,0,0,0,0,0,0,0,0,0,0,0,478,0,0,0,0,0,0,0,0,0,0,0,333,382,556,0,0,553,555,485,555,554,555,554,554,554,555,485,527,529,530,352,353,0,0,0,0,0,0,0,0,0,0,0,0,0,0,0,0,0,0,0,0,0,0,0,0,0,
417,2955,2956,0,0,0,0,0,0,0,0,0,0,0,0,0,0,0,0,0,0,0,482,501,477,2897,2926,2927,4626,4626,294,0,379,405,358,407,581,0,0,578,580,579,580,579,580,579,579,579,580,576,552,554,555,377,428,0,0,0,0,0,0,0,0,0,0,0,0,0,0,0,0,0,0,0,0,0,0,0,0,0,
417,2987,2988,0,0,0,0,0,0,0,0,0,0,0,0,0,0,0,0,0,0,0,528,526,502,483,483,505,483,505,504,505,404,430,383,0,0,0,0,0,269,220,221,221,221,221,221,221,221,222,577,579,580,402,478,4620,4621,2899,0,0,0,475,0,0,0,0,0,0,476,0,0,0,0,0,0,0,0,423,420,421,
2955,2956,0,0,0,0,0,0,0,0,0,0,0,0,0,0,0,0,0,0,0,0,553,551,527,530,529,530,529,530,484,530,429,455,408,2897,0,0,0,2899,220,320,0,0,0,0,0,0,0,321,222,0,180,181,482,483,505,501,477,0,0,481,0,0,0,0,0,0,478,0,4562,379,405,504,505,483,505,504,505,504,
2987,2988,0,0,0,0,0,0,0,0,0,0,0,0,0,0,0,0,0,0,0,0,578,576,552,555,485,555,554,555,554,555,454,480,0,0,0,0,0,4601,245,0,0,0,0,0,0,0,0,0,272,0,205,206,528,529,484,526,502,504,483,506,0,0,0,0,0,0,482,504,505,404,430,529,484,529,530,529,530,529,
2798,2799,0,0,0,0,0,0,0,0,0,0,0,0,0,0,0,0,0,0,0,0,194,195,577,580,579,580,579,580,579,580,479,0,4623,0,0,0,0,4631,295,0,0,0,0,0,0,0,0,1355,297,0,0,0,553,554,555,485,527,529,530,531,0,0,0,0,0,0,528,529,530,429,455,485,555,554,555,485,555,554,
2830,2831,2832,0,0,0,0,0,0,0,0,0,0,0,0,0,0,0,0,0,0,0,0,0,0,0,0,0,0,0,0,0,0,0,0,0,0,0,0,0,4540,249,296,0,0,0,0,0,0,250,4563,0,0,0,578,579,580,576,552,554,555,556,0,0,0,0,0,0,553,485,555,454,480,579,580,579,580,579,580,579,
2862,2863,2864,0,0,0,0,0,0,0,0,0,0,0,0,0,0,0,0,0,0,0,0,0,0,0,0,0,0,0,0,0,0,0,0,0,0,0,0,0,4570,269,4540,249,0,0,1355,0,275,0,0,0,0,0,0,0,0,0,577,579,580,581,0,0,0,0,0,0,578,579,580,479,0,0,0,0,0,0,0,0,
2798,2799,2800,0,0,0,0,0,0,0,0,0,0,0,0,0,0,0,0,0,0,0,0,0,0,0,0,0,0,0,0,0,0,0,0,0,0,0,0,0,0,0,4570,0,274,0,0,1330,272,0,0,0,0,0,0,0,0,0,0,0,0,0,0,0,0,0,0,0,0,0,0,0,0,0,0,0,0,0,2926,2798,
2830,2831,2832,0,0,0,0,0,0,0,0,0,0,0,0,0,0,0,0,0,0,0,0,0,0,0,0,0,0,0,0,0,0,0,0,0,0,0,0,0,0,0,4626,220,320,0,0,0,297,0,0,0,0,0,0,0,0,0,0,0,0,0,0,0,0,0,0,0,0,0,0,0,0,0,0,0,0,0,2830,2830,
2862,2863,2864,0,0,0,0,0,0,0,0,0,0,0,0,0,0,0,0,0,0,0,0,0,0,0,0,0,0,0,0,0,0,0,0,0,0,0,0,0,0,0,2899,270,167,167,167,275,0,0,0,0,0,0,0,0,0,0,0,0,0,0,0,0,0,0,0,0,0,0,0,0,0,0,0,0,0,0,2862,2862,
2798,2799,2800,0,0,0,0,0,0,0,0,0,0,0,0,0,0,0,0,0,0,0,0,0,0,0,0,0,0,0,0,0,0,0,0,0,0,0,0,0,0,0,0,816,817,818,817,819,0,0,0,0,0,0,0,0,0,0,0,0,0,0,0,0,0,0,0,0,0,0,0,0,0,0,0,0,0,0,1160,50,
2830,2831,2832,0,0,0,0,0,0,0,0,0,0,0,0,0,0,0,0,0,0,0,0,0,0,0,0,0,0,0,0,0,0,0,0,0,0,0,0,0,0,0,269,270,167,167,167,272,0,0,0,0,0,0,0,0,0,0,0,0,0,0,0,0,0,0,0,0,0,0,0,0,0,0,0,0,0,0,53,75,
2862,2863,2864,0,0,0,0,0,0,0,0,0,0,0,0,0,0,0,0,0,0,0,0,0,0,0,0,0,0,0,0,0,0,0,0,0,0,0,2897,0,220,221,221,320,0,0,1355,272,0,0,0,0,0,0,0,0,0,0,0,0,0,0,0,0,0,0,0,0,0,0,0,0,0,0,0,0,0,2899,166,100,
2798,2799,0,0,0,0,0,0,0,0,0,0,0,0,0,0,0,0,0,0,0,0,0,0,0,0,0,0,0,0,0,0,0,0,0,0,0,0,0,220,320,0,1330,0,0,0,0,297,0,0,0,0,0,0,0,0,0,0,0,0,0,0,0,0,0,0,0,0,0,0,0,0,0,0,0,0,0,0,2798,2799,
2830,2831,0,0,0,0,0,0,0,0,0,0,0,0,0,0,0,0,0,0,0,0,0,0,0,0,0,0,0,0,0,0,0,0,0,0,3186,0,220,320,0,0,0,0,0,296,250,0,0,0,0,0,0,0,0,0,0,0,0,0,0,0,0,0,0,0,0,0,0,0,0,0,0,0,0,0,0,0,2830,2831,
2862,2863,0,0,0,0,0,0,0,0,0,4623,4620,4621,481,0,0,0,478,0,0,0,0,0,0,0,0,0,0,0,0,0,0,0,0,0,2052,0,270,0,1355,0,0,296,250,0,0,0,0,0,0,0,0,0,0,0,0,0,0,0,0,0,0,0,0,0,0,0,0,0,0,0,0,0,0,0,0,1135,2862,2863,
504,505,505,501,477,0,294,0,0,0,379,332,504,505,506,0,0,0,503,505,327,328,0,0,0,0,0,0,0,0,0,0,0,0,0,0,2084,0,270,0,0,0,250,0,0,0,0,0,0,0,0,0,0,0,0,0,0,0,0,0,0,0,0,0,0,0,0,0,0,0,0,0,0,0,0,0,0,0,1160,138,
529,530,530,526,502,504,505,504,505,504,404,357,529,530,531,0,0,0,528,530,352,353,0,0,0,0,0,0,0,0,0,0,0,0,0,2899,2301,0,270,0,0,275,0,0,0,0,0,0,0,0,0,0,0,0,0,0,0,0,0,0,0,0,0,0,0,0,0,0,0,0,0,0,0,0,0,0,0,2899,294,163,
554,555,555,551,527,529,530,529,530,529,429,382,554,555,556,0,0,0,553,555,377,378,0,0,0,0,0,0,0,0,0,0,0,0,0,0,379,332,4376,4377,4378,4379,327,477,0,0,0,0,0,0,0,0,0,0,0,0,0,0,0,0,0,0,0,0,0,0,0,0,0,0,0,0,0,0,0,0,0,0,344,125,
579,580,580,576,552,554,555,554,555,554,454,407,579,580,581,0,0,0,578,580,402,403,0,0,0,0,0,0,0,0,0,0,0,0,331,332,404,357,530,529,530,529,484,502,327,328,4601,0,0,0,0,0,0,0,0,0,0,0,0,0,0,0,0,0,0,0,0,0,0,0,0,0,0,0,0,0,0,4623,2897,150,
126,141,0,0,577,579,580,579,580,579,479,0,0,0,0,0,0,0,0,0,0,478,0,0,0,0,0,0,0,0,0,0,0,0,356,357,429,485,555,554,555,554,377,527,352,353,4631,0,0,0,0,0,0,0,0,0,0,0,0,0,0,0,0,0,0,0,0,0,0,0,0,0,0,0,0,0,0,4600,269,75,
151,166,0,0,0,0,0,0,0,0,0,0,0,0,0,0,0,0,0,0,0,503,501,477,0,0,0,0,0,0,0,0,0,0,381,485,454,407,580,579,580,579,402,552,377,378,0,0,0,0,0,0,0,0,0,0,0,0,0,0,0,0,0,0,0,0,0,0,0,0,0,0,0,0,0,0,0,4630,4626,100,
52,2899,0,0,0,0,0,0,0,0,0,0,0,0,0,0,0,0,0,0,0,528,526,502,501,477,0,0,0,0,0,0,0,0,406,407,479,220,221,221,221,221,222,577,402,403,4620,4621,0,0,0,0,0,0,0,0,0,0,0,0,0,0,0,0,0,0,0,0,0,0,0,0,0,0,0,0,0,4601,150,151,
77,0,53,0,0,0,0,0,0,0,0,0,0,0,0,0,0,0,0,0,0,553,551,527,526,502,483,505,504,483,327,477,0,0,481,0,220,320,0,0,0,0,321,222,0,478,2899,2898,344,0,0,0,0,0,0,0,0,0,0,0,0,0,0,0,0,0,0,0,0,0,0,0,0,0,0,0,0,4631,53,53,
102,141,0,0,0,0,0,0,0,0,0,0,0,0,0,0,0,0,0,0,0,578,576,552,551,527,529,530,484,530,352,502,505,504,506,4601,270,0,0,0,0,0,0,272,4562,482,505,483,505,504,483,327,477,2897,0,0,0,0,0,0,0,0,0,0,0,0,0,0,0,0,0,0,0,0,0,0,0,0,2066,53,
294,166,0,0,0,0,0,0,0,0,0,0,0,0,0,0,0,0,0,0,0,0,0,577,576,552,554,555,554,555,377,527,484,529,531,4631,295,0,0,0,0,0,0,297,294,528,484,529,484,529,530,484,502,501,477,2897,294,0,0,0,0,0,2899,4623,4563,475,0,0,0,476,4630,0,0,0,2897,0,2899,0,2098,53,
150,151,0,0,0,0,0,0,0,0,0,0,0,0,0,0,0,0,0,0,0,0,0,0,0,577,579,580,579,580,402,552,555,554,556,4601,269,274,0,0,0,0,250,4565,0,553,555,485,555,485,555,377,527,484,502,504,505,504,483,504,505,483,505,501,477,481,0,0,0,478,4625,2100,0,2897,379,405,483,505,504,505,
52,269,0,0,0,0,0,0,0,0,0,0,0,0,0,0,0,0,0,0,0,0,0,0,0,0,0,0,0,0,0,577,580,579,581,4631,0,270,0,0,1330,275,0,2899,4566,578,580,579,580,579,580,402,552,485,527,529,530,484,530,529,530,529,530,526,502,506,0,0,0,482,504,483,504,505,404,430,529,530,529,530,
77,2899,0,0,0,0,0,0,0,0,0,0,0,0,0,0,0,0,0,0,0,0,0,0,0,0,0,0,0,0,0,0,0,0,2899,0,0,270,1355,0,0,297,4623,0,0,0,0,0,0,0,0,0,577,576,552,554,555,554,555,485,555,554,555,551,527,531,0,0,0,528,529,530,484,530,429,455,485,555,554,555,
102,294,0,0,0,0,0,0,0,0,0,0,0,0,0,0,0,0,0,0,0,0,0,0,0,0,0,0,0,0,0,0,0,0,0,0,220,320,0,0,275,2897,0,0,0,0,0,0,0,0,0,0,0,0,577,579,580,579,580,579,580,579,580,576,552,556,0,0,0,553,554,555,485,4319,454,480,579,580,579,580,
4590,4591,0,0,0,0,0,0,0,0,0,0,0,0,0,0,0,0,0,0,0,0,0,0,0,0,0,0,0,0,0,0,0,0,0,220,320,0,0,0,272,2898,0,0,0,0,0,0,0,0,0,0,0,0,0,0,0,0,0,0,0,0,0,0,577,581,0,0,0,578,579,580,579,4349,479,0,0,0,0,125,
4620,4621,0,0,0,0,0,0,0,0,0,0,0,0,0,0,0,0,0,0,0,0,0,0,0,0,0,0,0,0,0,0,0,0,0,270,0,0,0,296,297,0,0,0,0,0,0,0,0,0,0,0,0,0,0,0,0,0,0,0,0,0,0,0,0,0,0,0,0,0,0,0,0,0,0,0,0,1160,0,150,
52,125,0,0,0,0,0,0,0,0,0,0,0,0,0,0,0,0,0,0,0,0,0,0,0,0,0,0,0,0,0,0,0,220,221,320,0,0,250,0,0,0,0,0,0,0,0,0,0,0,0,0,0,0,0,0,0,0,0,0,0,0,0,0,0,0,0,0,0,0,0,0,0,0,0,0,0,1135,0,125,
77,150,0,0,0,0,0,0,0,0,0,0,0,0,0,0,0,0,0,0,0,0,0,0,0,0,0,0,0,0,0,0,0,270,0,0,0,275,0,0,0,0,0,0,0,0,0,0,0,0,0,0,0,0,0,0,0,0,0,0,0,0,0,0,0,0,0,0,0,0,0,0,0,0,0,0,0,4562,166,150,
102,2894,0,0,0,0,0,0,0,0,0,0,0,0,0,0,0,0,0,0,0,0,0,0,0,0,0,0,0,0,0,0,0,295,0,1355,1330,321,222,0,0,0,0,0,0,0,0,0,0,0,0,0,0,0,0,0,0,0,0,0,0,0,0,0,0,0,0,0,0,0,0,0,0,0,0,0,0,0,50,51,
52,2926,0,0,0,0,0,0,0,0,0,0,0,0,0,0,0,0,0,0,0,0,0,0,0,0,0,0,0,0,0,0,0,0,249,296,345,167,321,222,0,0,0,0,0,0,0,0,0,0,0,0,0,0,0,0,0,0,0,0,0,0,0,0,0,0,0,0,0,0,0,0,0,0,0,0,0,0,75,76,
77,2899,53,0,0,0,0,0,0,0,0,0,0,0,0,0,0,0,0,0,0,0,0,0,0,0,0,0,0,0,0,0,0,0,0,0,816,817,818,819,0,0,0,0,0,0,0,0,0,0,0,0,0,0,0,0,0,0,0,0,0,0,0,0,0,0,0,0,0,0,0,0,0,0,0,0,0,0,100,101,
102,53,0,0,0,0,0,0,0,0,0,0,0,0,0,0,0,0,0,0,0,0,0,0,0,0,0,0,0,0,0,0,0,0,0,0,816,817,818,819,0,0,0,0,0,0,0,0,0,0,0,0,0,0,0,0,0,0,0,0,0,0,0,0,0,0,0,0,0,0,0,0,0,0,0,0,0,0,138,344,
52,2798,0,0,0,0,0,0,0,0,0,0,0,0,0,0,0,0,0,0,0,0,0,0,0,0,0,0,0,0,0,0,0,0,269,220,320,167,167,321,222,0,0,0,0,0,0,0,0,0,0,0,0,0,0,0,0,0,0,0,0,0,0,0,0,0,0,0,0,0,0,0,0,0,0,0,0,0,163,344,
77,2830,0,0,0,0,0,0,0,0,0,0,0,0,0,0,0,0,0,0,0,0,0,0,0,0,0,0,0,0,0,0,0,220,221,320,0,1330,0,1355,297,0,0,0,0,0,0,0,0,0,0,0,0,0,0,0,0,0,0,0,0,0,0,0,0,0,0,0,0,0,0,0,0,0,0,0,0,269,50,51,
102,2862,2863,2864,0,0,0,0,0,0,0,0,0,0,0,0,0,0,0,0,0,0,0,0,0,0,0,0,0,0,0,0,220,320,0,1355,0,0,296,250,0,0,0,0,0,0,0,0,0,0,0,0,0,0,0,0,0,0,0,0,0,0,0,0,0,0,0,0,0,0,0,0,0,0,0,0,0,0,75,76,
52,53,53,2798,0,0,0,0,0,0,0,0,0,0,0,0,0,0,0,0,0,0,0,0,0,0,0,0,0,0,0,220,320,0,0,0,296,250,0,0,0,0,0,0,0,0,0,0,0,0,0,0,0,0,0,0,0,0,0,0,0,0,0,0,0,0,0,0,0,0,0,0,53,220,221,221,221,222,100,101,
77,344,53,2830,0,0,0,0,0,0,0,0,0,0,0,0,0,0,0,0,0,0,0,0,0,0,0,50,51,52,0,270,0,0,0,250,0,0,0,0,472,0,0,0,0,0,0,0,0,0,0,0,0,0,0,0,0,0,0,0,0,0,0,0,0,0,0,0,0,0,0,0,0,270,53,53,53,321,222,53,
102,53,2899,2862,2863,2864,0,0,0,0,0,0,0,0,0,0,0,0,0,0,0,0,0,0,0,0,0,75,76,77,220,320,983,1330,250,0,4560,4561,4601,344,0,0,0,0,0,0,0,0,0,0,0,0,0,0,0,0,0,0,0,0,0,0,0,0,0,0,0,0,0,0,0,0,220,320,53,53,53,53,272,53,
450,475,53,53,294,344,269,294,0,2899,0,0,0,0,0,0,0,2899,0,0,344,0,0,344,0,0,294,100,101,102,270,0,0,0,272,0,0,0,4631,0,0,0,0,0,0,0,0,0,0,0,0,0,0,0,0,0,0,0,0,0,0,0,0,0,0,0,0,0,0,0,0,0,295,296,345,53,53,53,272,53,
0,449,450,451,450,451,450,451,450,451,450,451,451,451,451,451,451,450,450,450,450,450,475,2798,2799,2800,125,126,125,126,270,1355,0,346,297,0,0,0,0,0,0,0,0,0,0,0,0,0,0,0,0,2830,2831,2832,62,63,64,2830,2831,2832,0,0,0,0,0,0,0,0,0,0,0,0,53,53,295,296,296,296,297,53,
0,0,0,0,0,0,0,0,0,0,0,0,0,0,0,0,0,0,0,0,0,0,456,2830,2831,2832,150,151,150,151,270,0,0,272,0,2862,2863,2864,4620,4621,0,0,0,0,2858,2859,2860,2861,2862,2863,2864,2862,2863,2864,87,88,89,2862,2863,2864,2862,2863,2864,100,101,102,100,101,102,100,101,102,2862,2863,2864,53,53,53,53,53
</data>
 </layer>
 <objectgroup id="4" name="Buildings">
  <object id="1" name="TileData" x="768" y="96" width="16" height="16">
   <properties>
    <property name="Action" value="Message &quot;OvergrownGarden.2&quot;"/>
   </properties>
  </object>
  <object id="2" name="TileData" x="784" y="96" width="16" height="16">
   <properties>
    <property name="Action" value="Message &quot;OvergrownGarden.2&quot;"/>
   </properties>
  </object>
  <object id="3" name="TileData" x="128" y="112" width="16" height="16">
   <properties>
    <property name="Action" value="Message &quot;Farm_Foraging.1&quot;"/>
   </properties>
  </object>
  <object id="4" name="TileData" x="592" y="112" width="16" height="16">
   <properties>
    <property name="Action" value="Warp 73 49 Farm"/>
   </properties>
  </object>
  <object id="5" name="TileData" x="688" y="112" width="16" height="16">
   <properties>
    <property name="Action" value="Message &quot;OvergrownGarden.8&quot;"/>
   </properties>
  </object>
  <object id="6" name="TileData" x="1216" y="240" width="16" height="16">
   <properties>
    <property name="Action" value="Message &quot;OvergrownGarden.1&quot;"/>
   </properties>
  </object>
  <object id="7" name="TileData" x="656" y="304" width="16" height="16">
   <properties>
    <property name="Action" value="Message &quot;OvergrownGarden.3&quot;"/>
   </properties>
  </object>
  <object id="8" name="TileData" x="640" y="320" width="16" height="16">
   <properties>
    <property name="Action" value="Message &quot;OvergrownGarden.3&quot;"/>
   </properties>
  </object>
  <object id="9" name="TileData" x="800" y="320" width="16" height="16">
   <properties>
    <property name="Action" value="Message &quot;OvergrownGarden.3&quot;"/>
   </properties>
  </object>
  <object id="10" name="TileData" x="640" y="336" width="16" height="16">
   <properties>
    <property name="Action" value="Message &quot;OvergrownGarden.3&quot;"/>
   </properties>
  </object>
  <object id="11" name="TileData" x="800" y="336" width="16" height="16">
   <properties>
    <property name="Action" value="Message &quot;OvergrownGarden.3&quot;"/>
   </properties>
  </object>
  <object id="12" name="TileData" x="800" y="352" width="16" height="16">
   <properties>
    <property name="Action" value="Message &quot;OvergrownGarden.3&quot;"/>
   </properties>
  </object>
  <object id="13" name="TileData" x="576" y="672" width="16" height="16">
   <properties>
    <property name="Action" value="Message &quot;OvergrownGarden.3&quot;"/>
   </properties>
  </object>
  <object id="14" name="TileData" x="576" y="688" width="16" height="16">
   <properties>
    <property name="Action" value="Message &quot;OvergrownGarden.3&quot;"/>
   </properties>
  </object>
  <object id="15" name="TileData" x="688" y="688" width="16" height="16">
   <properties>
    <property name="Action" value="Message &quot;OvergrownGarden.3&quot;"/>
   </properties>
  </object>
  <object id="16" name="TileData" x="592" y="704" width="16" height="16">
   <properties>
    <property name="Action" value="Message &quot;OvergrownGarden.3&quot;"/>
   </properties>
  </object>
  <object id="17" name="TileData" x="672" y="704" width="16" height="16">
   <properties>
    <property name="Action" value="Message &quot;OvergrownGarden.3&quot;"/>
   </properties>
  </object>
  <object id="18" name="TileData" x="592" y="720" width="16" height="16">
   <properties>
    <property name="Action" value="Message &quot;OvergrownGarden.3&quot;"/>
   </properties>
  </object>
  <object id="19" name="TileData" x="656" y="720" width="16" height="16">
   <properties>
    <property name="Action" value="Message &quot;OvergrownGarden.3&quot;"/>
   </properties>
  </object>
  <object id="20" name="TileData" x="1168" y="768" width="16" height="16">
   <properties>
    <property name="Action" value="Warp 37 8 Farm"/>
   </properties>
  </object>
  <object id="21" name="TileData" x="640" y="960" width="16" height="16">
   <properties>
    <property name="Action" value="Message &quot;OvergrownGarden.7&quot;"/>
   </properties>
  </object>
 </objectgroup>
 <layer id="5" name="Paths" width="80" height="65">
  <data encoding="csv">
0,0,0,0,0,0,0,0,0,0,0,0,0,0,0,0,0,0,0,0,0,0,0,0,0,0,0,0,0,0,0,0,0,0,0,0,0,0,0,0,0,0,0,0,0,0,0,0,0,0,0,0,0,0,0,0,0,0,0,0,0,0,0,0,0,0,0,0,0,0,0,0,0,0,0,0,0,0,0,0,
0,0,0,0,0,0,0,0,0,0,0,0,0,0,0,0,0,0,0,0,0,0,0,0,0,0,0,0,0,0,0,0,0,0,0,0,0,0,0,0,0,0,0,0,0,0,0,0,0,0,0,28,0,0,0,0,0,0,0,0,0,0,0,0,0,0,0,0,0,0,0,0,0,0,0,0,0,0,0,0,
0,0,0,0,0,0,0,0,0,0,0,0,0,0,0,0,0,0,0,0,0,0,0,0,0,0,0,0,0,0,0,0,0,0,0,0,0,0,0,0,0,0,0,0,0,0,0,0,0,0,0,0,0,0,0,0,0,0,0,0,0,0,0,0,0,0,0,0,0,0,0,0,0,0,0,0,0,0,0,0,
0,0,0,0,0,0,0,0,0,0,0,0,0,0,0,0,0,0,0,0,0,0,0,0,0,0,0,0,0,0,0,0,0,0,0,0,0,0,0,0,0,0,0,0,0,0,0,0,0,0,0,0,0,0,0,0,0,0,0,0,0,0,0,0,0,0,0,0,0,0,0,0,0,0,0,0,0,0,0,0,
0,0,0,0,0,0,0,0,0,0,0,0,0,0,0,0,0,0,0,0,0,0,23,23,23,23,18,23,23,0,0,0,0,0,0,0,0,0,0,0,0,0,0,0,0,0,0,0,0,0,0,0,0,0,0,0,0,0,0,0,0,0,0,0,0,0,27,0,0,0,0,0,0,0,0,0,0,0,0,0,
0,0,0,0,0,0,0,0,0,0,0,0,0,0,0,0,0,0,0,0,0,0,23,23,23,23,23,23,23,0,0,0,0,0,0,0,0,0,0,0,0,0,0,0,0,0,0,0,0,0,0,0,0,0,0,0,0,0,0,0,0,0,0,0,0,0,0,0,0,0,0,0,0,0,0,0,0,0,0,0,
0,0,0,0,0,0,0,0,0,0,0,0,0,0,0,0,0,0,0,25,0,0,18,23,23,23,23,23,23,0,0,0,0,0,0,0,0,0,0,0,0,0,0,0,0,0,0,0,9,0,25,0,0,0,0,0,0,0,0,0,0,0,0,0,26,0,0,10,11,10,11,10,11,10,11,25,0,0,0,0,
0,0,0,0,0,0,0,0,0,0,0,0,0,0,0,0,0,0,0,0,0,0,0,0,0,0,0,0,0,0,0,0,0,0,0,0,0,0,0,0,0,0,0,0,0,0,0,0,0,0,0,10,27,0,0,0,0,0,0,0,0,0,0,0,0,0,0,0,0,0,0,0,0,0,0,0,0,27,0,0,
0,0,0,0,0,0,0,0,0,0,12,0,25,0,0,0,0,0,0,0,0,0,0,0,0,0,0,0,0,27,0,0,26,0,0,26,0,0,0,0,0,0,0,0,0,0,0,0,0,0,0,0,0,0,0,0,0,27,0,0,0,0,0,0,0,0,0,0,0,0,10,0,0,19,0,0,0,0,0,0,
0,0,0,0,0,0,0,0,0,0,0,0,0,0,0,0,0,0,0,0,0,0,0,0,0,0,0,0,0,0,0,0,0,0,0,0,0,0,0,0,0,19,0,0,0,0,0,0,0,0,10,15,0,0,0,0,0,0,0,0,0,0,0,0,0,0,0,0,0,0,0,0,15,15,15,15,0,0,0,0,
0,0,0,0,0,0,0,0,0,0,0,0,0,0,0,0,0,0,0,19,0,0,0,0,0,0,0,0,0,0,0,0,0,0,0,0,0,0,19,18,0,0,0,0,0,0,0,0,0,0,0,15,15,0,0,0,0,0,0,0,0,0,0,0,0,0,0,0,0,0,0,0,15,0,0,15,0,0,0,0,
0,25,0,0,0,0,0,0,0,0,0,0,0,0,0,0,0,0,0,0,0,0,0,0,0,0,0,0,0,0,0,0,0,0,0,10,18,0,12,0,0,0,0,0,0,0,28,0,0,0,0,0,19,15,0,0,0,10,0,0,0,0,0,0,0,0,0,0,0,0,0,0,0,0,0,0,0,12,0,0,
0,0,0,0,0,0,0,0,0,0,0,0,0,0,27,0,0,0,0,0,0,0,0,0,0,0,0,0,0,0,0,0,0,0,0,0,0,0,0,0,0,0,0,0,0,0,0,0,0,0,0,0,0,15,15,15,15,0,0,0,0,0,0,0,0,0,0,0,0,0,0,0,0,0,0,0,0,0,0,0,
0,0,0,0,0,0,0,0,0,0,0,0,0,0,0,0,0,0,0,0,0,0,0,0,0,0,0,0,0,0,0,0,0,0,0,0,0,0,0,0,0,0,0,0,0,0,0,0,0,0,0,0,0,0,15,15,19,0,0,0,0,0,0,0,0,0,0,0,0,0,0,0,0,0,0,0,0,0,0,0,
0,0,0,0,0,0,0,0,0,0,0,0,0,0,0,0,0,0,0,0,0,0,0,0,0,0,0,0,0,0,0,0,0,0,0,27,0,0,0,0,26,0,0,0,0,0,0,0,0,26,0,0,0,0,0,0,15,15,0,0,0,0,0,0,0,0,0,0,0,0,27,0,0,27,0,0,0,0,0,0,
0,0,0,0,0,0,0,0,0,0,0,0,0,0,0,0,0,0,0,0,0,0,0,0,0,0,0,0,0,0,0,0,0,0,0,0,0,0,0,0,0,0,0,0,0,0,0,0,0,0,0,27,0,0,0,10,0,15,15,0,0,0,0,0,0,0,0,0,0,0,0,17,0,0,0,0,0,25,0,0,
0,0,0,0,0,0,0,0,0,0,0,0,0,0,0,0,0,0,0,0,0,0,0,0,0,0,0,0,0,0,0,0,0,0,0,0,0,0,0,0,0,0,0,0,0,0,0,0,0,0,0,0,0,0,0,0,0,0,0,0,0,0,0,0,0,0,0,0,0,0,0,0,0,0,0,19,0,0,0,0,
0,0,0,0,0,0,0,0,12,0,12,0,12,0,0,26,0,10,0,0,0,11,0,0,0,0,0,0,0,0,0,0,0,0,0,0,0,0,0,0,0,0,0,0,0,0,0,0,0,0,0,0,0,0,0,0,0,19,0,0,0,0,0,0,0,0,0,0,0,0,0,0,0,10,0,0,0,0,0,0,
0,0,0,0,0,0,0,0,0,0,0,0,0,0,0,0,0,0,0,10,0,0,0,0,0,0,0,0,0,0,0,27,0,0,0,0,0,0,0,0,0,0,0,0,0,0,0,0,0,0,0,0,0,0,0,0,0,0,0,12,0,0,0,0,0,0,0,0,0,0,0,0,0,0,0,0,0,0,0,0,
0,0,0,0,0,0,14,10,0,23,23,23,11,18,23,23,23,23,23,0,0,0,0,0,0,0,0,0,0,0,0,0,0,0,0,11,0,18,0,27,0,0,0,0,0,0,0,0,0,0,0,0,0,0,0,0,0,0,0,0,0,0,0,0,17,0,0,0,0,0,0,0,0,27,25,0,0,0,0,0,
0,0,0,18,0,14,14,14,14,14,14,14,14,18,23,14,23,23,10,0,0,0,0,0,0,0,0,0,0,0,0,0,0,0,0,0,0,0,0,0,0,0,0,0,28,0,0,0,0,0,0,0,0,0,0,0,0,0,0,26,0,0,0,0,0,0,0,0,0,27,0,0,0,0,0,0,0,0,0,0,
0,0,0,0,0,19,14,19,14,14,19,10,14,14,14,14,14,14,11,0,26,0,0,0,0,0,0,0,0,0,0,0,0,0,26,0,0,19,0,0,0,0,0,0,0,0,0,28,0,0,0,0,0,0,0,0,0,0,0,0,0,0,0,0,0,0,0,0,0,0,0,0,0,0,0,0,0,0,0,0,
0,0,0,0,0,0,0,10,19,14,14,14,12,14,12,19,23,23,14,0,0,27,0,0,0,0,0,0,0,0,0,0,0,27,0,0,18,0,10,0,0,0,0,0,0,0,0,0,0,0,0,0,0,27,0,0,0,0,0,0,0,0,0,0,0,0,0,0,0,0,0,0,0,0,0,0,0,0,0,0,
0,0,0,0,0,0,0,14,0,14,18,14,19,14,0,0,23,23,14,18,0,0,0,0,0,0,0,0,12,25,0,0,0,0,0,0,0,0,0,0,0,0,0,0,0,0,0,0,0,0,0,0,0,0,0,0,0,0,0,0,0,0,0,0,0,0,0,0,0,0,0,0,0,0,0,0,0,0,0,0,
0,0,0,0,0,0,0,14,0,14,14,10,0,0,0,0,19,14,14,0,0,0,12,0,0,0,0,11,0,0,0,0,19,12,0,19,0,0,0,0,0,0,0,0,0,0,0,0,0,0,0,0,0,0,10,25,0,0,0,0,0,0,0,0,0,0,0,0,0,0,0,0,0,0,0,12,0,25,0,0,
0,0,0,0,0,0,0,18,0,0,14,14,0,0,0,0,0,14,14,14,18,19,23,23,23,23,11,23,23,23,23,23,23,18,0,0,0,25,0,0,0,0,0,0,0,0,0,0,0,0,0,0,0,0,0,0,0,0,27,26,0,0,10,0,0,14,0,0,0,26,0,27,0,0,0,0,0,0,0,0,
0,0,0,0,0,0,0,23,0,0,0,14,0,0,0,0,14,12,19,14,14,14,14,14,14,23,23,23,10,23,23,23,23,14,11,0,0,0,0,0,27,0,0,0,0,0,0,0,0,0,0,0,0,10,0,0,0,0,0,0,0,14,14,14,14,19,0,0,0,0,0,0,0,0,22,0,0,0,0,0,
0,0,0,0,0,0,0,23,0,0,0,14,14,14,14,14,14,14,19,14,14,14,14,14,11,14,12,23,23,12,14,14,14,14,23,23,23,23,0,0,0,0,0,0,0,0,0,0,0,0,0,14,14,14,14,14,14,0,0,0,0,0,14,14,14,14,11,14,14,14,14,14,14,0,0,0,12,0,0,0,
0,0,0,0,0,0,0,23,0,0,0,0,0,0,0,0,18,14,0,14,14,0,10,14,14,14,14,14,14,11,14,14,14,23,23,14,23,19,23,23,23,0,0,0,0,0,0,0,0,0,11,14,14,19,14,19,14,14,0,12,23,0,0,14,19,14,14,14,14,14,19,11,14,0,0,0,0,0,0,0,
0,0,0,0,0,19,23,23,23,23,23,23,0,0,0,0,0,14,10,19,14,14,14,14,14,18,11,23,23,14,14,14,19,23,23,23,23,23,23,0,0,0,0,0,0,0,0,0,0,0,0,0,0,14,14,14,14,14,23,23,23,23,14,14,10,14,0,14,14,0,14,14,14,19,0,10,0,0,0,0,
0,0,0,0,0,12,23,23,11,23,23,23,0,0,0,0,0,14,0,14,14,14,19,14,14,14,14,14,14,14,14,14,10,14,14,23,23,10,0,0,0,0,0,0,0,28,0,0,0,0,0,0,0,0,0,0,14,0,14,0,23,0,14,12,14,14,23,23,14,14,14,14,14,14,0,20,0,0,0,0,
0,0,0,0,0,22,18,0,22,0,0,0,0,0,0,0,0,0,0,0,0,12,0,0,14,14,14,14,14,14,12,14,14,14,19,0,0,0,0,0,0,0,0,0,0,0,0,0,0,0,0,10,0,0,11,14,14,0,19,0,19,23,14,14,19,19,23,23,23,14,14,14,14,19,14,0,0,0,0,0,
0,0,0,0,0,0,0,0,0,0,0,0,0,0,0,11,0,18,27,0,0,0,0,19,19,0,0,11,0,0,19,0,14,14,0,0,0,0,0,0,0,0,0,0,0,0,0,0,0,0,0,0,0,0,14,14,11,14,14,11,23,23,23,23,14,0,23,23,23,23,23,23,23,23,14,19,0,0,0,0,
0,0,0,0,0,0,0,0,0,0,0,0,0,0,0,0,0,0,0,25,0,0,0,0,0,0,27,0,0,0,0,0,14,14,0,0,0,0,0,0,0,0,0,0,0,0,0,0,0,0,0,0,0,19,14,14,14,14,14,23,23,23,19,23,14,0,19,0,0,10,23,23,14,19,14,0,0,0,0,0,
0,0,0,0,0,27,0,0,0,0,0,0,0,0,0,18,0,0,0,0,0,0,0,0,0,0,0,0,0,0,0,0,0,14,19,0,0,0,0,0,0,0,0,0,0,0,0,0,10,0,14,12,19,0,14,14,14,19,14,23,12,23,23,23,14,0,19,0,19,0,11,23,14,23,14,0,12,0,0,0,
0,0,0,0,0,0,0,0,0,0,0,0,0,0,0,0,0,0,0,0,0,0,0,0,0,0,0,0,0,0,0,0,10,0,0,0,0,0,0,0,28,0,0,25,0,0,0,0,0,0,14,14,14,14,14,12,0,14,0,23,23,23,23,23,14,12,0,0,0,0,23,23,14,14,14,0,0,0,0,0,
0,0,0,0,0,0,0,0,0,0,0,0,0,0,0,0,0,0,0,0,0,0,0,0,0,0,0,0,0,0,0,0,0,19,0,0,0,0,0,0,0,0,0,0,0,0,0,22,0,14,14,14,14,14,19,0,14,14,14,0,0,19,0,14,14,0,23,23,23,0,23,14,14,14,14,19,0,0,0,0,
0,0,0,0,0,0,0,0,0,0,0,0,0,0,0,0,19,0,0,0,0,0,0,10,0,0,0,0,0,0,0,0,0,0,0,0,0,0,0,0,0,0,0,0,0,0,0,0,0,14,14,19,14,14,14,14,14,19,11,14,14,23,14,14,14,14,14,14,23,23,23,14,14,19,14,0,0,0,0,0,
0,0,0,12,0,0,0,0,0,0,0,0,23,14,19,14,0,0,27,26,0,0,0,0,0,0,0,0,0,0,0,0,0,11,0,0,0,0,0,0,0,0,0,0,0,0,0,0,0,0,14,14,14,14,11,14,14,14,14,14,14,10,14,14,19,0,11,14,14,14,23,14,14,12,14,0,0,0,0,0,
0,0,0,0,0,10,23,11,23,23,11,0,23,23,23,14,11,0,0,0,0,0,0,0,0,0,0,0,0,0,0,0,0,0,0,0,0,0,0,0,0,0,0,0,0,0,0,0,0,12,14,14,19,14,19,14,14,14,14,19,14,14,14,14,14,14,14,14,19,14,14,14,14,14,14,0,11,0,0,0,
0,0,0,10,23,23,23,23,23,23,0,0,0,0,23,18,23,0,0,12,0,0,0,0,0,0,0,0,0,0,0,0,0,0,0,0,0,0,0,0,0,0,0,0,0,0,0,0,0,0,0,0,0,0,14,14,14,14,14,14,14,14,14,14,11,0,14,14,0,0,0,11,0,0,0,0,0,0,0,0,
0,0,0,0,23,23,14,14,19,14,0,0,0,0,23,23,23,23,0,0,0,0,0,0,0,0,0,0,0,0,0,0,0,0,0,11,0,0,0,0,0,0,0,0,27,0,0,0,0,0,0,0,0,0,0,0,0,12,0,0,11,0,0,14,14,14,14,14,14,0,0,0,0,10,0,0,0,0,26,0,
0,0,0,0,0,11,14,14,14,14,14,0,27,0,0,14,19,23,23,23,27,0,0,0,0,0,0,0,0,0,0,0,0,0,0,0,0,0,0,28,0,0,0,0,0,0,0,0,0,0,0,0,0,0,0,0,0,0,0,0,0,0,0,0,0,0,14,14,14,0,0,0,0,0,0,11,0,0,0,27,
0,0,0,0,0,0,14,14,14,12,14,0,0,0,14,23,23,23,19,23,0,0,12,0,0,0,0,0,0,0,0,0,0,0,0,0,0,0,0,0,28,0,0,0,0,0,0,0,0,0,0,0,0,0,0,0,0,0,27,25,0,0,0,0,0,0,0,0,0,0,0,0,0,0,0,0,0,0,0,27,
0,0,0,0,0,0,10,14,19,14,19,14,14,19,14,0,0,0,0,0,18,0,0,0,0,0,0,0,0,0,0,0,0,0,0,0,0,0,0,0,0,0,0,0,0,0,0,0,0,0,0,0,0,0,0,0,0,0,0,0,0,0,0,0,0,0,0,0,0,0,0,0,0,0,0,0,0,0,0,0,
0,0,0,0,0,0,14,19,14,14,14,14,19,14,14,12,0,0,0,0,0,0,0,0,0,10,0,10,0,0,10,0,0,0,0,0,0,0,0,0,0,0,0,0,0,0,0,0,0,0,0,0,0,0,0,0,0,0,0,0,0,0,0,0,0,0,0,0,0,0,0,0,0,0,0,0,0,0,0,0,
0,0,0,0,0,12,14,14,18,14,14,14,14,14,0,0,0,0,0,0,0,0,0,0,0,0,14,14,14,0,0,0,26,0,0,0,0,0,0,0,0,0,0,0,0,12,0,0,27,25,0,0,0,0,0,0,0,0,0,0,0,0,0,0,0,0,0,0,0,0,0,0,0,0,0,0,0,0,0,0,
0,0,0,0,0,0,0,14,14,23,14,23,23,0,0,0,0,0,0,0,0,12,19,14,14,10,14,14,14,14,14,0,0,0,23,0,0,0,0,0,0,0,0,23,0,0,0,0,0,0,0,0,25,0,0,0,0,0,0,0,0,0,0,0,0,0,0,0,0,0,0,0,0,0,0,0,0,0,0,0,
0,0,0,0,0,0,0,0,14,23,23,12,23,0,26,0,0,0,0,0,0,0,14,19,14,14,14,14,19,0,14,22,0,0,0,0,0,0,0,0,0,0,0,0,23,23,23,23,12,0,0,0,0,0,0,11,0,0,19,0,11,18,0,11,0,0,0,0,0,0,0,0,0,0,0,25,0,0,0,0,
0,0,0,0,0,0,0,0,0,19,23,23,23,0,0,0,0,0,0,0,0,0,14,12,0,19,14,11,14,18,14,0,0,0,0,0,0,0,0,0,0,0,0,0,23,14,19,14,14,14,23,23,12,23,23,23,23,23,23,23,23,23,0,0,27,0,0,19,0,27,0,0,27,0,11,0,0,0,0,0,
0,0,0,0,10,0,0,0,0,0,0,0,0,0,0,0,19,23,23,23,23,23,14,18,14,14,14,14,14,14,14,0,0,0,0,0,0,0,0,0,0,0,0,10,23,14,11,14,18,14,23,19,23,23,14,10,23,23,0,14,14,14,14,0,18,0,14,10,0,0,0,0,23,23,23,18,0,0,0,0,
0,0,0,0,0,0,0,0,22,0,0,0,0,0,0,0,23,23,23,23,11,23,14,14,14,14,19,14,14,14,14,11,0,0,0,0,0,0,0,0,25,0,0,0,23,19,14,14,14,12,0,23,14,23,23,14,14,14,14,23,23,11,14,19,0,14,14,14,14,12,0,23,23,0,23,23,0,0,0,0,
0,0,0,0,0,0,0,0,0,0,0,0,0,0,0,0,0,0,23,23,14,14,14,11,14,14,10,0,19,14,14,0,0,0,0,0,28,0,0,0,0,0,27,0,0,23,18,14,14,14,14,23,23,23,11,23,23,23,23,23,23,23,11,14,14,19,14,19,14,14,14,14,14,14,14,23,0,0,0,0,
0,0,0,0,0,0,0,20,0,0,0,0,0,0,0,0,0,0,23,0,14,14,14,14,14,14,0,0,12,0,14,14,0,0,0,0,0,0,0,0,0,0,0,23,23,23,14,14,14,0,14,23,14,10,14,19,14,14,12,14,18,19,14,14,14,14,14,14,19,14,23,23,14,14,23,23,0,0,0,0,
0,0,27,0,22,0,0,0,0,0,0,0,0,0,0,10,0,0,23,11,14,14,18,14,19,0,0,0,0,0,19,14,12,0,11,0,0,0,0,0,0,0,23,23,14,10,14,11,14,12,14,23,23,14,14,14,14,19,14,14,14,14,19,12,14,23,23,23,23,23,23,23,14,14,23,23,12,0,0,0,
0,0,0,0,0,0,0,0,0,0,0,0,0,0,0,0,0,0,23,14,18,14,14,14,14,14,14,0,11,0,0,14,0,0,0,0,0,0,0,0,0,0,23,12,14,14,14,14,14,14,14,0,23,19,19,14,14,14,14,14,18,14,18,14,14,14,14,0,0,0,0,0,0,10,0,0,0,0,0,0,
0,0,0,0,0,0,0,0,0,0,0,0,22,0,19,0,0,0,23,14,14,12,0,14,12,14,14,0,0,0,14,14,0,0,0,0,0,0,0,0,0,0,23,14,14,10,14,14,14,18,14,14,14,14,14,14,10,14,19,0,10,0,14,19,14,14,14,0,0,0,0,0,18,0,0,0,0,0,0,0,
0,0,0,0,22,0,0,23,23,23,0,0,0,0,0,0,23,23,23,14,14,14,19,14,14,14,14,14,14,14,14,0,0,0,0,0,28,0,0,0,0,0,0,0,14,14,14,14,14,14,14,14,0,10,0,0,12,14,14,14,14,14,14,23,14,14,14,0,0,26,0,0,0,0,11,0,0,0,0,0,
0,0,0,0,0,0,0,22,0,23,19,12,0,0,0,0,23,14,14,14,14,14,14,14,0,19,0,0,0,12,0,0,0,0,0,0,0,0,0,0,0,0,0,12,0,19,14,0,19,0,0,14,14,14,14,19,14,14,14,14,23,23,23,23,19,23,23,12,0,0,0,0,0,0,0,0,0,0,0,0,
0,0,0,0,0,0,0,0,0,23,23,23,23,0,0,0,14,14,0,19,0,0,0,0,11,0,0,0,0,0,0,0,0,0,0,0,0,0,0,0,0,27,0,0,0,0,0,0,0,0,10,0,23,23,23,23,23,23,23,23,23,23,23,23,23,23,14,0,0,0,27,0,0,0,0,0,0,0,0,0,
0,0,0,0,0,0,0,0,0,0,0,0,0,0,0,0,0,0,0,0,0,12,0,0,0,0,0,0,0,0,0,0,0,0,0,0,0,0,26,0,0,0,0,19,0,0,0,0,0,10,0,14,14,14,14,14,14,19,14,14,14,14,14,19,14,14,0,0,0,0,0,0,0,0,0,0,0,0,0,0,
0,0,0,0,0,0,27,25,0,0,0,22,0,0,22,0,0,27,0,0,0,0,0,0,0,0,0,0,0,0,0,0,0,0,0,0,0,0,0,0,0,0,0,0,0,0,26,0,0,0,0,0,0,0,0,0,0,0,0,12,0,0,0,0,0,0,11,0,0,0,12,0,0,0,0,0,0,0,0,0,
0,0,0,0,0,0,0,0,0,0,0,0,0,0,0,0,0,0,0,0,0,0,0,0,0,0,0,0,0,0,0,0,0,0,0,0,0,0,0,0,0,0,0,11,0,0,0,0,0,0,0,0,11,0,0,0,0,0,0,0,0,0,0,0,0,0,0,0,0,0,0,0,0,0,0,0,0,0,0,0,
0,0,0,0,0,0,0,0,0,0,0,0,0,0,0,0,0,0,0,0,0,0,0,0,0,0,0,0,0,0,0,0,28,0,0,0,0,0,0,0,0,0,0,0,0,0,0,0,0,0,0,0,0,0,0,0,0,0,0,0,0,0,0,0,0,0,0,0,0,0,0,0,0,0,0,0,0,0,0,0,
0,0,0,0,0,0,0,0,0,0,0,0,0,0,0,0,0,0,0,0,0,0,0,0,0,0,0,0,0,0,0,0,0,0,0,0,0,0,0,0,0,0,0,27,0,0,0,0,0,0,0,0,0,0,0,0,0,0,0,0,0,0,0,0,0,0,0,0,0,0,0,0,0,0,0,0,0,0,0,0
</data>
 </layer>
 <layer id="6" name="Front" width="80" height="65">
  <data encoding="csv">
0,37,38,39,90,91,92,115,116,117,0,0,0,0,0,0,0,0,0,4567,0,4601,0,0,4614,4614,0,0,4595,114,90,66,0,0,0,0,0,0,0,0,0,0,0,0,0,0,0,0,0,4602,0,0,0,0,0,0,0,0,0,0,0,0,0,0,0,0,0,0,0,0,0,0,0,0,0,0,0,0,0,0,
0,62,63,64,115,116,117,140,141,142,4535,0,0,0,0,0,43,44,45,46,4536,4631,0,0,4644,4644,0,0,4625,0,115,0,0,4537,0,4597,0,2894,2895,0,0,0,0,0,140,4595,0,4530,0,4632,0,0,0,0,0,0,0,0,0,0,0,0,0,0,0,0,0,0,0,0,0,0,0,0,0,0,0,0,0,0,
0,87,88,89,4535,141,142,165,166,167,4565,0,0,0,0,0,68,69,70,71,4566,0,0,0,4674,4674,0,0,0,0,0,0,125,126,0,4627,0,43,44,45,46,0,0,0,165,0,4602,4560,0,0,0,0,0,0,0,0,0,0,0,0,0,0,0,0,0,0,0,0,2798,2799,2800,0,0,0,0,0,0,0,0,0,
0,112,113,114,4565,166,167,0,0,0,4600,0,0,0,0,0,93,94,95,96,0,0,0,0,0,0,0,0,0,0,0,0,0,0,0,0,0,68,69,70,71,0,0,0,4593,0,4632,0,153,0,4602,4602,0,1532,1533,0,50,51,52,0,0,0,0,0,0,0,0,0,2830,2831,2832,4596,0,0,0,0,0,0,0,0,
0,0,138,0,0,4553,4554,4555,0,0,4630,0,0,4600,0,0,118,119,120,121,0,0,0,0,0,0,0,0,0,4615,4553,4554,4555,0,0,0,0,93,94,95,96,0,0,0,4602,0,0,0,0,4602,4632,4632,0,4595,0,1534,75,76,77,0,0,0,0,0,395,396,396,396,396,396,396,396,396,396,396,396,396,396,397,0,
0,0,163,0,0,4583,4584,4585,0,0,0,0,0,4630,0,0,0,144,145,0,0,0,0,0,0,0,0,0,0,4645,4583,4584,4549,4550,0,4551,4552,118,119,120,121,0,0,0,4632,0,0,0,1879,4632,0,0,0,395,396,396,396,396,396,396,396,396,396,397,0,0,1058,0,0,0,0,0,0,0,0,0,0,0,397,0,
451,475,0,0,0,0,0,0,0,0,0,0,0,0,0,0,0,169,170,0,0,0,0,0,0,0,0,0,0,4675,0,0,4579,4580,0,4581,4582,0,144,145,0,0,0,447,0,0,0,0,0,0,0,0,0,0,0,0,125,126,0,0,0,4541,4601,4593,0,0,0,0,0,0,0,0,0,0,0,0,0,0,398,0,
0,0,0,0,2894,2895,4593,0,0,0,0,0,0,0,0,0,0,0,0,0,0,0,0,0,0,0,0,0,0,4705,0,0,4609,4610,0,4611,4612,0,169,170,0,0,0,0,0,0,0,0,0,0,0,0,0,0,0,0,0,0,4533,0,4538,0,0,0,0,0,0,0,0,0,0,0,0,0,0,0,0,0,0,0,
0,0,0,2020,0,0,0,0,0,0,0,0,0,0,0,0,0,0,0,0,0,0,0,0,0,0,0,0,0,0,0,0,0,0,0,0,0,0,0,0,0,0,0,0,0,0,0,0,0,0,0,0,0,0,0,0,0,0,0,0,0,0,0,0,0,0,0,0,0,0,0,0,0,0,0,0,0,0,0,0,
0,0,0,0,0,0,0,0,0,0,0,0,0,0,0,0,0,0,0,0,0,0,0,0,0,0,0,0,0,0,0,0,0,0,0,0,0,0,0,0,0,0,0,0,2984,2991,2992,2993,0,0,0,0,0,2898,2897,2897,2068,0,0,0,0,0,0,0,0,0,0,0,0,0,0,0,0,0,0,0,0,0,0,0,
0,0,0,0,0,0,50,51,52,50,51,52,0,0,0,50,51,52,0,0,0,0,0,0,0,0,0,0,0,0,0,0,2068,0,0,0,0,0,0,0,0,0,0,4593,0,0,0,0,0,0,0,0,0,0,0,0,0,0,0,0,0,0,0,0,0,0,0,0,0,0,0,0,0,0,0,0,0,0,0,137,
0,0,0,0,0,4533,75,76,77,75,76,77,125,126,0,75,76,77,0,0,0,0,0,0,0,0,0,0,0,0,0,0,0,0,0,0,0,0,0,0,0,0,0,0,0,0,0,4602,0,0,0,0,0,0,0,0,0,0,0,0,0,0,0,0,0,0,0,0,0,0,0,0,0,0,0,0,0,0,0,0,
27,0,0,0,0,0,0,0,0,0,0,0,0,0,0,0,0,0,0,0,0,0,0,0,0,0,0,0,0,0,0,0,0,0,0,0,0,0,0,0,0,0,0,4602,0,0,0,4632,0,4537,0,0,0,0,0,0,0,0,0,0,0,0,0,0,0,0,0,0,0,0,0,0,0,0,0,0,0,0,0,0,
0,0,0,0,0,0,0,0,0,0,0,4553,4554,4555,4548,4551,4552,0,0,0,4548,0,4561,0,0,0,0,0,0,0,0,0,0,0,0,0,0,0,0,0,0,0,0,4632,0,0,0,4593,4597,0,0,0,0,0,0,0,0,0,0,0,0,0,0,0,0,0,0,0,0,0,0,0,0,0,0,0,0,0,0,395,
0,0,0,0,0,0,0,0,0,0,0,4583,4584,4585,4578,4581,4582,0,0,0,4578,0,2899,0,0,0,0,0,0,0,0,0,0,0,4535,0,0,0,0,0,0,0,0,0,0,0,0,0,0,0,0,0,0,0,0,0,0,0,0,0,0,0,0,0,0,0,0,0,4538,0,0,0,0,0,0,0,447,0,0,0,
0,0,0,0,0,0,0,0,0,0,0,0,0,0,4608,4611,4612,0,0,0,4608,0,0,0,0,0,0,0,0,0,0,0,0,0,4565,4551,4552,0,0,4615,4549,4550,4548,4321,4322,4323,4324,0,4548,0,4600,0,0,0,0,0,0,0,0,0,0,0,0,0,0,0,0,0,0,0,0,0,0,0,0,0,0,0,0,0,
0,0,0,0,0,0,0,0,0,0,0,0,0,0,0,0,0,0,0,0,0,0,0,0,0,0,0,0,0,0,0,0,0,0,2899,4581,4582,0,0,4645,4579,4580,4578,4351,4352,4353,4354,0,4578,0,4630,0,0,0,0,0,0,0,0,0,0,0,0,0,0,0,0,0,0,0,0,0,0,0,0,0,0,0,0,0,
0,0,0,0,0,0,0,0,0,0,0,0,0,0,0,0,0,0,0,0,0,0,0,0,0,0,2894,2895,4596,4596,0,0,0,0,0,4611,4612,0,0,4675,4609,4610,4608,4381,4382,4383,4384,0,4608,0,0,0,0,0,0,0,0,0,0,0,0,0,0,0,0,0,0,0,0,0,0,0,0,0,0,0,0,0,0,0,
0,0,0,0,0,0,0,0,0,0,0,0,0,0,0,0,0,0,0,0,0,0,0,0,0,0,0,0,0,0,0,4600,0,4614,0,0,0,0,0,4705,0,4602,0,4411,4412,4413,4414,0,4602,0,0,0,0,0,0,4590,4591,0,0,0,0,0,0,0,0,0,0,0,0,0,0,0,0,0,0,0,0,398,395,396,
0,0,0,0,0,0,0,0,0,0,0,0,0,0,0,0,0,0,0,0,0,0,119,120,4553,4554,4555,4553,4554,4555,4615,4630,0,4644,0,0,0,0,0,0,0,4632,0,4441,4442,4443,4444,0,4632,0,0,0,0,0,0,0,4601,0,0,0,0,0,0,0,0,0,0,0,0,0,4532,0,0,0,0,0,4601,0,0,0,
0,0,0,0,0,0,0,0,0,0,0,0,0,0,0,0,0,0,0,0,0,0,144,145,4583,4584,4585,4583,4584,4585,4645,0,0,4674,0,0,0,0,0,0,0,0,0,4471,4472,4473,4474,4475,0,0,0,0,0,0,4615,4614,4631,4600,2898,0,0,0,0,0,0,0,0,0,0,0,0,0,4601,0,0,4547,4631,4550,0,0,
0,0,0,0,0,0,0,0,0,0,0,0,0,0,0,0,0,0,0,0,0,0,169,170,0,0,0,0,0,0,4675,0,0,0,4593,0,0,0,0,0,0,0,0,4501,4502,4503,4504,4505,0,0,0,0,0,0,4645,4644,0,4630,4553,4554,4555,0,0,0,0,0,0,0,0,0,4551,4552,4631,0,0,4577,4579,4580,0,0,
0,0,0,0,0,0,0,0,0,0,0,0,0,0,0,0,0,0,0,0,0,0,0,0,0,0,0,0,0,0,4705,0,0,0,0,0,0,0,0,0,0,0,0,0,0,0,0,0,0,0,4533,0,0,0,4675,4674,0,0,4583,4584,4585,0,0,0,0,0,0,0,0,0,4581,4582,0,0,0,4607,4609,4610,0,0,
0,0,0,0,0,0,0,0,0,0,0,0,0,0,0,0,0,0,0,0,0,0,0,0,0,0,0,0,0,0,0,0,0,0,0,0,0,0,0,0,0,0,0,0,0,0,0,0,0,0,0,0,0,0,4705,0,0,0,0,0,0,0,0,0,0,0,0,0,0,0,4611,4612,0,0,0,4637,0,0,0,0,
0,0,0,0,0,0,0,0,0,0,0,0,0,0,0,0,0,0,0,0,0,0,0,0,0,0,0,0,0,0,0,0,0,0,0,0,0,0,0,0,0,0,0,0,0,0,0,0,0,0,0,0,0,0,0,0,0,0,0,0,0,0,0,0,0,0,0,0,0,0,0,0,0,0,0,0,0,0,0,0,
0,0,0,0,0,0,0,0,0,0,0,0,0,0,0,0,0,0,0,0,0,0,0,0,0,0,0,0,0,0,0,0,0,0,0,0,0,0,0,0,0,0,4596,0,0,0,0,0,0,0,0,0,0,0,0,0,0,0,0,0,0,0,0,0,0,0,0,0,0,0,0,0,0,0,0,0,0,40,41,42,
0,0,0,0,0,0,0,0,0,0,0,0,0,0,0,0,0,0,0,0,0,0,0,0,0,0,0,0,0,0,0,0,0,0,0,0,0,0,0,0,0,0,0,0,0,0,0,0,0,0,0,0,0,0,0,0,0,0,0,0,0,0,0,0,0,0,0,0,0,0,0,0,0,0,0,0,0,65,66,67,
0,0,0,0,0,0,0,0,0,0,0,0,0,0,0,0,0,0,0,0,0,0,0,0,0,0,0,0,0,0,0,0,0,0,0,0,0,0,0,0,0,0,0,0,0,0,0,0,0,0,0,0,0,0,0,0,0,0,0,0,0,0,0,0,0,0,0,0,0,0,0,0,0,0,0,0,0,90,91,92,
0,0,0,0,0,0,0,0,0,0,0,0,0,0,0,0,0,0,0,0,0,0,0,0,0,0,0,0,0,0,0,0,0,0,0,0,0,0,0,0,0,0,0,0,0,0,0,0,0,0,0,0,0,0,0,0,0,0,0,0,0,0,0,0,0,0,0,0,0,0,0,0,0,0,0,0,0,115,116,117,
0,0,0,0,0,0,0,0,0,0,0,0,0,0,0,0,0,0,0,0,0,0,0,0,0,0,0,0,0,0,0,0,0,0,0,0,0,0,0,0,0,4602,4602,0,0,0,0,0,0,0,0,0,0,0,0,0,0,0,0,0,0,0,0,0,0,0,0,0,0,0,0,0,0,0,0,0,0,140,141,142,
0,0,0,0,0,0,0,0,0,0,0,0,0,0,0,0,0,0,0,0,0,0,0,0,0,0,0,0,0,0,0,0,0,0,0,0,0,0,0,0,0,4632,4632,0,0,0,0,0,0,0,0,0,0,0,0,0,0,0,0,0,0,0,0,0,0,0,0,0,0,0,0,0,0,0,0,0,0,0,37,38,
0,0,0,0,0,0,0,0,0,0,0,0,0,0,0,0,0,0,0,0,0,0,0,0,0,0,0,0,0,0,0,0,0,0,0,0,3154,0,0,0,0,0,0,0,0,0,0,0,0,0,0,0,0,0,0,0,0,0,0,0,0,0,0,0,0,0,0,0,0,0,0,0,0,0,0,0,0,0,62,63,
0,0,0,0,0,0,0,0,0,0,0,4593,4590,4591,0,0,0,0,0,0,0,0,0,0,0,0,0,0,0,0,0,0,0,0,0,0,2020,0,0,0,0,0,0,0,0,0,0,0,0,0,0,0,0,0,0,0,0,0,0,0,0,0,0,0,0,0,0,0,0,0,0,0,0,0,0,0,0,0,87,88,
0,0,0,0,0,0,0,0,0,0,0,0,0,0,0,0,0,0,0,0,0,0,0,0,0,0,0,0,0,0,0,0,0,0,0,0,0,0,0,0,0,0,0,0,0,0,0,0,0,0,0,0,0,0,0,0,0,0,0,0,0,0,0,0,0,0,0,0,0,0,0,0,0,0,0,0,0,0,112,113,
40,41,42,0,0,0,0,0,4536,0,4615,4553,4554,4555,0,0,0,0,0,4549,4550,0,0,0,0,0,0,0,0,0,0,0,0,0,0,0,0,0,0,0,0,0,0,0,0,0,0,0,0,0,0,0,0,0,0,0,0,0,0,0,0,0,0,0,0,0,0,0,0,0,0,0,0,0,0,0,0,0,0,0,
65,66,67,0,0,4553,4554,4555,4566,0,4645,4583,4584,4585,0,0,0,0,0,4579,4580,0,0,0,0,0,0,0,0,0,0,0,0,0,0,0,0,0,0,0,0,0,0,0,0,0,0,0,0,0,0,0,0,0,0,0,0,0,0,0,0,0,0,0,0,0,0,0,0,0,0,0,0,0,0,0,0,0,0,0,
90,91,92,0,0,4583,4584,4585,0,0,4675,0,0,0,0,0,0,0,0,4609,4610,0,0,0,0,0,0,0,0,0,0,0,0,0,0,4540,0,4614,4321,4322,4323,4324,4547,0,0,0,0,0,0,0,0,0,0,0,0,0,0,0,0,0,0,0,0,0,0,0,0,0,0,0,0,0,0,0,0,0,0,4593,0,0,
115,116,117,0,0,0,0,0,0,0,4705,0,0,0,0,0,0,0,0,0,0,0,0,0,0,0,0,0,0,0,0,0,0,0,0,4570,0,4644,4351,4352,4353,4354,4577,0,0,2899,0,0,0,0,0,0,0,0,0,0,0,0,0,0,0,0,0,0,0,0,0,0,0,0,0,0,0,0,0,0,0,0,0,50,
40,41,42,0,0,0,0,0,0,0,0,0,0,0,0,0,0,0,0,0,0,4548,4535,0,0,0,0,0,0,0,0,0,0,0,344,0,0,4674,4381,4382,4383,4384,4607,0,4601,0,0,0,0,0,0,0,0,0,0,0,0,0,0,0,0,0,0,0,0,0,0,0,0,0,0,0,0,0,0,0,0,0,4531,0,
65,66,67,0,0,0,0,0,0,0,0,0,0,0,0,0,0,0,0,0,0,4578,4565,0,0,0,0,0,0,0,0,0,0,0,0,0,0,4602,4411,4412,4413,4414,4637,0,4631,0,4590,4591,0,0,0,0,0,0,0,0,0,0,0,0,0,0,0,0,0,0,0,0,0,0,0,0,0,0,0,0,0,0,125,126,
90,91,92,0,0,0,0,0,0,0,0,0,0,0,0,0,0,0,0,0,0,4608,0,0,4548,0,0,0,0,0,0,0,0,0,0,0,4602,4632,4441,4442,4443,4444,0,4602,0,0,0,0,0,0,0,0,0,0,0,0,0,0,0,0,0,0,0,0,0,0,0,0,0,0,0,0,0,0,0,0,0,0,0,0,
115,116,117,0,0,0,0,0,0,0,0,0,0,0,0,0,0,0,0,0,0,0,0,0,4578,4553,4554,4555,4553,4554,4555,0,0,0,0,0,4632,4470,4471,4472,4473,4474,4475,4632,4532,0,4600,0,0,0,0,0,4538,0,0,0,0,0,0,0,0,0,0,0,0,0,0,0,0,0,0,0,0,0,0,0,0,0,2034,0,
0,0,0,0,0,0,0,0,0,0,0,0,0,0,0,0,0,0,0,0,0,0,0,0,4608,4583,4584,4585,4583,4584,4585,4614,0,0,0,0,0,4500,4501,4502,4503,4504,4505,0,0,0,4630,0,4614,4551,4552,0,4568,4540,0,0,0,0,0,0,0,0,0,4593,4533,0,0,0,0,0,4600,0,0,0,0,0,0,0,0,0,
125,126,0,0,0,0,0,0,0,0,0,0,0,0,0,0,0,0,0,0,0,0,0,0,0,0,0,0,0,0,0,4644,0,0,0,0,0,0,0,0,0,0,0,4535,0,0,0,0,4644,4581,4582,0,0,4570,0,0,0,0,0,0,0,0,0,0,0,0,0,0,0,0,4595,2068,0,0,0,0,0,0,0,0,
0,0,0,0,0,0,0,0,0,0,0,0,0,0,0,0,0,0,0,0,0,0,0,0,0,0,0,0,0,0,0,4674,0,0,0,0,0,0,0,0,0,0,0,0,4536,0,0,0,4674,4611,4612,0,0,0,0,4553,4554,4555,4553,4554,4555,4540,4614,4615,0,0,0,0,0,0,0,0,4601,4600,0,4614,4600,0,50,0,
0,0,0,0,0,0,0,0,0,0,0,0,0,0,0,0,0,0,0,0,0,0,0,0,0,0,0,0,0,0,0,0,0,0,0,0,0,0,0,0,0,0,4593,0,0,0,0,0,0,0,0,0,0,0,0,4583,4584,4585,4583,4584,4585,4570,4644,4645,0,0,0,0,0,4549,4550,4548,4631,4630,0,4644,4630,0,0,0,
0,0,0,0,0,0,0,0,0,0,0,0,0,0,0,0,0,0,0,0,0,0,0,0,0,0,0,0,0,0,0,0,0,0,0,0,0,0,0,0,4602,0,0,0,0,0,0,0,0,0,0,0,0,0,0,0,0,0,0,0,0,0,4674,4675,0,0,0,0,0,4579,4580,4578,0,0,0,4674,0,40,41,42,
0,0,0,0,0,0,0,0,0,0,0,0,0,0,0,0,0,0,0,0,0,0,0,0,0,0,0,0,0,0,0,0,0,0,0,0,0,0,0,0,4632,0,0,0,0,0,0,0,0,0,0,0,0,0,0,0,0,0,0,0,0,0,0,4705,0,0,0,0,0,4609,4610,4608,0,0,0,0,0,65,66,67,
0,0,0,0,0,0,0,0,0,0,0,0,0,0,0,0,0,0,0,0,0,0,0,0,0,0,0,0,0,0,0,0,0,0,0,0,0,0,0,0,0,0,0,0,0,0,0,0,0,0,0,0,0,0,0,0,0,0,0,0,0,0,0,0,0,0,0,0,0,0,0,0,0,0,0,0,0,90,91,92,
0,0,0,0,0,0,0,0,0,0,0,0,0,0,0,0,0,0,0,0,0,0,0,0,0,0,0,0,0,0,0,0,0,4602,0,0,0,0,0,0,0,0,0,0,0,0,0,0,0,0,0,0,0,0,0,0,0,0,0,0,0,0,0,0,0,0,0,0,0,0,0,0,0,0,0,0,0,115,116,117,
0,0,0,0,0,0,0,0,0,0,0,0,0,0,0,0,0,0,0,0,0,0,0,0,0,0,0,0,0,0,0,0,0,4632,0,0,0,0,0,0,0,0,0,0,0,0,0,0,0,0,0,0,0,0,0,0,0,0,0,0,0,0,0,0,0,0,0,0,0,0,0,0,0,0,0,0,0,4532,141,142,
0,0,0,0,0,0,0,0,0,0,0,0,0,0,0,0,0,0,0,0,0,0,0,0,0,0,0,0,0,0,0,0,0,0,0,0,0,0,0,0,0,0,0,0,0,0,0,0,0,0,0,0,0,0,0,0,0,0,0,0,0,0,0,0,0,0,0,0,0,0,0,0,0,0,0,0,0,37,38,39,
0,0,0,0,0,0,0,0,0,0,0,0,0,0,0,0,0,0,0,0,0,0,0,0,0,0,0,0,0,0,0,0,0,0,0,0,0,0,0,0,0,0,0,0,0,0,0,0,0,0,0,0,0,0,0,0,0,0,0,0,0,0,0,0,0,0,0,0,0,0,0,0,0,0,0,0,0,62,63,64,
0,0,0,0,0,0,0,0,0,0,0,0,0,0,0,0,0,0,0,0,0,0,0,0,0,0,0,0,0,0,0,0,0,0,0,0,0,0,0,0,0,0,0,0,0,0,0,0,0,0,0,0,0,0,0,0,0,0,0,0,0,0,0,0,0,0,0,0,0,0,0,0,0,0,0,0,0,87,88,89,
0,0,0,0,0,0,0,0,0,0,0,0,0,0,0,0,0,0,0,0,0,0,0,0,0,0,0,0,0,0,0,0,0,0,0,0,0,0,0,0,0,0,0,0,0,0,0,0,0,0,0,0,0,0,0,0,0,0,0,0,0,0,0,0,0,0,0,0,0,0,0,0,0,0,0,0,0,112,113,114,
0,0,0,0,0,0,0,0,0,0,0,0,0,0,0,0,0,0,0,0,0,0,0,0,0,0,0,0,0,0,0,0,0,0,0,4602,0,0,0,0,4602,0,0,0,0,0,0,0,0,0,0,0,0,0,0,0,0,0,0,0,0,0,0,0,0,0,0,0,0,0,0,0,0,0,0,0,0,0,0,0,
0,0,2799,2800,0,0,0,0,0,0,0,0,0,0,0,0,0,0,0,0,0,0,0,0,0,0,0,0,0,0,0,0,0,4602,0,4632,0,0,0,0,4632,0,0,0,0,0,0,0,0,0,0,0,0,0,0,0,0,0,0,0,0,0,0,0,0,0,0,0,0,0,0,0,0,0,0,0,0,0,0,0,
0,0,2831,2832,0,0,0,0,0,0,0,0,0,0,0,0,0,0,0,0,0,0,0,0,0,0,0,0,0,0,0,0,0,4632,0,0,0,0,0,0,0,0,0,0,0,0,0,0,0,0,0,0,0,0,0,0,0,0,0,0,0,0,0,0,0,0,0,0,0,0,0,0,0,0,0,0,0,0,0,0,
0,0,0,0,0,0,0,0,0,0,0,0,0,0,0,0,0,0,0,0,0,0,0,0,0,0,0,0,0,0,0,0,0,0,0,0,0,0,0,0,0,0,0,0,0,0,0,0,0,0,0,0,0,0,0,0,0,0,0,0,0,0,0,0,0,0,0,0,0,0,0,0,0,0,0,0,0,0,0,0,
0,0,0,0,2799,2800,0,0,0,0,0,0,0,0,0,0,0,0,0,0,0,0,0,0,0,0,0,0,0,0,0,0,0,0,0,0,0,0,0,0,447,0,0,0,0,0,0,0,0,0,0,0,0,0,0,0,0,0,0,0,0,0,0,0,0,0,0,0,0,0,0,0,0,0,0,0,0,0,0,0,
0,0,0,0,2831,2832,0,0,0,0,0,0,0,0,0,0,0,0,0,0,0,0,0,0,0,0,0,0,0,0,0,0,0,0,0,0,4530,4531,0,0,0,0,0,0,0,0,0,0,0,0,0,0,0,0,0,0,0,0,0,0,0,0,0,0,0,0,0,0,0,0,0,0,0,0,0,0,0,0,0,0,
0,0,0,0,0,0,0,0,0,0,0,0,0,0,0,0,0,0,0,0,0,0,0,0,0,0,0,0,0,0,0,0,0,0,0,0,0,0,0,0,0,0,0,0,0,0,0,0,0,0,0,0,0,0,0,0,0,0,0,0,0,0,0,0,0,0,0,0,0,0,0,0,0,0,0,0,0,0,0,0,
0,0,0,0,0,0,0,0,0,0,0,0,0,0,0,0,0,0,0,0,0,0,0,0,0,0,0,0,0,0,4602,0,0,0,0,2798,2799,2800,0,0,0,0,0,0,2794,2795,2796,2797,2798,2799,2800,2798,2799,0,37,38,39,2798,2799,2800,2798,2799,2800,50,51,52,50,51,52,50,51,52,2798,2799,2800,0,0,0,0,0,
0,0,0,0,0,0,0,0,0,0,0,0,0,0,0,0,0,0,0,0,0,0,0,0,0,0,0,0,0,0,4632,0,0,4602,0,2830,2831,2832,4590,4591,0,0,0,0,2826,2827,2828,2829,2830,2831,2832,2830,2831,2832,0,0,0,2830,2831,2832,2830,2831,2832,75,76,77,75,76,77,75,76,77,2830,2831,2832,0,0,0,0,0,
0,0,0,0,0,0,0,0,0,0,0,0,0,0,0,0,0,0,0,0,0,0,0,0,0,0,0,0,0,0,0,0,0,4632,0,0,0,0,0,0,0,0,0,0,0,0,0,0,0,0,0,0,0,0,0,0,0,0,0,0,0,0,0,0,0,0,0,0,0,0,0,0,0,0,0,0,0,0,0,0
</data>
 </layer>
 <layer id="7" name="AlwaysFront" width="80" height="65">
  <data encoding="csv">
983,983,1033,983,983,1033,983,983,1008,983,1033,1008,983,1033,983,983,983,1008,983,983,983,983,1033,983,983,983,1008,983,983,983,983,983,983,983,983,983,1008,977,978,979,980,979,980,981,982,982,1008,983,983,983,983,1033,983,983,983,1033,983,983,983,983,983,983,983,983,983,983,983,983,983,983,983,983,983,1033,983,983,983,1033,983,983,
983,1033,983,1033,982,1008,983,982,983,981,983,983,981,983,982,983,983,983,983,983,983,983,983,983,983,1008,983,983,983,983,983,1033,983,983,983,1033,983,1002,1003,1004,1005,1004,1005,1006,981,1008,982,983,983,983,982,983,983,1033,983,983,983,983,983,1033,983,983,983,983,983,983,1008,1033,983,983,983,982,983,983,983,982,981,983,982,983,
983,983,983,977,981,977,978,981,982,980,982,982,980,982,981,1008,983,1033,983,983,983,1008,983,977,978,980,978,978,979,981,982,1008,983,983,983,983,977,1052,1053,0,0,0,0,1030,1006,1007,981,982,982,1033,977,978,978,978,979,981,982,1033,983,983,983,983,1008,1033,977,978,980,978,978,979,979,980,979,980,979,979,981,982,982,1008,
983,983,1033,977,978,978,1003,1004,1005,1004,1005,1005,1004,1005,1006,1007,982,983,983,983,983,977,978,978,1003,1005,1004,1005,1004,1006,1007,981,982,983,983,977,978,1003,0,0,0,0,0,0,1030,1006,1006,979,980,979,978,1003,1004,1005,1004,1006,1007,981,982,982,1033,983,977,978,978,1003,1005,1004,1005,1004,1004,1005,1004,1005,1004,1004,1006,981,1008,982,
983,983,983,1002,1003,1004,1029,0,0,0,0,0,0,0,1031,1032,982,983,1033,977,978,978,1003,1004,1029,0,0,0,0,0,1030,1006,979,980,979,978,1003,1029,0,0,0,0,0,0,0,0,1030,1004,1005,1004,1004,1029,0,0,0,1030,1004,1006,979,980,979,978,978,1003,1004,1029,0,0,0,0,0,0,0,0,0,0,1030,1006,1007,1032,
1033,1033,1027,1027,1028,0,0,0,0,0,0,0,0,0,1056,1057,1032,983,983,1002,1003,1004,1029,0,0,0,0,0,0,0,0,0,1004,1005,1004,1005,0,0,0,0,0,0,0,0,0,0,0,0,0,0,0,0,0,0,0,0,0,0,1004,1005,1004,1003,1004,1029,0,0,0,0,0,0,0,0,0,0,0,0,0,1030,1006,982,
983,977,978,979,1053,0,0,0,0,0,0,0,0,0,1031,1032,983,983,1102,1027,1028,0,0,0,0,0,0,0,0,0,0,0,0,0,0,0,0,0,0,0,0,0,0,0,0,0,0,0,0,0,0,0,0,0,0,0,0,0,0,0,0,0,0,0,0,0,0,0,0,0,0,0,0,0,0,0,0,0,1031,1032,
983,1002,1003,1004,0,0,0,0,0,0,0,0,0,0,1056,1057,1107,983,977,978,1053,0,0,0,0,0,0,0,0,0,0,0,0,0,0,0,0,0,0,0,0,0,0,0,0,0,0,0,0,0,0,0,0,0,0,0,0,0,0,0,0,0,0,0,0,0,0,0,0,0,0,0,0,0,0,0,0,0,1056,1057,
983,1027,1028,0,0,0,0,0,0,0,0,0,0,1055,1081,1082,1032,1027,1003,1005,0,0,0,0,0,0,0,0,0,0,0,0,0,0,0,0,0,0,0,0,0,0,0,0,0,0,0,0,0,0,0,0,0,0,0,0,0,0,0,0,0,0,0,0,0,0,0,0,0,0,0,0,0,0,0,0,0,0,1031,1032,
977,1027,1028,0,0,0,0,0,0,0,0,0,0,1031,1106,1107,1107,1052,1053,0,0,0,0,0,0,0,0,0,0,0,0,0,0,0,0,0,0,0,0,0,0,0,0,0,0,0,0,0,0,0,0,0,0,0,0,0,0,0,0,0,0,0,0,0,0,0,0,0,0,0,0,0,0,0,0,0,0,0,1056,1057,
983,1052,1053,0,0,0,0,0,1055,1080,1080,1079,1080,1081,1082,1107,983,1077,1028,0,0,0,0,0,0,0,0,0,0,0,0,0,0,0,0,0,0,0,0,0,0,0,0,0,0,0,0,0,0,0,0,0,0,0,0,0,0,0,0,0,0,0,0,0,0,0,0,0,0,0,0,0,0,0,0,0,0,0,1030,1006,
977,1077,1078,1079,1079,1080,1079,1080,1081,1104,1105,1104,1105,1106,1107,983,977,978,1053,0,0,0,0,0,0,0,0,0,0,0,0,0,0,0,0,0,0,0,0,0,0,0,0,0,0,0,0,0,0,0,0,0,0,0,0,0,0,0,0,0,0,0,0,0,0,0,0,0,0,0,0,0,0,0,0,0,0,0,0,0,
983,1102,1103,1103,1104,1105,1103,1104,1105,1106,983,1103,1107,983,978,979,980,1003,1029,0,0,0,0,0,0,0,0,0,0,0,0,0,0,0,0,0,0,0,0,0,0,0,0,0,0,0,0,0,0,0,0,0,0,0,0,0,0,0,0,0,0,0,0,0,0,0,0,0,0,0,0,0,0,0,0,0,0,0,0,0,
983,977,983,983,1102,1033,977,983,977,977,978,978,979,980,1003,1004,1005,0,0,0,0,0,0,0,0,0,0,0,0,0,0,0,0,0,0,0,0,0,0,0,0,0,0,0,0,0,0,0,0,0,0,0,0,0,0,0,0,0,0,0,0,0,0,0,0,0,0,0,0,0,0,0,0,0,0,0,0,0,0,0,
983,1102,983,977,983,983,977,983,977,1003,1005,1003,1004,1005,1029,0,0,0,0,0,0,0,0,0,0,0,0,0,0,0,0,0,0,0,0,0,0,0,0,0,0,0,0,0,0,0,0,0,0,0,0,0,0,0,0,0,0,0,0,0,0,0,0,0,0,0,0,0,0,0,0,0,0,0,0,0,0,0,0,0,
977,983,1104,983,983,977,977,1002,1003,1029,0,0,0,0,0,0,0,0,0,0,0,0,0,0,0,0,0,0,0,0,0,0,0,0,0,0,0,0,0,0,0,0,0,0,0,0,0,0,0,0,53,54,55,56,57,58,0,0,0,0,0,0,0,0,0,0,0,0,0,0,0,0,0,0,0,0,0,0,0,0,
977,983,1033,977,978,979,980,1027,1028,0,0,0,0,0,0,0,0,0,0,0,0,43,44,45,46,0,0,0,0,0,0,0,0,0,0,0,0,0,0,0,0,0,0,0,0,0,0,0,0,0,78,79,80,81,82,83,0,0,0,0,0,0,0,0,0,0,0,0,0,0,0,0,0,0,0,0,0,0,0,0,
983,1033,1008,1002,1003,1003,1004,1005,1029,0,0,0,0,0,0,0,0,0,0,0,0,68,69,70,71,0,0,0,0,0,0,0,0,0,0,0,0,0,0,0,0,0,0,0,0,0,0,0,0,0,103,104,105,106,107,108,0,0,0,0,0,0,0,0,0,0,0,0,0,0,0,0,0,0,0,0,0,0,1055,1080,
1102,977,978,1003,1029,0,0,0,0,0,0,0,0,0,0,0,0,0,0,0,0,93,94,95,96,0,0,0,0,0,0,0,0,0,0,0,0,0,0,0,0,0,0,0,0,0,0,0,0,0,128,129,130,131,132,133,0,0,0,0,0,0,0,0,0,0,0,0,0,0,0,0,0,0,0,0,0,1055,1081,1082,
983,1002,1003,1029,0,0,0,0,0,0,0,0,0,0,0,0,0,0,0,0,0,118,119,120,121,0,0,0,0,0,0,0,0,0,0,0,0,0,0,0,0,0,0,0,0,0,0,0,0,0,0,0,155,156,0,0,0,0,0,0,0,0,0,0,0,0,0,0,0,0,0,0,0,0,0,0,0,1031,1106,1107,
1002,1003,1029,0,0,0,0,0,0,0,0,0,0,0,0,0,0,0,0,0,0,0,0,0,0,0,0,0,0,0,0,0,0,0,0,0,0,0,0,0,0,0,0,0,0,0,0,0,0,0,0,0,0,0,0,0,0,0,0,0,0,0,0,0,0,0,0,0,0,0,0,0,0,0,0,0,0,1056,1057,983,
1027,1028,0,0,0,0,0,0,0,0,0,0,0,0,0,0,0,0,0,0,0,0,0,0,0,0,0,0,0,0,0,0,0,0,0,0,0,0,0,0,0,0,0,0,0,0,0,0,0,0,0,0,0,0,0,0,0,0,0,0,0,0,0,0,0,0,0,0,0,0,0,0,0,0,0,0,0,1031,1032,983,
1052,1053,0,0,0,0,0,0,0,0,0,0,0,0,0,0,0,0,0,0,0,0,0,0,0,0,0,0,0,0,0,0,0,0,0,0,0,0,0,0,0,0,0,0,0,0,0,0,0,0,0,0,0,0,0,0,0,0,0,0,0,0,0,0,0,0,0,0,0,0,0,0,0,0,0,0,0,1056,1057,983,
1077,1078,1054,0,0,0,0,0,0,0,0,0,0,0,0,0,0,0,0,0,0,0,0,0,0,0,0,0,0,0,0,0,0,0,0,0,0,0,0,0,0,0,0,0,0,0,0,0,0,0,0,0,0,0,0,0,0,0,0,0,0,0,0,0,0,0,0,0,0,0,0,0,0,0,0,0,0,1031,1032,983,
977,1027,1028,0,0,0,0,0,0,0,0,0,0,0,0,0,0,0,0,0,0,0,0,0,0,0,0,0,0,0,0,0,0,0,0,0,0,0,0,0,0,0,0,0,0,0,0,0,0,0,0,0,0,0,0,0,0,0,0,0,0,0,0,0,0,0,0,0,0,0,0,0,0,0,0,0,0,1056,1057,983,
977,1052,1053,0,0,0,0,0,0,0,0,0,0,0,0,0,0,0,0,0,0,0,0,0,0,0,0,0,0,0,0,0,0,0,0,0,0,0,0,0,0,0,0,0,0,0,0,0,0,0,0,0,0,0,0,0,0,0,0,0,0,0,0,0,0,0,0,0,0,0,0,0,0,0,0,0,0,1031,1032,983,
1102,1103,1078,1079,1054,0,0,0,0,0,0,0,0,0,0,0,0,0,0,0,0,0,0,0,0,0,0,0,0,0,0,0,0,0,0,0,0,0,0,0,0,0,0,0,0,0,0,0,0,0,0,0,0,0,0,0,0,0,0,0,0,0,0,0,0,0,0,0,0,0,0,0,0,0,0,0,0,1056,1057,983,
983,1033,1052,1052,1053,0,0,0,0,0,0,0,0,0,0,0,0,0,0,0,0,0,0,0,0,0,0,0,0,0,0,0,0,0,0,0,0,0,0,0,0,0,0,0,0,0,0,0,0,0,0,0,0,0,0,0,0,0,0,0,0,0,0,0,0,0,0,0,0,0,0,0,0,0,0,0,0,1031,1032,983,
983,1102,1027,1052,1053,0,0,0,0,0,0,0,0,0,0,0,0,0,0,0,0,0,0,0,0,0,0,0,0,0,0,0,0,0,0,0,0,0,0,0,0,0,0,0,0,0,0,0,0,0,0,0,0,0,0,0,0,0,0,0,0,0,0,0,0,0,0,0,0,0,0,0,0,0,0,0,0,1056,1057,983,
983,983,1102,1077,1078,0,0,0,0,0,0,0,0,0,0,0,0,0,0,0,0,0,0,0,0,0,0,0,0,0,0,0,0,0,0,0,0,0,0,0,0,0,0,0,0,0,0,0,0,0,0,0,0,0,0,0,0,0,0,0,0,0,0,0,0,0,0,0,0,0,0,0,0,0,0,0,0,1031,1032,983,
1008,983,1008,1027,1028,0,0,0,0,0,0,0,0,0,0,0,0,0,0,0,0,0,0,0,0,0,0,0,0,0,0,0,0,0,0,0,0,0,0,0,0,0,0,0,0,0,0,0,0,0,0,0,0,0,0,0,0,0,0,0,0,0,0,0,0,0,0,0,0,0,0,0,0,0,0,0,0,1056,1057,983,
983,983,1102,1052,1053,0,0,0,0,0,0,0,0,0,0,0,0,0,0,0,0,0,0,0,0,0,0,0,0,0,0,0,0,0,0,0,0,0,0,0,0,0,0,0,0,0,0,0,0,0,0,0,0,0,0,0,0,0,0,0,0,0,0,0,0,0,0,0,0,0,0,0,0,0,0,0,0,1056,1057,982,
1008,983,983,1027,1028,0,0,0,0,0,0,0,0,0,0,0,0,0,0,0,0,0,0,0,0,0,0,0,0,0,0,0,0,0,0,0,0,0,0,0,0,0,0,0,0,0,0,0,0,0,0,0,0,0,0,0,0,0,0,0,0,0,0,0,0,0,0,0,0,0,0,0,0,0,0,0,0,1030,1006,1008,
983,983,1008,1027,1028,0,0,0,0,0,0,0,0,0,0,0,0,0,0,0,0,0,0,0,0,0,0,0,0,0,0,0,0,0,0,0,0,0,0,0,0,0,0,0,0,0,0,0,0,0,0,0,0,0,0,0,0,0,0,0,0,0,0,0,0,0,0,0,0,0,0,0,0,0,0,0,0,0,1031,1057,
983,1102,977,1052,1053,0,0,0,0,0,0,0,0,0,0,0,0,0,0,0,0,0,0,0,0,0,0,0,0,0,0,0,0,0,0,0,0,0,0,0,0,0,0,0,0,0,0,0,0,0,0,0,0,0,0,0,0,0,0,0,0,0,0,0,0,0,0,0,0,0,0,0,0,0,0,0,0,0,0,1006,
1008,983,1002,1003,1029,0,0,0,0,0,0,0,0,0,0,0,0,0,0,0,0,0,0,0,0,0,0,0,0,0,0,0,0,0,0,0,0,0,0,0,0,0,0,0,0,0,0,0,0,0,0,0,0,0,0,0,0,0,0,0,0,0,0,0,0,0,0,0,0,0,0,0,0,0,0,0,0,0,0,1031,
983,1033,1027,1028,0,0,0,0,0,0,0,0,0,0,0,0,0,0,0,0,0,0,0,0,0,0,0,0,0,0,0,0,0,0,0,0,0,0,0,0,0,0,0,0,0,0,0,0,0,0,0,0,0,0,0,0,0,0,0,0,0,0,0,0,0,0,0,0,0,0,0,0,0,0,0,0,0,0,0,1056,
983,983,1052,1053,0,0,0,0,0,0,0,0,0,0,0,0,0,0,0,0,0,0,0,0,0,0,0,0,0,0,0,0,0,0,0,0,0,0,0,0,0,0,0,0,0,0,0,0,0,0,0,0,0,0,0,0,0,0,0,0,0,0,0,0,0,0,0,0,0,0,0,0,0,0,0,0,0,0,0,1056,
977,978,979,1028,0,0,0,0,0,0,0,0,0,0,0,0,0,0,0,0,0,0,0,0,0,0,0,0,0,0,0,0,0,0,0,0,0,0,0,0,0,0,0,0,0,0,0,0,0,0,0,0,0,0,0,0,0,0,0,0,0,0,0,0,0,0,0,0,0,0,0,0,0,0,0,0,0,0,0,1031,
1002,1003,1004,1029,0,0,0,0,0,0,0,0,0,0,0,0,0,0,0,0,0,0,0,0,0,0,0,0,0,0,0,0,0,0,0,0,0,0,0,0,0,0,0,0,0,0,0,0,0,0,0,0,0,0,0,0,0,0,0,0,0,0,0,0,0,0,0,0,0,0,0,0,0,0,0,0,0,0,0,1056,
1052,1053,0,0,0,0,0,0,0,0,0,0,0,0,0,0,0,0,0,0,0,0,0,0,0,0,0,0,0,0,0,0,0,0,0,0,0,0,0,0,0,0,0,0,0,0,0,0,0,0,0,0,0,0,0,0,0,0,0,0,0,0,0,0,0,0,0,0,0,0,0,0,0,0,0,0,0,0,0,1031,
1077,1078,1054,0,0,0,0,0,0,0,0,0,0,0,0,0,0,0,0,0,0,0,0,0,0,0,0,0,0,0,0,0,0,0,0,0,0,0,0,0,0,0,0,0,0,0,0,0,0,0,0,0,0,0,0,0,0,0,0,0,0,0,0,0,0,0,0,0,0,0,0,0,0,0,0,0,0,0,0,1056,
1008,1027,1028,0,0,0,0,0,0,0,0,0,0,0,0,0,0,0,0,0,0,0,0,0,0,0,0,0,0,0,0,0,0,0,0,0,0,0,0,0,0,0,0,0,0,0,0,0,0,0,0,0,0,0,0,0,0,0,0,0,0,0,0,0,0,0,0,0,0,0,0,0,0,0,0,0,0,0,1055,1081,
1102,1052,1053,0,0,0,0,0,0,0,0,0,0,0,0,0,0,0,0,0,0,0,0,0,0,0,0,0,0,0,0,0,0,0,0,0,0,0,0,0,0,0,0,0,0,0,0,0,0,0,0,0,0,0,0,0,0,0,0,0,0,0,0,0,0,0,0,0,0,0,0,0,0,0,0,0,0,0,1032,1106,
983,1027,1028,0,0,0,0,0,0,0,0,0,0,0,0,0,0,0,0,0,0,0,0,0,0,0,0,0,0,0,0,0,0,0,0,0,0,0,0,0,0,0,0,0,0,0,0,0,0,0,0,0,0,0,0,0,0,0,0,0,0,0,0,0,0,0,0,0,0,0,0,0,0,0,0,0,0,1056,1057,1106,
1008,1052,1053,0,0,0,0,0,0,0,0,0,0,0,0,0,0,0,0,0,0,0,0,0,0,0,0,0,0,0,0,0,0,0,0,0,0,0,0,0,0,0,0,0,0,0,0,0,0,0,0,0,0,0,0,0,0,0,0,0,0,0,0,0,0,0,0,0,0,0,0,0,0,0,0,0,0,1031,1032,983,
983,1027,1028,0,0,0,0,0,0,0,0,0,0,0,0,0,0,0,0,0,0,0,0,0,0,0,0,0,0,0,0,0,0,0,0,0,0,0,0,0,0,0,0,0,0,0,0,0,0,0,0,0,0,0,0,0,0,0,0,0,0,0,0,0,0,0,0,0,0,0,0,0,0,0,0,0,0,1056,1057,1033,
1033,1052,1053,0,0,0,0,0,0,0,0,0,0,0,0,0,0,0,0,0,0,0,0,0,0,0,0,0,0,0,0,0,0,0,0,0,0,0,0,0,0,0,0,0,0,0,0,0,0,0,0,0,0,0,0,0,0,0,0,0,0,0,0,0,0,0,0,0,0,0,0,0,0,0,0,0,0,1031,1032,983,
983,1102,1078,1054,0,0,0,0,0,0,0,0,0,0,0,0,0,0,0,0,0,0,0,0,0,0,0,0,0,0,0,0,0,0,0,0,0,0,0,0,0,0,0,0,0,0,0,0,0,0,0,0,0,0,0,0,0,0,0,0,0,0,0,0,0,0,0,0,0,0,0,0,0,0,0,0,0,1056,1057,983,
1102,983,1027,1028,0,0,0,0,0,0,0,0,0,0,0,0,0,0,0,0,0,0,0,0,0,0,0,0,0,0,0,0,0,0,0,0,0,0,0,0,0,0,0,0,0,0,0,0,0,0,0,0,0,0,0,0,0,0,0,0,0,0,0,0,0,0,0,0,0,0,0,0,0,0,0,0,0,1031,1032,983,
983,983,1052,1053,0,0,0,0,0,0,0,0,0,0,0,0,0,0,0,0,0,0,0,0,0,0,0,0,0,0,0,0,0,0,0,0,0,0,0,0,0,0,0,0,0,0,0,0,0,0,0,0,0,0,0,0,0,0,0,0,0,0,0,0,0,0,0,0,0,0,0,0,0,0,0,0,0,1056,1057,983,
983,1008,1052,1078,1054,0,0,0,0,0,0,0,0,0,0,0,0,0,0,0,0,0,0,0,0,0,0,0,0,0,0,0,0,0,0,0,0,0,0,0,0,0,0,0,0,0,0,0,0,0,0,0,0,0,0,0,0,0,0,0,0,0,0,0,0,0,0,0,0,0,0,0,0,0,0,0,1055,1081,1082,1032,
983,977,978,979,1053,0,0,0,0,0,0,0,0,0,0,0,0,0,0,0,0,0,0,0,0,0,0,0,0,0,0,0,0,0,0,0,0,0,0,0,0,0,0,0,0,0,0,0,0,0,0,0,0,0,0,0,0,0,0,0,0,0,0,0,0,0,0,0,0,0,0,0,0,0,0,0,1031,1106,1107,1107,
983,1102,1003,1004,1029,0,0,0,0,0,0,0,0,0,0,0,0,0,0,0,0,0,0,0,0,0,0,0,0,0,0,0,0,0,0,0,0,0,0,0,0,0,0,0,0,0,0,0,0,0,0,0,0,0,0,0,0,0,0,0,0,0,0,0,0,0,0,0,0,0,0,0,0,0,0,0,1030,1007,1032,983,
983,1002,1053,0,0,0,0,0,0,0,0,0,0,0,0,0,0,0,0,0,0,0,0,0,0,0,0,0,0,0,0,0,0,0,0,0,0,0,0,0,0,0,0,0,0,0,0,0,0,0,0,0,0,0,0,0,0,0,0,0,0,0,0,0,0,0,0,0,0,0,0,0,0,0,0,0,0,1056,1057,983,
1008,1027,1028,0,0,0,0,0,0,0,0,0,0,0,0,0,0,0,0,0,0,0,0,0,0,0,0,0,0,0,0,0,0,0,0,0,0,0,0,0,0,0,0,0,0,0,0,0,0,0,0,0,0,0,0,0,0,0,0,0,0,0,0,0,0,0,0,0,0,0,0,0,0,0,0,0,1055,1081,1082,1008,
983,1052,1053,0,0,0,0,0,0,0,0,0,0,0,0,0,0,0,0,0,0,0,0,0,0,0,0,0,0,0,0,0,0,0,0,0,0,0,0,0,0,0,0,0,0,0,0,0,0,0,0,0,0,0,0,0,0,0,0,0,0,0,0,0,0,0,0,0,0,0,0,0,0,0,0,0,1056,1057,1107,983,
983,1102,1052,1079,1054,0,0,0,0,0,0,0,0,0,0,0,0,0,0,0,0,0,0,0,0,0,0,0,0,0,0,0,0,0,0,0,0,0,0,0,0,0,0,0,0,0,0,0,0,0,0,0,0,0,0,0,0,0,0,0,0,0,0,0,0,0,0,0,0,0,0,0,0,0,0,0,1081,1082,1008,983,
983,1102,1077,1077,1078,1054,0,0,0,0,0,0,0,0,0,0,0,0,0,0,0,0,0,0,0,0,0,0,0,0,0,0,0,0,0,0,0,0,0,0,0,0,0,0,0,0,0,0,0,0,0,0,0,0,0,0,0,0,0,0,0,0,0,0,0,0,0,0,0,0,0,0,0,0,0,0,1006,1057,983,983,
983,983,1103,1104,1027,1028,0,0,0,0,0,0,0,0,0,0,0,0,0,0,0,0,0,0,0,1055,1079,1080,1079,1080,1054,0,0,0,0,0,0,0,0,0,0,0,0,0,0,0,0,0,0,0,0,0,0,0,0,0,0,0,0,0,0,0,0,0,0,0,0,0,0,0,0,0,0,0,0,0,1031,1082,983,983,
983,1107,983,983,1052,1078,1054,0,0,0,0,0,0,0,0,0,0,0,0,0,0,0,1055,1079,1080,1081,1104,1105,1104,1105,1078,1080,1079,1080,1054,0,0,0,0,0,0,0,0,0,0,0,0,0,0,0,0,0,0,0,0,0,0,0,0,0,0,0,0,0,0,0,0,0,0,0,0,0,0,0,0,0,1056,1107,983,1008,
983,1008,983,1008,1008,1052,1053,0,0,0,0,0,0,0,0,0,1055,1080,1079,1080,1079,1080,1081,1082,1105,1105,1107,1033,1102,1102,1104,1105,1104,1105,1078,1054,0,0,0,0,0,0,0,0,0,0,1055,1080,1054,0,0,0,0,0,0,0,0,1055,1079,1080,1079,1080,1080,1079,1080,1054,0,0,0,0,0,0,0,0,0,0,1031,1032,983,983,
983,983,983,1102,983,1077,1078,1080,1079,1080,1079,1080,1079,1080,1079,1080,1081,1103,1104,1105,1104,1105,1106,1107,1033,983,983,1033,983,983,1008,983,1107,1102,1052,1053,0,0,0,0,0,0,0,0,0,0,1081,1106,1078,1079,1079,1080,1080,1079,1054,0,1055,1081,1104,1105,1104,1105,1103,1104,1105,1078,1079,1080,1079,1080,1079,1080,1080,1079,1054,0,1056,1057,983,983,
983,1102,1102,983,983,1102,1103,1105,1104,1105,1106,1105,1105,1106,1106,1032,1007,1033,1008,983,1008,983,983,983,1008,983,1008,1033,1008,983,1008,983,983,1104,1077,1078,1079,1080,1079,1080,1054,0,0,0,0,1055,1106,1107,1103,1104,1104,1105,1106,1077,1078,1080,1081,1106,983,983,983,983,983,983,983,1103,1104,1105,1104,1105,1104,1105,1106,1104,1078,1079,1081,1082,1008,983,
983,983,1033,983,1102,979,1008,1008,1107,1008,1107,1033,983,1033,1033,983,983,983,1033,983,983,1008,983,1033,1008,983,1008,983,1008,1008,983,983,983,1008,1102,1103,1104,1105,1104,1105,1053,0,0,0,0,1056,977,983,1008,983,983,1033,983,977,1104,1105,1106,983,983,1008,983,1033,983,983,1008,983,977,983,983,983,983,983,1102,1103,1104,1105,1106,1107,983,983
</data>
 </layer>
</map>
