<?xml version="1.0"?>
<map version="1.4" tiledversion="1.4.2" orientation="orthogonal" renderorder="right-down" compressionlevel="0" width="30" height="30" tilewidth="16" tileheight="16" infinite="0" nextlayerid="19" nextobjectid="44">
  <properties>    <property name="Fall_Objects" type="string" value="T" />    <property name="Outdoors" type="string" value="T" />
    <property name="Spring_Objects" type="string" value="T" />
    <property name="Summer_Objects" type="string" value="T" />    <property name="Winter_Objects" type="string" value="T" />
  </properties>
  <tileset firstgid="1" name="outdoors" tilewidth="16" tileheight="16" tilecount="1975" columns="25">
    <image source="spring_outdoorsTileSheet" width="400" height="1264" />
    <tile id="150">
      <animation>
        <frame tileid="150" duration="100" />
        <frame tileid="150" duration="100" />
        <frame tileid="150" duration="100" />
        <frame tileid="150" duration="100" />
        <frame tileid="150" duration="100" />
        <frame tileid="150" duration="100" />
        <frame tileid="150" duration="100" />
        <frame tileid="150" duration="100" />
        <frame tileid="150" duration="100" />
        <frame tileid="150" duration="100" />
        <frame tileid="150" duration="100" />
        <frame tileid="150" duration="100" />
        <frame tileid="150" duration="100" />
        <frame tileid="150" duration="100" />
        <frame tileid="150" duration="100" />
        <frame tileid="150" duration="100" />
        <frame tileid="150" duration="100" />
        <frame tileid="150" duration="100" />
        <frame tileid="150" duration="100" />
        <frame tileid="150" duration="100" />
        <frame tileid="150" duration="100" />
        <frame tileid="150" duration="100" />
        <frame tileid="420" duration="100" />
        <frame tileid="421" duration="100" />
        <frame tileid="422" duration="100" />
        <frame tileid="423" duration="100" />
        <frame tileid="420" duration="100" />
        <frame tileid="150" duration="100" />
        <frame tileid="150" duration="100" />
        <frame tileid="150" duration="100" />
      </animation>
    </tile>
    <tile id="151">
      <properties>
        <property name="Type" type="string" value="Grass" />
      </properties>
      <animation>
        <frame tileid="151" duration="1000" />
        <frame tileid="151" duration="1000" />
        <frame tileid="152" duration="1000" />
      </animation>
    </tile>
    <tile id="153">
      <properties>
        <property name="Diggable" type="string" value="t" />
        <property name="Type" type="string" value="Dirt" />
      </properties>
    </tile>
    <tile id="175">
      <properties>
        <property name="Spawnable" type="string" value="t" />
        <property name="Type" type="string" value="Grass" />
      </properties>
    </tile>
    <tile id="176">
      <properties>
        <property name="Diggable" type="string" value="t" />
        <property name="Type" type="string" value="Dirt" />
      </properties>
    </tile>
    <tile id="177">
      <properties>
        <property name="Type" type="string" value="Dirt" />
      </properties>
    </tile>
    <tile id="178">
      <properties>
        <property name="Type" type="string" value="Dirt" />
      </properties>
    </tile>
    <tile id="179">
      <properties>
        <property name="Type" type="string" value="Grass" />
      </properties>
    </tile>
    <tile id="180">
      <properties>
        <property name="Type" type="string" value="Grass" />
      </properties>
    </tile>
    <tile id="181">
      <properties>
        <property name="Type" type="string" value="Dirt" />
      </properties>
    </tile>
    <tile id="182">
      <properties>
        <property name="Type" type="string" value="Dirt" />
      </properties>
    </tile>
    <tile id="200">
      <properties>
        <property name="Type" type="string" value="Grass" />
      </properties>
    </tile>
    <tile id="201">
      <properties>
        <property name="Type" type="string" value="Dirt" />
      </properties>
    </tile>
    <tile id="202">
      <properties>
        <property name="Type" type="string" value="Dirt" />
      </properties>
    </tile>
    <tile id="203">
      <properties>
        <property name="Type" type="string" value="Grass" />
      </properties>
    </tile>
    <tile id="204">
      <properties>
        <property name="Type" type="string" value="Grass" />
      </properties>
    </tile>
    <tile id="205">
      <properties>
        <property name="Type" type="string" value="Grass" />
      </properties>
    </tile>
    <tile id="206">
      <properties>
        <property name="Diggable" type="string" value="t" />
        <property name="Type" type="string" value="Dirt" />
      </properties>
    </tile>
    <tile id="207">
      <properties>
        <property name="Diggable" type="string" value="t" />
        <property name="Type" type="string" value="Dirt" />
      </properties>
    </tile>
    <tile id="225">
      <properties>
        <property name="Type" type="string" value="Dirt" />
      </properties>
    </tile>
    <tile id="226">
      <properties>
        <property name="Diggable" type="string" value="t" />
        <property name="Type" type="string" value="Dirt" />
      </properties>
    </tile>
    <tile id="227">
      <properties>
        <property name="Diggable" type="string" value="t" />
        <property name="Type" type="string" value="Dirt" />
      </properties>
    </tile>
    <tile id="228">
      <properties>
        <property name="Type" type="string" value="Dirt" />
      </properties>
    </tile>
    <tile id="229">
      <properties>
        <property name="Type" type="string" value="Grass" />
      </properties>
    </tile>
    <tile id="230">
      <properties>
        <property name="Type" type="string" value="Grass" />
      </properties>
    </tile>
    <tile id="231">
      <properties>
        <property name="Diggable" type="string" value="t" />
        <property name="Type" type="string" value="Dirt" />
      </properties>
    </tile>
    <tile id="250">
      <properties>
        <property name="Type" type="string" value="Grass" />
      </properties>
    </tile>
    <tile id="251">
      <properties>
        <property name="Type" type="string" value="Dirt" />
      </properties>
    </tile>
    <tile id="252">
      <properties>
        <property name="Type" type="string" value="Dirt" />
      </properties>
    </tile>
    <tile id="253">
      <properties>
        <property name="Type" type="string" value="Grass" />
      </properties>
    </tile>
    <tile id="254">
      <properties>
        <property name="Type" type="string" value="Grass" />
      </properties>
    </tile>
    <tile id="255">
      <properties>
        <property name="Type" type="string" value="Grass" />
      </properties>
    </tile>
    <tile id="256">
      <properties>
        <property name="Type" type="string" value="Grass" />
      </properties>
    </tile>
    <tile id="275">
      <properties>
        <property name="Spawnable" type="string" value="t" />
        <property name="Type" type="string" value="Grass" />
      </properties>
    </tile>
    <tile id="276">
      <properties>
        <property name="Spawnable" type="string" value="t" />
        <property name="Type" type="string" value="Grass" />
      </properties>
    </tile>
    <tile id="277">
      <properties>
        <property name="Spawnable" type="string" value="t" />
        <property name="Type" type="string" value="Grass" />
      </properties>
    </tile>
    <tile id="278">
      <properties>
        <property name="Spawnable" type="string" value="t" />
        <property name="Type" type="string" value="Grass" />
      </properties>
    </tile>
    <tile id="279">
      <properties>
        <property name="Spawnable" type="string" value="t" />
        <property name="Type" type="string" value="Grass" />
      </properties>
    </tile>
    <tile id="280">
      <properties>
        <property name="Spawnable" type="string" value="t" />
        <property name="Type" type="string" value="Grass" />
      </properties>
    </tile>
    <tile id="281">
      <properties>
        <property name="Spawnable" type="string" value="t" />
        <property name="Type" type="string" value="Grass" />
      </properties>
    </tile>
    <tile id="300">
      <properties>
        <property name="Spawnable" type="string" value="t" />
        <property name="Type" type="string" value="Grass" />
      </properties>
    </tile>
    <tile id="301">
      <properties>
        <property name="Spawnable" type="string" value="t" />
        <property name="Type" type="string" value="Grass" />
      </properties>
    </tile>
    <tile id="302">
      <properties>
        <property name="Spawnable" type="string" value="t" />
        <property name="Type" type="string" value="Grass" />
      </properties>
    </tile>
    <tile id="303">
      <properties>
        <property name="Spawnable" type="string" value="t" />
        <property name="Type" type="string" value="Grass" />
      </properties>
    </tile>
    <tile id="304">
      <properties>
        <property name="Spawnable" type="string" value="t" />
        <property name="Type" type="string" value="Grass" />
      </properties>
    </tile>
    <tile id="305">
      <properties>
        <property name="Spawnable" type="string" value="t" />
        <property name="Type" type="string" value="Grass" />
      </properties>
    </tile>
    <tile id="306">
      <properties>
        <property name="Spawnable" type="string" value="t" />
        <property name="Type" type="string" value="Grass" />
      </properties>
    </tile>
    <tile id="325">
      <properties>
        <property name="Spawnable" type="string" value="t" />
        <property name="Type" type="string" value="Grass" />
      </properties>
    </tile>
    <tile id="326">
      <properties>
        <property name="Spawnable" type="string" value="t" />
        <property name="Type" type="string" value="Grass" />
      </properties>
    </tile>
    <tile id="327">
      <properties>
        <property name="Spawnable" type="string" value="t" />
        <property name="Type" type="string" value="Grass" />
      </properties>
    </tile>
    <tile id="328">
      <properties>
        <property name="Spawnable" type="string" value="t" />
        <property name="Type" type="string" value="Grass" />
      </properties>
    </tile>
    <tile id="329">
      <properties>
        <property name="Spawnable" type="string" value="t" />
        <property name="Type" type="string" value="Grass" />
      </properties>
    </tile>
    <tile id="330">
      <properties>
        <property name="Spawnable" type="string" value="t" />
        <property name="Type" type="string" value="Grass" />
      </properties>
    </tile>
    <tile id="331">
      <properties>
        <property name="Spawnable" type="string" value="t" />
        <property name="Type" type="string" value="Grass" />
      </properties>
    </tile>
    <tile id="332">
      <properties>
        <property name="Spawnable" type="string" value="t" />
        <property name="Type" type="string" value="Grass" />
      </properties>
    </tile>
    <tile id="338">
      <properties>
        <property name="Type" type="string" value="Wood" />
      </properties>
    </tile>
    <tile id="339">
      <properties>
        <property name="Type" type="string" value="Wood" />
      </properties>
    </tile>
    <tile id="350">
      <properties>
        <property name="Spawnable" type="string" value="t" />
        <property name="Type" type="string" value="Grass" />
      </properties>
    </tile>
    <tile id="351">
      <properties>
        <property name="Spawnable" type="string" value="t" />
        <property name="Type" type="string" value="Grass" />
      </properties>
    </tile>
    <tile id="352">
      <properties>
        <property name="Spawnable" type="string" value="t" />
        <property name="Type" type="string" value="Grass" />
      </properties>
    </tile>
    <tile id="353">
      <properties>
        <property name="Spawnable" type="string" value="t" />
        <property name="Type" type="string" value="Grass" />
      </properties>
    </tile>
    <tile id="354">
      <properties>
        <property name="Spawnable" type="string" value="t" />
        <property name="Type" type="string" value="Grass" />
      </properties>
    </tile>
    <tile id="355">
      <properties>
        <property name="Spawnable" type="string" value="t" />
        <property name="Type" type="string" value="Grass" />
      </properties>
    </tile>
    <tile id="356">
      <properties>
        <property name="Spawnable" type="string" value="t" />
        <property name="Type" type="string" value="Grass" />
      </properties>
    </tile>
    <tile id="357">
      <properties>
        <property name="Spawnable" type="string" value="t" />
        <property name="Type" type="string" value="Grass" />
      </properties>
    </tile>
    <tile id="375">
      <properties>
        <property name="Spawnable" type="string" value="t" />
        <property name="Type" type="string" value="Grass" />
      </properties>
    </tile>
    <tile id="376">
      <properties>
        <property name="Spawnable" type="string" value="t" />
        <property name="Type" type="string" value="Grass" />
      </properties>
    </tile>
    <tile id="377">
      <properties>
        <property name="Spawnable" type="string" value="t" />
        <property name="Type" type="string" value="Grass" />
      </properties>
    </tile>
    <tile id="378">
      <properties>
        <property name="Spawnable" type="string" value="t" />
        <property name="Type" type="string" value="Grass" />
      </properties>
    </tile>
    <tile id="379">
      <properties>
        <property name="Spawnable" type="string" value="t" />
        <property name="Type" type="string" value="Grass" />
      </properties>
    </tile>
    <tile id="380">
      <properties>
        <property name="Spawnable" type="string" value="t" />
        <property name="Type" type="string" value="Grass" />
      </properties>
    </tile>
    <tile id="381">
      <properties>
        <property name="Spawnable" type="string" value="t" />
        <property name="Type" type="string" value="Grass" />
      </properties>
    </tile>
    <tile id="382">
      <properties>
        <property name="Spawnable" type="string" value="t" />
        <property name="Type" type="string" value="Grass" />
      </properties>
    </tile>
    <tile id="400">
      <properties>
        <property name="Spawnable" type="string" value="t" />
        <property name="Type" type="string" value="Grass" />
      </properties>
    </tile>
    <tile id="401">
      <properties>
        <property name="Spawnable" type="string" value="t" />
        <property name="Type" type="string" value="Grass" />
      </properties>
    </tile>
    <tile id="402">
      <properties>
        <property name="Spawnable" type="string" value="t" />
        <property name="Type" type="string" value="Grass" />
      </properties>
    </tile>
    <tile id="403">
      <properties>
        <property name="Spawnable" type="string" value="t" />
        <property name="Type" type="string" value="Grass" />
      </properties>
    </tile>
    <tile id="404">
      <properties>
        <property name="Spawnable" type="string" value="t" />
        <property name="Type" type="string" value="Grass" />
      </properties>
    </tile>
    <tile id="405">
      <properties>
        <property name="Spawnable" type="string" value="t" />
        <property name="Type" type="string" value="Grass" />
      </properties>
    </tile>
    <tile id="406">
      <properties>
        <property name="Spawnable" type="string" value="t" />
        <property name="Type" type="string" value="Grass" />
      </properties>
    </tile>
    <tile id="407">
      <properties>
        <property name="Spawnable" type="string" value="t" />
        <property name="Type" type="string" value="Grass" />
      </properties>
    </tile>
    <tile id="463">
      <properties>
        <property name="Diggable" type="string" value="t" />
        <property name="Type" type="string" value="Dirt" />
      </properties>
    </tile>
    <tile id="488">
      <properties>
        <property name="Diggable" type="string" value="t" />
        <property name="Type" type="string" value="Dirt" />
      </properties>
    </tile>
    <tile id="513">
      <properties>
        <property name="Diggable" type="string" value="t" />
        <property name="Type" type="string" value="Dirt" />
      </properties>
    </tile>
    <tile id="524">
      <properties>
        <property name="Type" type="string" value="Dirt" />
      </properties>
    </tile>
    <tile id="537">
      <properties>
        <property name="CanPlantTrees" type="string" value="T" />
        <property name="Type" type="string" value="Dirt" />
      </properties>
    </tile>
    <tile id="549">
      <properties>
        <property name="Type" type="string" value="Dirt" />
      </properties>
    </tile>
    <tile id="558">
      <properties>
        <property name="Diggable" type="string" value="t" />
        <property name="Type" type="string" value="Dirt" />
      </properties>
    </tile>
    <tile id="559">
      <animation>
        <frame tileid="559" duration="1000" />
        <frame tileid="1289" duration="1000" />
      </animation>
    </tile>
    <tile id="560">
      <properties>
        <property name="Diggable" type="string" value="t" />
        <property name="Type" type="string" value="Dirt" />
      </properties>
    </tile>
    <tile id="561">
      <properties>
        <property name="CanPlantTrees" type="string" value="T" />
        <property name="Type" type="string" value="Dirt" />
      </properties>
    </tile>
    <tile id="562">
      <properties>
        <property name="CanPlantTrees" type="string" value="T" />
        <property name="Type" type="string" value="Dirt" />
      </properties>
    </tile>
    <tile id="563">
      <properties>
        <property name="CanPlantTrees" type="string" value="T" />
        <property name="Type" type="string" value="Dirt" />
      </properties>
    </tile>
    <tile id="564">
      <properties>
        <property name="Diggable" type="string" value="t" />
        <property name="Type" type="string" value="Dirt" />
      </properties>
    </tile>
    <tile id="565">
      <properties>
        <property name="Type" type="string" value="Dirt" />
      </properties>
    </tile>
    <tile id="566">
      <properties>
        <property name="CanPlantTrees" type="string" value="T" />
        <property name="Type" type="string" value="Dirt" />
      </properties>
    </tile>
    <tile id="571">
      <properties>
        <property name="Type" type="string" value="Dirt" />
      </properties>
    </tile>
    <tile id="572">
      <properties>
        <property name="Type" type="string" value="Dirt" />
      </properties>
    </tile>
    <tile id="573">
      <properties>
        <property name="Type" type="string" value="Dirt" />
      </properties>
    </tile>
    <tile id="574">
      <properties>
        <property name="Type" type="string" value="Dirt" />
      </properties>
    </tile>
    <tile id="583">
      <properties>
        <property name="Diggable" type="string" value="t" />
        <property name="Type" type="string" value="Dirt" />
      </properties>
    </tile>
    <tile id="584">
      <animation>
        <frame tileid="584" duration="1000" />
        <frame tileid="1314" duration="1000" />
      </animation>
    </tile>
    <tile id="585">
      <properties>
        <property name="Diggable" type="string" value="t" />
        <property name="Type" type="string" value="Dirt" />
      </properties>
    </tile>
    <tile id="586">
      <properties>
        <property name="CanPlantTrees" type="string" value="T" />
        <property name="Type" type="string" value="Dirt" />
      </properties>
    </tile>
    <tile id="587">
      <properties>
        <property name="Diggable" type="string" value="t" />
        <property name="Type" type="string" value="Dirt" />
      </properties>
    </tile>
    <tile id="588">
      <properties>
        <property name="CanPlantTrees" type="string" value="T" />
        <property name="Type" type="string" value="Dirt" />
      </properties>
    </tile>
    <tile id="589">
      <properties>
        <property name="Diggable" type="string" value="t" />
        <property name="Type" type="string" value="Dirt" />
      </properties>
    </tile>
    <tile id="590">
      <properties>
        <property name="CanPlantTrees" type="string" value="T" />
        <property name="Type" type="string" value="Dirt" />
      </properties>
    </tile>
    <tile id="591">
      <properties>
        <property name="Type" type="string" value="Dirt" />
      </properties>
    </tile>
    <tile id="596">
      <properties>
        <property name="Type" type="string" value="Dirt" />
      </properties>
    </tile>
    <tile id="597">
      <properties>
        <property name="Type" type="string" value="Dirt" />
      </properties>
    </tile>
    <tile id="598">
      <properties>
        <property name="Type" type="string" value="Stone" />
      </properties>
    </tile>
    <tile id="599">
      <properties>
        <property name="Type" type="string" value="Stone" />
      </properties>
    </tile>
    <tile id="603">
      <animation>
        <frame tileid="603" duration="1000" />
        <frame tileid="1287" duration="1000" />
      </animation>
    </tile>
    <tile id="604">
      <animation>
        <frame tileid="604" duration="1000" />
        <frame tileid="1288" duration="1000" />
      </animation>
    </tile>
    <tile id="606">
      <properties>
        <property name="Diggable" type="string" value="t" />
        <property name="Type" type="string" value="Dirt" />
      </properties>
    </tile>
    <tile id="607">
      <properties>
        <property name="Diggable" type="string" value="t" />
        <property name="Type" type="string" value="Dirt" />
      </properties>
    </tile>
    <tile id="608">
      <properties>
        <property name="Diggable" type="string" value="t" />
        <property name="Type" type="string" value="Dirt" />
      </properties>
    </tile>
    <tile id="609">
      <animation>
        <frame tileid="609" duration="1000" />
        <frame tileid="1285" duration="1000" />
      </animation>
    </tile>
    <tile id="610">
      <properties>
        <property name="Diggable" type="string" value="t" />
        <property name="Type" type="string" value="Dirt" />
      </properties>
    </tile>
    <tile id="611">
      <properties>
        <property name="CanPlantTrees" type="string" value="T" />
        <property name="Type" type="string" value="Dirt" />
      </properties>
    </tile>
    <tile id="612">
      <properties>
        <property name="CanPlantTrees" type="string" value="T" />
        <property name="Type" type="string" value="Dirt" />
      </properties>
    </tile>
    <tile id="613">
      <properties>
        <property name="CanPlantTrees" type="string" value="T" />
        <property name="Type" type="string" value="Dirt" />
      </properties>
    </tile>
    <tile id="614">
      <properties>
        <property name="Diggable" type="string" value="t" />
        <property name="Type" type="string" value="Dirt" />
      </properties>
    </tile>
    <tile id="615">
      <properties>
        <property name="Type" type="string" value="Dirt" />
      </properties>
    </tile>
    <tile id="616">
      <properties>
        <property name="Type" type="string" value="Dirt" />
      </properties>
    </tile>
    <tile id="617">
      <properties>
        <property name="Type" type="string" value="Dirt" />
      </properties>
    </tile>
    <tile id="618">
      <properties>
        <property name="Type" type="string" value="Dirt" />
      </properties>
    </tile>
    <tile id="621">
      <properties>
        <property name="Type" type="string" value="Dirt" />
      </properties>
    </tile>
    <tile id="622">
      <properties>
        <property name="Type" type="string" value="Dirt" />
      </properties>
    </tile>
    <tile id="623">
      <properties>
        <property name="Type" type="string" value="Stone" />
      </properties>
    </tile>
    <tile id="630">
      <properties>
        <property name="Diggable" type="string" value="t" />
        <property name="Type" type="string" value="Dirt" />
      </properties>
    </tile>
    <tile id="631">
      <properties>
        <property name="Type" type="string" value="Dirt" />
      </properties>
    </tile>
    <tile id="632">
      <properties>
        <property name="Type" type="string" value="Dirt" />
      </properties>
    </tile>
    <tile id="633">
      <properties>
        <property name="Type" type="string" value="Grass" />
      </properties>
    </tile>
    <tile id="634">
      <properties>
        <property name="Type" type="string" value="Grass" />
      </properties>
    </tile>
    <tile id="635">
      <properties>
        <property name="Type" type="string" value="Dirt" />
      </properties>
    </tile>
    <tile id="636">
      <properties>
        <property name="Type" type="string" value="Dirt" />
      </properties>
    </tile>
    <tile id="637">
      <animation>
        <frame tileid="637" duration="200" />
        <frame tileid="638" duration="200" />
        <frame tileid="639" duration="200" />
        <frame tileid="640" duration="200" />
        <frame tileid="641" duration="200" />
        <frame tileid="642" duration="200" />
        <frame tileid="643" duration="200" />
        <frame tileid="644" duration="200" />
      </animation>
    </tile>
    <tile id="645">
      <properties>
        <property name="Type" type="string" value="Dirt" />
      </properties>
    </tile>
    <tile id="654">
      <properties>
        <property name="Type" type="string" value="Grass" />
      </properties>
    </tile>
    <tile id="655">
      <properties>
        <property name="Type" type="string" value="Dirt" />
      </properties>
    </tile>
    <tile id="657">
      <properties>
        <property name="Type" type="string" value="Grass" />
      </properties>
    </tile>
    <tile id="658">
      <properties>
        <property name="Type" type="string" value="Grass" />
      </properties>
    </tile>
    <tile id="659">
      <properties>
        <property name="Type" type="string" value="Grass" />
      </properties>
    </tile>
    <tile id="670">
      <properties>
        <property name="Type" type="string" value="Dirt" />
      </properties>
    </tile>
    <tile id="679">
      <properties>
        <property name="Type" type="string" value="Dirt" />
      </properties>
    </tile>
    <tile id="680">
      <properties>
        <property name="Diggable" type="string" value="t" />
        <property name="Type" type="string" value="Dirt" />
      </properties>
    </tile>
    <tile id="681">
      <properties>
        <property name="Diggable" type="string" value="t" />
        <property name="Type" type="string" value="Dirt" />
      </properties>
    </tile>
    <tile id="682">
      <properties>
        <property name="Type" type="string" value="Dirt" />
      </properties>
    </tile>
    <tile id="683">
      <properties>
        <property name="Type" type="string" value="Grass" />
      </properties>
    </tile>
    <tile id="684">
      <properties>
        <property name="Type" type="string" value="Grass" />
      </properties>
    </tile>
    <tile id="685">
      <properties>
        <property name="Diggable" type="string" value="t" />
        <property name="Type" type="string" value="Dirt" />
      </properties>
    </tile>
    <tile id="704">
      <properties>
        <property name="Type" type="string" value="Grass" />
      </properties>
    </tile>
    <tile id="705">
      <properties>
        <property name="Type" type="string" value="Dirt" />
      </properties>
    </tile>
    <tile id="707">
      <properties>
        <property name="Type" type="string" value="Grass" />
      </properties>
    </tile>
    <tile id="708">
      <animation>
        <frame tileid="708" duration="1000" />
        <frame tileid="1234" duration="1000" />
      </animation>
    </tile>
    <tile id="709">
      <animation>
        <frame tileid="709" duration="1000" />
        <frame tileid="1235" duration="1000" />
      </animation>
    </tile>
    <tile id="710">
      <animation>
        <frame tileid="710" duration="1000" />
        <frame tileid="1236" duration="1000" />
      </animation>
    </tile>
    <tile id="720">
      <properties>
        <property name="Type" type="string" value="Dirt" />
      </properties>
    </tile>
    <tile id="733">
      <animation>
        <frame tileid="733" duration="1000" />
        <frame tileid="1259" duration="1000" />
      </animation>
    </tile>
    <tile id="734">
      <animation>
        <frame tileid="734" duration="1000" />
        <frame tileid="1260" duration="1000" />
      </animation>
    </tile>
    <tile id="735">
      <animation>
        <frame tileid="735" duration="1000" />
        <frame tileid="1261" duration="1000" />
      </animation>
    </tile>
    <tile id="745">
      <properties>
        <property name="Type" type="string" value="Dirt" />
      </properties>
    </tile>
    <tile id="756">
      <animation>
        <frame tileid="756" duration="1000" />
        <frame tileid="1282" duration="1000" />
      </animation>
    </tile>
    <tile id="757">
      <animation>
        <frame tileid="757" duration="1000" />
        <frame tileid="1283" duration="1000" />
      </animation>
    </tile>
    <tile id="758">
      <animation>
        <frame tileid="758" duration="1000" />
        <frame tileid="1284" duration="1000" />
      </animation>
    </tile>
    <tile id="760">
      <animation>
        <frame tileid="760" duration="1000" />
        <frame tileid="1286" duration="1000" />
      </animation>
    </tile>
    <tile id="779">
      <properties>
        <property name="Passable" type="string" value="T" />
        <property name="Type" type="string" value="Wood" />
      </properties>
    </tile>
    <tile id="780">
      <properties>
        <property name="Passable" type="string" value="T" />
        <property name="Type" type="string" value="Wood" />
      </properties>
    </tile>
    <tile id="781">
      <properties>
        <property name="Passable" type="string" value="T" />
        <property name="Type" type="string" value="Wood" />
      </properties>
    </tile>
    <tile id="782">
      <properties>
        <property name="Passable" type="string" value="T" />
        <property name="Type" type="string" value="Wood" />
      </properties>
    </tile>
    <tile id="783">
      <animation>
        <frame tileid="783" duration="1000" />
        <frame tileid="1309" duration="1000" />
      </animation>
    </tile>
    <tile id="785">
      <animation>
        <frame tileid="785" duration="1000" />
        <frame tileid="1311" duration="1000" />
      </animation>
    </tile>
    <tile id="809">
      <properties>
        <property name="Passable" type="string" value="T" />
        <property name="Type" type="string" value="Wood" />
      </properties>
    </tile>
    <tile id="812">
      <properties>
        <property name="Type" type="string" value="Stone" />
      </properties>
    </tile>
    <tile id="813">
      <properties>
        <property name="Type" type="string" value="Stone" />
      </properties>
    </tile>
    <tile id="817">
      <animation>
        <frame tileid="817" duration="30" />
        <frame tileid="746" duration="30" />
        <frame tileid="771" duration="30" />
      </animation>
    </tile>
    <tile id="834">
      <properties>
        <property name="Passable" type="string" value="T" />
        <property name="Type" type="string" value="Wood" />
      </properties>
    </tile>
    <tile id="838">
      <properties>
        <property name="Type" type="string" value="Stone" />
      </properties>
    </tile>
    <tile id="859">
      <properties>
        <property name="Passable" type="string" value="T" />
        <property name="Type" type="string" value="Wood" />
      </properties>
    </tile>
    <tile id="860">
      <properties>
        <property name="Passable" type="string" value="T" />
        <property name="Type" type="string" value="Wood" />
      </properties>
    </tile>
    <tile id="884">
      <properties>
        <property name="Passable" type="string" value="T" />
        <property name="Type" type="string" value="Wood" />
      </properties>
    </tile>
    <tile id="885">
      <properties>
        <property name="Passable" type="string" value="T" />
        <property name="Type" type="string" value="Wood" />
      </properties>
    </tile>
    <tile id="910">
      <properties>
        <property name="Passable" type="string" value="T" />
        <property name="Type" type="string" value="Wood" />
      </properties>
    </tile>
    <tile id="1186">
      <properties>
        <property name="Water" type="string" value="T" />
      </properties>
    </tile>
    <tile id="1187">
      <properties>
        <property name="Water" type="string" value="T" />
      </properties>
    </tile>
    <tile id="1188">
      <properties>
        <property name="Water" type="string" value="T" />
      </properties>
    </tile>
    <tile id="1211">
      <properties>
        <property name="Water" type="string" value="T" />
      </properties>
    </tile>
    <tile id="1212">
      <properties>
        <property name="Water" type="string" value="T" />
      </properties>
    </tile>
    <tile id="1213">
      <properties>
        <property name="Water" type="string" value="T" />
      </properties>
    </tile>
    <tile id="1227">
      <properties>
        <property name="Water" type="string" value="T" />
      </properties>
    </tile>
    <tile id="1228">
      <properties>
        <property name="Water" type="string" value="T" />
      </properties>
    </tile>
    <tile id="1229">
      <properties>
        <property name="Water" type="string" value="T" />
      </properties>
    </tile>
    <tile id="1230">
      <properties>
        <property name="Water" type="string" value="T" />
      </properties>
    </tile>
    <tile id="1231">
      <properties>
        <property name="Water" type="string" value="T" />
      </properties>
    </tile>
    <tile id="1237">
      <properties>
        <property name="Water" type="string" value="T" />
      </properties>
    </tile>
    <tile id="1238">
      <properties>
        <property name="Water" type="string" value="T" />
      </properties>
    </tile>
    <tile id="1239">
      <properties>
        <property name="Water" type="string" value="T" />
      </properties>
    </tile>
    <tile id="1240">
      <properties>
        <property name="Water" type="string" value="T" />
      </properties>
    </tile>
    <tile id="1241">
      <properties>
        <property name="Water" type="string" value="T" />
      </properties>
    </tile>
    <tile id="1242">
      <properties>
        <property name="Water" type="string" value="T" />
      </properties>
    </tile>
    <tile id="1243">
      <properties>
        <property name="Water" type="string" value="T" />
      </properties>
    </tile>
    <tile id="1244">
      <properties>
        <property name="Water" type="string" value="T" />
      </properties>
    </tile>
    <tile id="1245">
      <properties>
        <property name="Water" type="string" value="T" />
      </properties>
    </tile>
    <tile id="1246">
      <properties>
        <property name="Water" type="string" value="T" />
      </properties>
    </tile>
    <tile id="1247">
      <properties>
        <property name="Water" type="string" value="T" />
      </properties>
    </tile>
    <tile id="1248">
      <properties>
        <property name="Water" type="string" value="T" />
      </properties>
    </tile>
    <tile id="1249">
      <properties>
        <property name="Water" type="string" value="T" />
      </properties>
    </tile>
    <tile id="1252">
      <properties>
        <property name="Water" type="string" value="T" />
      </properties>
    </tile>
    <tile id="1253">
      <properties>
        <property name="Water" type="string" value="T" />
      </properties>
    </tile>
    <tile id="1254">
      <properties>
        <property name="Water" type="string" value="T" />
      </properties>
    </tile>
    <tile id="1255">
      <properties>
        <property name="Water" type="string" value="T" />
      </properties>
    </tile>
    <tile id="1256">
      <properties>
        <property name="Water" type="string" value="T" />
      </properties>
    </tile>
    <tile id="1263">
      <properties>
        <property name="Water" type="string" value="T" />
      </properties>
    </tile>
    <tile id="1264">
      <properties>
        <property name="Water" type="string" value="T" />
      </properties>
    </tile>
    <tile id="1265">
      <properties>
        <property name="Water" type="string" value="T" />
      </properties>
    </tile>
    <tile id="1266">
      <properties>
        <property name="Water" type="string" value="T" />
      </properties>
    </tile>
    <tile id="1267">
      <properties>
        <property name="Water" type="string" value="T" />
      </properties>
    </tile>
    <tile id="1268">
      <properties>
        <property name="Water" type="string" value="T" />
      </properties>
    </tile>
    <tile id="1269">
      <properties>
        <property name="Water" type="string" value="T" />
      </properties>
    </tile>
    <tile id="1270">
      <properties>
        <property name="Water" type="string" value="T" />
      </properties>
    </tile>
    <tile id="1271">
      <properties>
        <property name="Water" type="string" value="T" />
      </properties>
    </tile>
    <tile id="1272">
      <properties>
        <property name="Water" type="string" value="T" />
      </properties>
    </tile>
    <tile id="1273">
      <properties>
        <property name="Water" type="string" value="T" />
      </properties>
    </tile>
    <tile id="1274">
      <properties>
        <property name="Water" type="string" value="T" />
      </properties>
    </tile>
    <tile id="1277">
      <properties>
        <property name="Water" type="string" value="T" />
      </properties>
    </tile>
    <tile id="1278">
      <properties>
        <property name="Water" type="string" value="T" />
      </properties>
    </tile>
    <tile id="1279">
      <properties>
        <property name="Water" type="string" value="T" />
      </properties>
    </tile>
    <tile id="1280">
      <properties>
        <property name="Water" type="string" value="T" />
      </properties>
    </tile>
    <tile id="1281">
      <properties>
        <property name="Water" type="string" value="T" />
      </properties>
    </tile>
    <tile id="1293">
      <animation>
        <frame tileid="1293" duration="400" />
        <frame tileid="1294" duration="400" />
        <frame tileid="1295" duration="400" />
        <frame tileid="1296" duration="400" />
      </animation>
    </tile>
    <tile id="1297">
      <properties>
        <property name="Water" type="string" value="T" />
      </properties>
    </tile>
    <tile id="1298">
      <properties>
        <property name="Water" type="string" value="T" />
      </properties>
    </tile>
    <tile id="1299">
      <properties>
        <property name="Water" type="string" value="T" />
      </properties>
    </tile>
    <tile id="1302">
      <properties>
        <property name="Water" type="string" value="T" />
      </properties>
    </tile>
    <tile id="1303">
      <properties>
        <property name="Water" type="string" value="T" />
      </properties>
    </tile>
    <tile id="1304">
      <properties>
        <property name="Water" type="string" value="T" />
      </properties>
    </tile>
    <tile id="1305">
      <properties>
        <property name="Water" type="string" value="T" />
      </properties>
    </tile>
    <tile id="1306">
      <properties>
        <property name="Water" type="string" value="T" />
      </properties>
    </tile>
    <tile id="1318">
      <animation>
        <frame tileid="1318" duration="450" />
        <frame tileid="1319" duration="450" />
        <frame tileid="1320" duration="450" />
        <frame tileid="1321" duration="450" />
      </animation>
    </tile>
    <tile id="1322">
      <properties>
        <property name="Water" type="string" value="T" />
      </properties>
    </tile>
    <tile id="1323">
      <properties>
        <property name="Water" type="string" value="T" />
      </properties>
    </tile>
    <tile id="1324">
      <properties>
        <property name="Water" type="string" value="T" />
      </properties>
    </tile>
    <tile id="1775">
      <properties>
        <property name="Type" type="string" value="Wood" />
      </properties>
    </tile>
    <tile id="1776">
      <properties>
        <property name="Type" type="string" value="Wood" />
      </properties>
    </tile>
    <tile id="1777">
      <properties>
        <property name="Type" type="string" value="Wood" />
      </properties>
    </tile>
    <tile id="1778">
      <properties>
        <property name="Type" type="string" value="Wood" />
      </properties>
    </tile>
    <tile id="1779">
      <properties>
        <property name="Type" type="string" value="Wood" />
      </properties>
    </tile>
    <tile id="1784">
      <properties>
        <property name="Type" type="string" value="Wood" />
      </properties>
    </tile>
    <tile id="1785">
      <properties>
        <property name="Type" type="string" value="Wood" />
      </properties>
    </tile>
    <tile id="1786">
      <properties>
        <property name="Type" type="string" value="Wood" />
      </properties>
    </tile>
    <tile id="1787">
      <properties>
        <property name="Type" type="string" value="Wood" />
      </properties>
    </tile>
    <tile id="1788">
      <properties>
        <property name="Type" type="string" value="Wood" />
      </properties>
    </tile>
    <tile id="1789">
      <properties>
        <property name="Type" type="string" value="Wood" />
      </properties>
    </tile>
    <tile id="1790">
      <properties>
        <property name="Type" type="string" value="Wood" />
      </properties>
    </tile>
    <tile id="1791">
      <properties>
        <property name="Type" type="string" value="Wood" />
      </properties>
    </tile>
    <tile id="1800">
      <properties>
        <property name="Type" type="string" value="Wood" />
      </properties>
    </tile>
    <tile id="1801">
      <properties>
        <property name="Type" type="string" value="Wood" />
      </properties>
    </tile>
    <tile id="1802">
      <properties>
        <property name="Type" type="string" value="Wood" />
      </properties>
    </tile>
    <tile id="1803">
      <properties>
        <property name="Type" type="string" value="Wood" />
      </properties>
    </tile>
    <tile id="1804">
      <properties>
        <property name="Type" type="string" value="Wood" />
      </properties>
    </tile>
    <tile id="1809">
      <properties>
        <property name="Type" type="string" value="Wood" />
      </properties>
    </tile>
    <tile id="1810">
      <properties>
        <property name="Type" type="string" value="Wood" />
      </properties>
    </tile>
    <tile id="1811">
      <properties>
        <property name="Type" type="string" value="Wood" />
      </properties>
    </tile>
    <tile id="1812">
      <properties>
        <property name="Type" type="string" value="Wood" />
      </properties>
    </tile>
    <tile id="1813">
      <properties>
        <property name="Type" type="string" value="Wood" />
      </properties>
    </tile>
    <tile id="1814">
      <properties>
        <property name="Type" type="string" value="Wood" />
      </properties>
    </tile>
    <tile id="1815">
      <properties>
        <property name="Type" type="string" value="Wood" />
      </properties>
    </tile>
    <tile id="1816">
      <properties>
        <property name="Type" type="string" value="Wood" />
      </properties>
    </tile>
    <tile id="1818">
      <properties>
        <property name="Water" type="string" value="T" />
      </properties>
    </tile>
    <tile id="1819">
      <properties>
        <property name="Water" type="string" value="T" />
      </properties>
    </tile>
    <tile id="1843">
      <properties>
        <property name="Water" type="string" value="T" />
      </properties>
    </tile>
    <tile id="1844">
      <properties>
        <property name="Water" type="string" value="T" />
      </properties>
    </tile>
    <tile id="1868">
      <properties>
        <property name="Water" type="string" value="T" />
      </properties>
    </tile>
    <tile id="1869">
      <properties>
        <property name="Water" type="string" value="T" />
      </properties>
    </tile>
  </tileset>
  <tileset firstgid="1976" name="Paths" tilewidth="16" tileheight="16" tilecount="64" columns="4">
    <image source="paths" width="64" height="256" />
    <tile id="35">
      <properties>
        <property name="GreenRain" type="string" value="asdf" />
      </properties>
    </tile>
  </tileset>
  <tileset firstgid="2040" name="untitled tile sheet2" tilewidth="16" tileheight="16" tilecount="1120" columns="16">
    <image source="spring_outdoorsTileSheet2" width="256" height="1120" />
    <tile id="728">
      <animation>
        <frame tileid="728" duration="1000" />
        <frame tileid="732" duration="1000" />
      </animation>
    </tile>
    <tile id="730">
      <animation>
        <frame tileid="730" duration="1000" />
        <frame tileid="734" duration="1000" />
      </animation>
    </tile>
    <tile id="739">
      <properties>
        <property name="Type" type="string" value="Stone" />
      </properties>
    </tile>
    <tile id="744">
      <animation>
        <frame tileid="744" duration="1000" />
        <frame tileid="748" duration="1000" />
      </animation>
    </tile>
    <tile id="746">
      <animation>
        <frame tileid="746" duration="1000" />
        <frame tileid="750" duration="1000" />
      </animation>
    </tile>
    <tile id="760">
      <animation>
        <frame tileid="760" duration="1000" />
        <frame tileid="764" duration="1000" />
      </animation>
    </tile>
    <tile id="762">
      <animation>
        <frame tileid="762" duration="1000" />
        <frame tileid="766" duration="1000" />
      </animation>
    </tile>
    <tile id="770">
      <properties>
        <property name="Type" type="string" value="Grass" />
      </properties>
    </tile>
    <tile id="771">
      <properties>
        <property name="Type" type="string" value="Grass" />
      </properties>
    </tile>
    <tile id="776">
      <animation>
        <frame tileid="776" duration="1000" />
        <frame tileid="780" duration="1000" />
      </animation>
    </tile>
    <tile id="778">
      <animation>
        <frame tileid="778" duration="1000" />
        <frame tileid="782" duration="1000" />
      </animation>
    </tile>
    <tile id="786">
      <properties>
        <property name="Type" type="string" value="Grass" />
      </properties>
    </tile>
    <tile id="787">
      <properties>
        <property name="Type" type="string" value="Grass" />
      </properties>
    </tile>
    <tile id="792">
      <animation>
        <frame tileid="792" duration="1000" />
        <frame tileid="796" duration="1000" />
      </animation>
    </tile>
    <tile id="794">
      <animation>
        <frame tileid="794" duration="1000" />
        <frame tileid="798" duration="1000" />
      </animation>
    </tile>
    <tile id="802">
      <properties>
        <property name="Type" type="string" value="Grass" />
      </properties>
    </tile>
    <tile id="803">
      <properties>
        <property name="Type" type="string" value="Grass" />
      </properties>
    </tile>
    <tile id="808">
      <animation>
        <frame tileid="808" duration="1000" />
        <frame tileid="812" duration="1000" />
      </animation>
    </tile>
    <tile id="810">
      <animation>
        <frame tileid="810" duration="1000" />
        <frame tileid="814" duration="1000" />
      </animation>
    </tile>
    <tile id="816">
      <properties>
        <property name="Water" type="string" value="T" />
      </properties>
    </tile>
    <tile id="817">
      <properties>
        <property name="Water" type="string" value="T" />
      </properties>
    </tile>
    <tile id="820">
      <properties>
        <property name="Water" type="string" value="T" />
      </properties>
    </tile>
    <tile id="821">
      <properties>
        <property name="Water" type="string" value="T" />
      </properties>
    </tile>
    <tile id="822">
      <properties>
        <property name="Water" type="string" value="T" />
      </properties>
    </tile>
    <tile id="832">
      <properties>
        <property name="Water" type="string" value="T" />
      </properties>
    </tile>
    <tile id="833">
      <properties>
        <property name="Water" type="string" value="T" />
      </properties>
    </tile>
    <tile id="834">
      <properties>
        <property name="Water" type="string" value="T" />
      </properties>
    </tile>
    <tile id="835">
      <properties>
        <property name="Water" type="string" value="T" />
      </properties>
    </tile>
    <tile id="836">
      <properties>
        <property name="Water" type="string" value="T" />
      </properties>
    </tile>
    <tile id="837">
      <properties>
        <property name="Water" type="string" value="T" />
      </properties>
    </tile>
    <tile id="838">
      <properties>
        <property name="Water" type="string" value="T" />
      </properties>
    </tile>
    <tile id="840">
      <animation>
        <frame tileid="840" duration="1000" />
        <frame tileid="844" duration="1000" />
      </animation>
    </tile>
    <tile id="841">
      <animation>
        <frame tileid="841" duration="1000" />
        <frame tileid="845" duration="1000" />
      </animation>
    </tile>
    <tile id="848">
      <properties>
        <property name="Water" type="string" value="T" />
      </properties>
    </tile>
    <tile id="849">
      <properties>
        <property name="Water" type="string" value="T" />
      </properties>
    </tile>
    <tile id="850">
      <properties>
        <property name="Water" type="string" value="T" />
      </properties>
    </tile>
    <tile id="851">
      <properties>
        <property name="Water" type="string" value="T" />
      </properties>
    </tile>
    <tile id="852">
      <properties>
        <property name="Water" type="string" value="T" />
      </properties>
    </tile>
    <tile id="853">
      <properties>
        <property name="Water" type="string" value="T" />
      </properties>
    </tile>
    <tile id="854">
      <properties>
        <property name="Water" type="string" value="T" />
      </properties>
    </tile>
    <tile id="856">
      <animation>
        <frame tileid="856" duration="1000" />
        <frame tileid="860" duration="1000" />
      </animation>
    </tile>
    <tile id="864">
      <properties>
        <property name="Water" type="string" value="T" />
      </properties>
    </tile>
    <tile id="865">
      <properties>
        <property name="Water" type="string" value="T" />
      </properties>
    </tile>
    <tile id="866">
      <properties>
        <property name="Water" type="string" value="T" />
      </properties>
    </tile>
    <tile id="867">
      <properties>
        <property name="Water" type="string" value="T" />
      </properties>
    </tile>
    <tile id="868">
      <properties>
        <property name="Water" type="string" value="T" />
      </properties>
    </tile>
    <tile id="869">
      <properties>
        <property name="Water" type="string" value="T" />
      </properties>
    </tile>
    <tile id="870">
      <properties>
        <property name="Water" type="string" value="T" />
      </properties>
    </tile>
    <tile id="880">
      <properties>
        <property name="Water" type="string" value="T" />
      </properties>
    </tile>
    <tile id="881">
      <properties>
        <property name="Water" type="string" value="T" />
      </properties>
    </tile>
    <tile id="882">
      <properties>
        <property name="Water" type="string" value="T" />
      </properties>
    </tile>
    <tile id="883">
      <properties>
        <property name="Water" type="string" value="T" />
      </properties>
    </tile>
    <tile id="901">
      <animation>
        <frame tileid="901" duration="1000" />
        <frame tileid="933" duration="1000" />
      </animation>
    </tile>
    <tile id="909">
      <animation>
        <frame tileid="909" duration="1000" />
        <frame tileid="941" duration="1000" />
      </animation>
    </tile>
    <tile id="916">
      <animation>
        <frame tileid="916" duration="1000" />
        <frame tileid="948" duration="1000" />
      </animation>
    </tile>
    <tile id="917">
      <animation>
        <frame tileid="917" duration="1000" />
        <frame tileid="949" duration="1000" />
      </animation>
    </tile>
    <tile id="918">
      <animation>
        <frame tileid="918" duration="1000" />
        <frame tileid="919" duration="1000" />
      </animation>
    </tile>
    <tile id="924">
      <animation>
        <frame tileid="924" duration="1000" />
        <frame tileid="956" duration="1000" />
      </animation>
    </tile>
    <tile id="925">
      <animation>
        <frame tileid="925" duration="1000" />
        <frame tileid="957" duration="1000" />
      </animation>
    </tile>
    <tile id="934">
      <animation>
        <frame tileid="934" duration="1000" />
        <frame tileid="935" duration="1000" />
      </animation>
    </tile>
    <tile id="964">
      <animation>
        <frame tileid="964" duration="1000" />
        <frame tileid="996" duration="1000" />
      </animation>
    </tile>
    <tile id="980">
      <animation>
        <frame tileid="980" duration="1000" />
        <frame tileid="1012" duration="1000" />
      </animation>
    </tile>
    <tile id="982">
      <animation>
        <frame tileid="982" duration="1000" />
        <frame tileid="983" duration="1000" />
      </animation>
    </tile>
    <tile id="990">
      <animation>
        <frame tileid="990" duration="1000" />
        <frame tileid="991" duration="1000" />
      </animation>
    </tile>
    <tile id="1063">
      <animation>
        <frame tileid="1063" duration="1000" />
        <frame tileid="1062" duration="1000" />
      </animation>
    </tile>
  </tileset>
  <tileset firstgid="3160" name="v16_Shadows" tilewidth="16" tileheight="16" tilecount="475" columns="19">
    <image source="spring_Shadows" width="304" height="400" />
  </tileset>
  <tileset firstgid="3635" name="v16_Waterfalls" tilewidth="16" tileheight="16" tilecount="900" columns="36">
    <image source="spring_Waterfalls" width="576" height="400" />
    <tile id="1">
      <animation>
        <frame tileid="1" duration="100" />
        <frame tileid="5" duration="100" />
        <frame tileid="9" duration="100" />
        <frame tileid="13" duration="100" />
        <frame tileid="17" duration="100" />
        <frame tileid="21" duration="100" />
        <frame tileid="25" duration="100" />
        <frame tileid="29" duration="100" />
      </animation>
    </tile>
    <tile id="2">
      <animation>
        <frame tileid="2" duration="100" />
        <frame tileid="6" duration="100" />
        <frame tileid="10" duration="100" />
        <frame tileid="14" duration="100" />
        <frame tileid="18" duration="100" />
        <frame tileid="22" duration="100" />
        <frame tileid="26" duration="100" />
        <frame tileid="30" duration="100" />
      </animation>
    </tile>
    <tile id="37">
      <animation>
        <frame tileid="37" duration="100" />
        <frame tileid="41" duration="100" />
        <frame tileid="45" duration="100" />
        <frame tileid="49" duration="100" />
        <frame tileid="53" duration="100" />
        <frame tileid="57" duration="100" />
        <frame tileid="61" duration="100" />
        <frame tileid="65" duration="100" />
      </animation>
    </tile>
    <tile id="38">
      <animation>
        <frame tileid="38" duration="100" />
        <frame tileid="42" duration="100" />
        <frame tileid="46" duration="100" />
        <frame tileid="50" duration="100" />
        <frame tileid="54" duration="100" />
        <frame tileid="58" duration="100" />
        <frame tileid="62" duration="100" />
        <frame tileid="66" duration="100" />
      </animation>
    </tile>
    <tile id="72">
      <animation>
        <frame tileid="72" duration="100" />
        <frame tileid="76" duration="100" />
        <frame tileid="80" duration="100" />
        <frame tileid="84" duration="100" />
        <frame tileid="88" duration="100" />
        <frame tileid="92" duration="100" />
        <frame tileid="96" duration="100" />
        <frame tileid="100" duration="100" />
      </animation>
    </tile>
    <tile id="73">
      <animation>
        <frame tileid="73" duration="100" />
        <frame tileid="77" duration="100" />
        <frame tileid="81" duration="100" />
        <frame tileid="85" duration="100" />
        <frame tileid="89" duration="100" />
        <frame tileid="93" duration="100" />
        <frame tileid="97" duration="100" />
        <frame tileid="101" duration="100" />
      </animation>
    </tile>
    <tile id="74">
      <animation>
        <frame tileid="74" duration="100" />
        <frame tileid="78" duration="100" />
        <frame tileid="82" duration="100" />
        <frame tileid="86" duration="100" />
        <frame tileid="90" duration="100" />
        <frame tileid="94" duration="100" />
        <frame tileid="98" duration="100" />
        <frame tileid="102" duration="100" />
      </animation>
    </tile>
    <tile id="75">
      <animation>
        <frame tileid="75" duration="100" />
        <frame tileid="79" duration="100" />
        <frame tileid="83" duration="100" />
        <frame tileid="87" duration="100" />
        <frame tileid="91" duration="100" />
        <frame tileid="95" duration="100" />
        <frame tileid="99" duration="100" />
        <frame tileid="103" duration="100" />
      </animation>
    </tile>
    <tile id="108">
      <animation>
        <frame tileid="108" duration="100" />
        <frame tileid="112" duration="100" />
        <frame tileid="116" duration="100" />
        <frame tileid="120" duration="100" />
        <frame tileid="124" duration="100" />
        <frame tileid="128" duration="100" />
        <frame tileid="132" duration="100" />
        <frame tileid="136" duration="100" />
      </animation>
    </tile>
    <tile id="109">
      <animation>
        <frame tileid="109" duration="100" />
        <frame tileid="113" duration="100" />
        <frame tileid="117" duration="100" />
        <frame tileid="121" duration="100" />
        <frame tileid="125" duration="100" />
        <frame tileid="129" duration="100" />
        <frame tileid="133" duration="100" />
        <frame tileid="137" duration="100" />
      </animation>
    </tile>
    <tile id="110">
      <animation>
        <frame tileid="110" duration="100" />
        <frame tileid="114" duration="100" />
        <frame tileid="118" duration="100" />
        <frame tileid="122" duration="100" />
        <frame tileid="126" duration="100" />
        <frame tileid="130" duration="100" />
        <frame tileid="134" duration="100" />
        <frame tileid="138" duration="100" />
      </animation>
    </tile>
    <tile id="111">
      <animation>
        <frame tileid="111" duration="100" />
        <frame tileid="115" duration="100" />
        <frame tileid="119" duration="100" />
        <frame tileid="123" duration="100" />
        <frame tileid="127" duration="100" />
        <frame tileid="131" duration="100" />
        <frame tileid="135" duration="100" />
        <frame tileid="139" duration="100" />
      </animation>
    </tile>
  </tileset>
  <layer id="1" name="Back" width="30" height="30" opacity="1" offsetx="0" offsety="0">
    <properties />
    <data encoding="csv">
176,176,376,377,378,176,346,538,538,538,538,538,538,538,538,538,538,538,538,538,538,538,538,538,538,538,538,538,538,518,
176,176,176,176,176,176,538,538,538,538,538,538,538,538,538,538,538,538,538,538,538,538,579,538,538,538,538,538,538,538,
176,176,176,176,176,151,538,538,538,538,538,538,538,538,538,538,538,538,538,538,538,538,579,538,538,538,538,538,538,538,
176,176,176,176,176,176,538,538,538,538,538,592,513,563,563,513,563,563,563,563,563,567,459,567,538,538,538,538,538,538,
176,176,176,176,176,176,538,538,538,538,612,177,611,177,177,177,227,611,177,177,208,177,514,177,614,538,538,538,538,538,
176,176,176,176,176,176,538,587,538,612,207,227,177,464,177,177,177,177,177,232,177,565,550,177,208,614,538,538,538,538,
218,218,218,176,176,176,538,562,566,615,177,177,208,177,590,177,177,177,177,177,177,177,623,561,177,177,591,538,538,538,
218,510,218,658,176,176,538,537,177,177,177,177,177,227,177,177,177,207,177,177,177,586,622,177,177,464,539,538,538,538,
535,535,535,683,518,176,538,587,177,514,177,228,228,228,177,177,177,177,227,489,177,177,623,177,177,177,589,538,538,538,
684,659,706,708,176,176,538,619,177,177,177,228,228,228,177,208,177,177,177,597,598,598,621,177,208,177,589,538,538,538,
176,176,176,201,202,177,561,177,227,177,227,228,227,228,227,177,177,177,586,622,177,177,177,177,177,177,589,538,538,538,
1673,1673,292,226,611,227,177,177,177,177,177,228,207,228,177,177,177,597,598,621,561,177,177,464,177,586,539,538,538,538,
1624,1673,1673,226,182,177,489,177,177,177,177,227,177,177,177,177,489,623,177,177,177,177,177,177,177,207,589,538,538,538,
1574,1673,1673,251,183,177,177,177,227,561,177,177,177,177,177,177,177,623,590,177,177,177,177,227,177,177,589,538,538,538,
1574,1673,1673,201,203,177,207,177,177,177,177,177,208,177,177,177,177,622,615,177,177,177,177,177,177,177,589,538,538,538,
1574,1673,1673,226,177,227,177,177,177,177,177,177,177,177,177,177,586,622,177,177,227,177,561,177,227,586,589,538,538,538,
1574,1673,1673,226,588,177,177,232,177,565,227,177,177,177,177,177,565,623,177,177,177,464,177,177,177,177,589,538,538,538,
1789,1790,1791,1792,597,598,598,574,598,574,574,598,574,598,574,598,598,621,227,177,177,177,177,207,227,177,589,538,538,538,
1814,1815,1816,1817,621,177,177,177,177,177,177,611,177,177,227,611,177,177,177,177,177,177,177,177,227,177,589,538,538,538,
1673,1598,1673,226,588,177,177,227,177,561,177,177,177,177,177,177,177,177,177,177,232,177,177,590,177,177,539,538,538,538,
1673,1673,1673,226,182,514,177,177,177,177,177,227,177,177,177,207,177,177,177,177,177,177,177,177,177,177,589,538,538,538,
1673,1673,1673,251,253,177,177,177,177,177,177,177,177,177,177,177,177,615,177,177,177,177,208,177,489,177,589,538,538,538,
1673,1673,1673,201,203,227,177,208,177,177,464,177,177,177,177,177,177,177,177,177,177,177,227,177,177,177,589,538,538,538,
1673,1673,1673,226,615,227,177,177,177,177,227,177,177,177,227,177,177,227,177,489,177,590,177,177,177,177,589,538,538,538,
1673,1673,1673,226,177,177,177,177,177,177,177,177,561,177,177,177,177,177,177,177,177,177,177,227,177,177,589,538,538,538,
1673,1673,1673,251,183,177,590,177,227,177,208,177,177,177,177,177,177,227,177,177,227,177,177,177,208,177,589,538,538,538,
1673,1673,1673,152,251,252,253,177,177,177,177,177,177,177,177,177,177,177,177,177,177,177,177,177,177,177,589,538,538,538,
1673,1673,1673,682,682,151,251,253,182,177,176,176,176,176,176,176,176,176,176,176,176,176,176,176,176,177,589,538,538,326,
1673,1673,1673,631,632,656,658,251,252,176,176,176,326,327,328,176,176,176,176,176,176,176,176,176,176,176,176,176,176,351,
1600,1673,1673,631,631,631,632,656,658,176,176,176,376,377,378,176,176,176,176,176,176,176,176,176,176,176,176,176,326,329
</data>
  </layer>
  <layer id="2" name="Back2" width="30" height="30" opacity="1" offsetx="0" offsety="0">
    <properties>
      <property name="Draw" type="string" value="Back" />
    </properties>
    <data encoding="csv">
0,0,0,0,0,0,0,0,0,0,0,0,0,0,0,0,0,0,0,0,0,0,0,0,0,0,0,0,0,0,
0,0,0,0,0,0,0,0,0,0,0,0,0,0,0,0,0,0,0,0,0,0,0,0,0,0,0,0,0,0,
0,0,0,0,0,0,0,0,0,0,0,0,0,0,0,0,0,0,0,0,0,0,0,0,0,0,0,0,0,0,
0,0,0,0,0,0,0,0,0,0,0,0,0,0,0,0,0,0,0,0,0,0,0,0,0,0,0,0,0,0,
0,0,0,0,0,0,0,0,0,0,0,0,0,0,0,0,0,0,0,0,0,0,0,0,0,0,0,0,0,0,
0,0,0,0,0,0,0,0,0,0,0,0,0,0,0,0,0,0,0,0,0,0,0,0,0,0,0,0,0,0,
0,0,0,0,0,0,0,0,0,0,0,0,0,0,0,0,0,0,0,0,0,0,0,0,0,0,0,0,0,0,
0,0,0,0,0,0,0,0,0,0,0,0,0,0,0,0,0,0,0,0,0,0,0,0,0,0,0,0,0,0,
0,0,0,0,0,0,0,0,0,0,0,0,0,0,0,0,0,0,0,0,0,0,0,0,0,0,0,0,0,0,
0,0,0,0,0,0,0,0,0,0,0,0,0,0,0,0,0,0,0,0,0,0,0,0,0,0,0,0,0,0,
0,0,0,0,0,0,0,0,0,0,0,0,0,0,0,0,0,0,0,0,0,0,0,0,0,0,0,0,0,0,
0,0,0,0,0,0,0,0,0,0,0,0,0,0,0,0,0,0,0,0,0,0,0,0,0,0,0,0,0,0,
0,0,0,0,0,0,0,0,0,0,0,0,0,0,0,0,0,0,0,0,0,0,0,0,0,0,0,0,0,0,
0,0,0,0,0,0,0,0,0,0,0,0,0,0,0,0,0,0,0,0,0,0,0,0,0,0,0,0,0,0,
0,0,0,0,0,0,0,0,0,0,0,0,0,0,0,0,0,0,0,0,0,0,0,0,0,0,0,0,0,0,
0,0,0,0,0,0,0,0,0,0,0,0,0,0,0,0,0,0,0,0,0,0,0,0,0,0,0,0,0,0,
0,0,0,0,0,0,0,0,0,0,0,0,0,0,0,0,0,0,0,0,0,0,0,0,0,0,0,0,0,0,
0,0,0,0,0,0,0,0,0,0,0,0,0,0,0,0,0,0,0,0,0,0,0,0,0,0,0,0,0,0,
0,0,0,0,0,0,0,0,0,0,0,0,0,0,0,0,0,0,0,0,0,0,0,0,0,0,0,0,0,0,
0,0,0,0,0,0,0,0,0,0,0,0,0,0,0,0,0,0,0,0,0,0,0,0,0,0,0,0,0,0,
0,0,0,0,0,0,0,0,0,0,0,0,0,0,0,0,0,0,0,0,0,0,0,0,0,0,0,0,0,0,
0,0,0,0,0,0,0,0,0,0,0,0,0,0,0,0,0,0,0,0,0,0,0,0,0,0,0,0,0,0,
0,0,0,0,0,0,0,0,0,0,0,0,0,0,0,0,0,0,0,0,0,0,0,0,0,0,0,0,0,0,
0,0,0,0,0,0,0,0,0,0,0,0,0,0,0,0,0,0,0,0,0,0,0,0,0,0,0,0,0,0,
0,0,0,0,0,0,0,0,0,0,0,0,0,0,0,0,0,0,0,0,0,0,0,0,0,0,0,0,0,0,
0,0,0,0,0,0,0,0,0,0,0,0,0,0,0,0,0,0,0,0,0,0,0,0,0,0,0,0,0,0,
0,0,0,0,0,0,0,0,0,0,0,0,0,0,0,0,0,0,0,0,0,0,0,0,0,0,0,0,0,0,
0,0,0,0,0,0,0,0,0,0,0,0,0,0,0,0,0,0,0,0,0,0,0,0,0,0,0,0,0,0,
0,0,0,0,0,0,0,0,0,0,0,0,0,0,0,0,0,0,0,0,0,0,0,0,0,0,0,0,0,0,
0,0,0,0,0,0,0,0,0,0,0,0,0,0,0,0,0,0,0,0,0,0,0,0,0,0,0,0,0,0
</data>
  </layer>
  <layer id="3" name="Back3" width="30" height="30" opacity="1" offsetx="0" offsety="0">
    <properties>
      <property name="Draw" type="string" value="Back" />
    </properties>
    <data encoding="csv">
0,0,0,0,0,0,0,0,0,0,0,0,0,0,0,0,0,0,0,0,0,0,0,0,0,0,0,0,0,0,
0,0,0,0,0,0,0,0,0,0,0,0,0,0,0,0,0,0,0,0,0,0,0,0,0,0,0,0,0,0,
0,0,0,0,0,0,0,0,0,0,0,0,0,0,0,0,0,0,0,0,0,0,0,0,0,0,0,0,0,0,
0,0,0,0,0,0,0,0,0,0,0,0,0,0,0,0,0,0,0,0,0,0,0,0,0,0,0,0,0,0,
0,0,0,0,0,0,0,0,0,0,0,0,0,0,0,0,0,0,0,0,0,0,0,0,0,0,0,0,0,0,
0,0,0,0,0,0,0,0,0,0,0,0,0,0,0,0,0,0,0,0,0,0,0,0,0,0,0,0,0,0,
0,0,0,0,0,0,0,0,0,0,0,0,0,0,0,0,0,0,0,0,0,0,0,0,0,0,0,0,0,0,
0,0,0,0,0,0,0,0,0,0,0,0,0,0,0,0,0,0,0,0,0,0,0,0,0,0,0,0,0,0,
0,0,0,0,0,0,0,0,0,0,0,0,0,0,0,0,0,0,0,0,0,0,0,0,0,0,0,0,0,0,
0,0,0,0,0,0,0,0,0,0,0,0,0,0,0,0,0,0,0,0,0,0,0,0,0,0,0,0,0,0,
0,0,0,0,0,0,0,0,0,0,0,0,0,0,0,0,0,0,0,0,0,0,0,0,0,0,0,0,0,0,
0,0,0,0,0,0,0,0,0,0,0,0,0,0,0,0,0,0,0,0,0,0,0,0,0,0,0,0,0,0,
0,0,0,0,0,0,0,0,0,0,0,0,0,0,0,0,0,0,0,0,0,0,0,0,0,0,0,0,0,0,
0,0,0,0,0,0,0,0,0,0,0,0,0,0,0,0,0,0,0,0,0,0,0,0,0,0,0,0,0,0,
0,0,0,0,0,0,0,0,0,0,0,0,0,0,0,0,0,0,0,0,0,0,0,0,0,0,0,0,0,0,
0,0,0,0,0,0,0,0,0,0,0,0,0,0,0,0,0,0,0,0,0,0,0,0,0,0,0,0,0,0,
0,0,0,0,0,0,0,0,0,0,0,0,0,0,0,0,0,0,0,0,0,0,0,0,0,0,0,0,0,0,
0,0,0,0,0,0,0,0,0,0,0,0,0,0,0,0,0,0,0,0,0,0,0,0,0,0,0,0,0,0,
0,0,0,0,0,0,0,0,0,0,0,0,0,0,0,0,0,0,0,0,0,0,0,0,0,0,0,0,0,0,
0,0,0,0,0,0,0,0,0,0,0,0,0,0,0,0,0,0,0,0,0,0,0,0,0,0,0,0,0,0,
0,0,0,0,0,0,0,0,0,0,0,0,0,0,0,0,0,0,0,0,0,0,0,0,0,0,0,0,0,0,
0,0,0,0,0,0,0,0,0,0,0,0,0,0,0,0,0,0,0,0,0,0,0,0,0,0,0,0,0,0,
0,0,0,0,0,0,0,0,0,0,0,0,0,0,0,0,0,0,0,0,0,0,0,0,0,0,0,0,0,0,
0,0,0,0,0,0,0,0,0,0,0,0,0,0,0,0,0,0,0,0,0,0,0,0,0,0,0,0,0,0,
0,0,0,0,0,0,0,0,0,0,0,0,0,0,0,0,0,0,0,0,0,0,0,0,0,0,0,0,0,0,
0,0,0,0,0,0,0,0,0,0,0,0,0,0,0,0,0,0,0,0,0,0,0,0,0,0,0,0,0,0,
0,0,0,0,0,0,0,0,0,0,0,0,0,0,0,0,0,0,0,0,0,0,0,0,0,0,0,0,0,0,
0,0,0,0,0,0,0,0,0,0,0,0,0,0,0,0,0,0,0,0,0,0,0,0,0,0,0,0,0,0,
0,0,0,0,0,0,0,0,0,0,0,0,0,0,0,0,0,0,0,0,0,0,0,0,0,0,0,0,0,0,
0,0,0,0,0,0,0,0,0,0,0,0,0,0,0,0,0,0,0,0,0,0,0,0,0,0,0,0,0,0
</data>
  </layer>
  <layer id="4" name="Buildings" width="30" height="30" opacity="1" offsetx="0" offsety="0">
    <properties />
    <data encoding="csv">
126,126,126,126,126,308,395,371,544,543,544,543,544,543,544,543,544,543,544,543,544,534,460,536,544,543,544,544,543,417,
469,447,469,292,126,126,420,0,1675,850,1674,1675,0,1675,1674,924,925,1675,1521,1522,538,269,579,538,1675,1206,538,1521,1522,392,
493,494,493,493,126,126,445,0,874,875,0,0,1674,0,0,0,1675,0,0,0,1523,0,959,1081,1082,0,1523,1675,1674,417,
494,2041,494,2040,469,468,470,0,0,0,0,0,0,0,0,0,0,0,0,0,0,0,0,0,0,0,1674,0,0,392,
519,0,2046,2079,493,493,495,1674,0,0,0,0,0,0,0,0,0,0,0,0,0,0,0,0,0,0,0,874,875,417,
2108,0,2046,2040,494,2040,499,924,925,0,0,0,0,0,0,0,0,0,0,0,0,0,0,0,0,0,0,0,1675,392,
1659,0,1661,2079,2046,2079,499,1674,0,0,0,0,0,0,0,0,0,0,0,0,0,0,0,0,0,0,0,0,0,417,
1684,0,1686,2040,2046,2040,499,0,0,0,0,0,0,0,0,0,0,0,0,0,0,0,0,0,0,0,0,0,0,392,
1709,0,1711,524,492,2079,499,0,0,0,0,0,0,0,0,0,0,0,0,0,0,0,0,0,0,0,0,0,0,417,
0,0,0,0,517,2040,520,0,0,0,0,0,0,0,0,0,0,0,0,0,0,0,0,0,0,0,0,1675,0,392,
0,0,0,0,542,524,545,0,0,0,0,0,0,0,0,0,0,0,0,0,0,0,0,0,0,0,0,0,1674,417,
469,291,0,0,0,0,0,0,0,0,0,0,0,0,0,0,0,0,0,0,0,0,0,0,0,0,0,0,1698,392,
494,316,317,0,0,0,0,0,0,0,0,0,0,0,0,0,0,0,0,0,0,0,0,0,0,0,0,924,925,417,
519,341,342,0,0,0,0,0,0,0,0,0,0,0,0,0,0,0,0,0,0,0,0,0,0,0,0,0,0,417,
544,366,367,0,0,0,0,0,0,0,0,0,0,0,0,0,0,0,0,0,0,0,0,0,0,0,0,0,1675,392,
1574,1673,392,0,0,0,0,0,0,0,0,0,0,0,0,0,0,0,0,0,0,0,0,0,0,0,0,0,1674,417,
1764,1765,1766,1767,0,0,0,0,0,0,0,0,0,0,0,0,0,0,0,0,0,0,0,0,0,0,0,0,0,392,
0,0,0,0,0,0,0,0,0,0,0,0,0,0,0,0,0,0,0,0,0,0,0,0,0,0,0,874,875,417,
0,0,0,0,0,0,0,0,0,0,0,0,0,0,0,0,0,0,0,0,0,0,0,0,0,0,0,0,1675,392,
1839,1840,1841,1842,0,0,0,0,0,0,0,0,0,0,0,0,0,0,0,0,0,0,0,0,0,0,0,0,0,417,
1673,1865,1866,0,0,0,0,0,0,0,0,0,0,0,0,0,0,0,0,0,0,0,0,0,0,0,0,0,1674,392,
1675,1673,392,0,0,0,0,0,0,0,0,0,0,0,0,0,0,0,0,0,0,0,0,0,0,0,0,1675,0,417,
1864,1864,417,0,0,0,0,0,0,0,0,0,0,0,0,0,0,0,0,0,0,0,0,0,0,0,0,0,0,392,
1864,1864,392,0,0,0,0,0,0,0,0,0,0,0,0,0,0,0,0,0,0,0,0,0,0,0,0,0,0,417,
1864,1864,417,0,0,0,0,0,0,0,0,0,0,0,0,0,0,0,0,0,0,0,0,0,0,0,0,0,1675,392,
1673,1673,392,0,0,0,0,0,0,0,0,0,0,0,0,0,0,0,0,0,0,0,0,0,0,0,0,1675,0,417,
1673,1673,442,0,0,0,0,0,0,0,0,0,0,0,0,0,0,0,0,0,0,0,0,0,0,0,0,924,925,176,
1675,1673,467,465,441,0,0,0,0,0,0,0,0,0,0,0,0,0,0,0,0,0,0,0,0,0,0,0,0,326,
1673,1673,492,490,466,465,441,0,0,417,176,176,176,176,176,176,176,176,176,176,176,176,176,176,176,176,176,176,176,351,
1600,1673,517,515,491,490,466,465,441,392,126,126,126,126,126,126,126,126,126,126,126,126,126,126,126,126,126,126,126,126
</data>
  </layer>
  <layer id="5" name="Buildings2" width="30" height="30" opacity="1" offsetx="0" offsety="0">
    <properties>
      <property name="Draw" type="string" value="Buildings" />
    </properties>
    <data encoding="csv">
0,0,0,0,0,0,0,0,0,0,0,0,0,0,0,0,0,0,0,0,0,0,0,0,0,0,0,0,0,0,
0,0,0,0,0,0,0,0,0,0,0,0,0,0,0,0,0,0,0,0,0,0,0,0,0,0,0,0,0,0,
0,0,0,0,0,0,0,0,0,0,0,0,0,0,0,0,0,0,0,0,0,0,0,0,0,0,0,0,0,0,
0,0,0,0,0,0,0,0,0,0,0,0,0,0,0,0,0,0,0,0,0,0,0,0,0,0,0,0,0,0,
0,0,0,0,0,0,0,0,0,0,0,0,0,0,0,0,0,0,0,0,0,0,0,0,0,0,0,0,0,0,
0,0,0,0,0,0,0,0,0,0,0,0,0,0,0,0,0,0,0,0,0,0,0,0,0,0,0,0,0,0,
0,0,0,0,0,0,0,0,0,0,0,0,0,0,0,0,0,0,0,0,0,0,0,0,0,0,0,0,0,0,
0,0,0,0,0,0,0,0,0,0,0,0,0,0,0,0,0,0,0,0,0,0,0,0,0,0,0,0,0,0,
0,0,0,0,0,0,0,0,0,0,0,0,0,0,0,0,0,0,0,0,0,0,0,0,0,0,0,0,0,0,
0,0,0,0,0,0,0,0,0,0,0,0,0,0,0,0,0,0,0,0,0,0,0,0,0,0,0,0,0,0,
0,0,0,0,0,0,0,0,0,0,0,0,0,0,0,0,0,0,0,0,0,0,0,0,0,0,0,0,0,0,
0,0,0,0,0,0,0,0,0,0,0,0,0,0,0,0,0,0,0,0,0,0,0,0,0,0,0,0,0,0,
0,0,0,0,0,0,0,0,0,0,0,0,0,0,0,0,0,0,0,0,0,0,0,0,0,0,0,0,0,0,
0,0,0,0,0,0,0,0,0,0,0,0,0,0,0,0,0,0,0,0,0,0,0,0,0,0,0,0,0,0,
0,0,0,0,0,0,0,0,0,0,0,0,0,0,0,0,0,0,0,0,0,0,0,0,0,0,0,0,0,0,
0,0,0,0,0,0,0,0,0,0,0,0,0,0,0,0,0,0,0,0,0,0,0,0,0,0,0,0,0,0,
0,0,0,0,0,0,0,0,0,0,0,0,0,0,0,0,0,0,0,0,0,0,0,0,0,0,0,0,0,0,
0,0,0,0,0,0,0,0,0,0,0,0,0,0,0,0,0,0,0,0,0,0,0,0,0,0,0,0,0,0,
0,0,0,0,0,0,0,0,0,0,0,0,0,0,0,0,0,0,0,0,0,0,0,0,0,0,0,0,0,0,
0,0,0,0,0,0,0,0,0,0,0,0,0,0,0,0,0,0,0,0,0,0,0,0,0,0,0,0,0,0,
0,0,0,0,0,0,0,0,0,0,0,0,0,0,0,0,0,0,0,0,0,0,0,0,0,0,0,0,0,0,
0,0,0,0,0,0,0,0,0,0,0,0,0,0,0,0,0,0,0,0,0,0,0,0,0,0,0,0,0,0,
0,0,0,0,0,0,0,0,0,0,0,0,0,0,0,0,0,0,0,0,0,0,0,0,0,0,0,0,0,0,
0,0,0,0,0,0,0,0,0,0,0,0,0,0,0,0,0,0,0,0,0,0,0,0,0,0,0,0,0,0,
0,0,0,0,0,0,0,0,0,0,0,0,0,0,0,0,0,0,0,0,0,0,0,0,0,0,0,0,0,0,
0,0,0,0,0,0,0,0,0,0,0,0,0,0,0,0,0,0,0,0,0,0,0,0,0,0,0,0,0,0,
0,0,0,0,0,0,0,0,0,0,0,0,0,0,0,0,0,0,0,0,0,0,0,0,0,0,0,0,0,0,
0,0,0,0,0,0,0,0,0,0,0,0,0,0,0,0,0,0,0,0,0,0,0,0,0,0,0,0,0,0,
0,0,0,0,0,0,0,0,0,0,0,0,0,0,0,0,0,0,0,0,0,0,0,0,0,0,0,0,0,0,
0,0,0,0,0,0,0,0,0,0,0,0,0,0,0,0,0,0,0,0,0,0,0,0,0,0,0,0,0,0
</data>
  </layer>
  <layer id="6" name="Buildings3" width="30" height="30" opacity="1" offsetx="0" offsety="0">
    <properties>
      <property name="Draw" type="string" value="Buildings" />
    </properties>
    <data encoding="csv">
0,0,0,0,0,0,0,0,0,0,0,0,0,0,0,0,0,0,0,0,0,0,0,0,0,0,0,0,0,0,
0,0,0,0,0,0,0,0,0,0,0,0,0,0,0,0,0,0,0,0,0,0,0,0,0,0,0,0,0,0,
0,0,0,0,0,0,0,0,0,0,0,0,0,0,0,0,0,0,0,0,0,0,0,0,0,0,0,0,0,0,
0,0,0,0,0,0,0,0,0,0,0,0,0,0,0,0,0,0,0,0,0,0,0,0,0,0,0,0,0,0,
0,0,0,0,0,0,0,0,0,0,0,0,0,0,0,0,0,0,0,0,0,0,0,0,0,0,0,0,0,0,
0,0,0,0,0,0,0,0,0,0,0,0,0,0,0,0,0,0,0,0,0,0,0,0,0,0,0,0,0,0,
0,0,0,0,0,0,0,0,0,0,0,0,0,0,0,0,0,0,0,0,0,0,0,0,0,0,0,0,0,0,
0,0,0,0,0,0,0,0,0,0,0,0,0,0,0,0,0,0,0,0,0,0,0,0,0,0,0,0,0,0,
0,0,0,0,0,0,0,0,0,0,0,0,0,0,0,0,0,0,0,0,0,0,0,0,0,0,0,0,0,0,
0,0,0,0,0,0,0,0,0,0,0,0,0,0,0,0,0,0,0,0,0,0,0,0,0,0,0,0,0,0,
0,0,0,0,0,0,0,0,0,0,0,0,0,0,0,0,0,0,0,0,0,0,0,0,0,0,0,0,0,0,
0,0,0,0,0,0,0,0,0,0,0,0,0,0,0,0,0,0,0,0,0,0,0,0,0,0,0,0,0,0,
0,0,0,0,0,0,0,0,0,0,0,0,0,0,0,0,0,0,0,0,0,0,0,0,0,0,0,0,0,0,
0,0,0,0,0,0,0,0,0,0,0,0,0,0,0,0,0,0,0,0,0,0,0,0,0,0,0,0,0,0,
0,0,0,0,0,0,0,0,0,0,0,0,0,0,0,0,0,0,0,0,0,0,0,0,0,0,0,0,0,0,
0,0,0,0,0,0,0,0,0,0,0,0,0,0,0,0,0,0,0,0,0,0,0,0,0,0,0,0,0,0,
0,0,0,0,0,0,0,0,0,0,0,0,0,0,0,0,0,0,0,0,0,0,0,0,0,0,0,0,0,0,
0,0,0,0,0,0,0,0,0,0,0,0,0,0,0,0,0,0,0,0,0,0,0,0,0,0,0,0,0,0,
0,0,0,0,0,0,0,0,0,0,0,0,0,0,0,0,0,0,0,0,0,0,0,0,0,0,0,0,0,0,
0,0,0,0,0,0,0,0,0,0,0,0,0,0,0,0,0,0,0,0,0,0,0,0,0,0,0,0,0,0,
0,0,0,0,0,0,0,0,0,0,0,0,0,0,0,0,0,0,0,0,0,0,0,0,0,0,0,0,0,0,
0,0,0,0,0,0,0,0,0,0,0,0,0,0,0,0,0,0,0,0,0,0,0,0,0,0,0,0,0,0,
0,0,0,0,0,0,0,0,0,0,0,0,0,0,0,0,0,0,0,0,0,0,0,0,0,0,0,0,0,0,
0,0,0,0,0,0,0,0,0,0,0,0,0,0,0,0,0,0,0,0,0,0,0,0,0,0,0,0,0,0,
0,0,0,0,0,0,0,0,0,0,0,0,0,0,0,0,0,0,0,0,0,0,0,0,0,0,0,0,0,0,
0,0,0,0,0,0,0,0,0,0,0,0,0,0,0,0,0,0,0,0,0,0,0,0,0,0,0,0,0,0,
0,0,0,0,0,0,0,0,0,0,0,0,0,0,0,0,0,0,0,0,0,0,0,0,0,0,0,0,0,0,
0,0,0,0,0,0,0,0,0,0,0,0,0,0,0,0,0,0,0,0,0,0,0,0,0,0,0,0,0,0,
0,0,0,0,0,0,0,0,0,0,0,0,0,0,0,0,0,0,0,0,0,0,0,0,0,0,0,0,0,0,
0,0,0,0,0,0,0,0,0,0,0,0,0,0,0,0,0,0,0,0,0,0,0,0,0,0,0,0,0,0
</data>
  </layer>
  <layer id="7" name="Paths" width="30" height="30" opacity="1" offsetx="0" offsety="0">
    <properties />
    <data encoding="csv">
0,0,0,0,0,0,0,0,0,0,0,0,0,0,0,0,0,0,0,0,0,0,0,0,0,0,0,0,0,0,
0,0,0,0,0,0,0,0,0,0,0,0,0,0,0,0,0,0,0,0,0,0,0,0,0,0,0,0,0,0,
0,0,0,0,0,0,0,0,0,0,0,0,0,0,0,0,0,0,0,0,0,0,0,0,0,0,0,0,0,0,
0,0,0,0,0,0,0,0,0,0,0,0,0,0,0,0,0,0,0,0,0,0,0,0,0,0,0,0,0,0,
0,0,0,0,0,0,0,0,0,0,0,0,0,0,0,0,0,0,0,0,0,0,0,0,0,0,0,0,0,0,
0,0,0,0,0,0,0,0,0,0,0,0,0,0,0,0,0,0,0,0,0,0,0,0,0,0,0,0,0,0,
0,0,0,0,0,0,0,0,0,0,0,0,0,0,0,0,0,0,0,0,0,0,0,0,0,0,0,0,0,0,
0,0,0,0,0,0,0,0,0,0,0,0,0,0,0,0,0,0,0,0,0,0,0,0,0,0,0,0,0,0,
0,0,0,0,0,0,0,0,0,0,0,0,0,0,0,0,0,0,0,0,0,0,0,0,0,0,0,0,0,0,
0,0,0,2002,0,0,0,0,0,0,0,0,0,0,0,0,0,0,0,0,0,0,0,0,0,0,0,0,0,0,
0,0,0,0,0,0,0,0,0,0,0,0,0,0,0,0,0,0,0,0,0,0,0,0,0,0,0,0,0,0,
0,0,0,0,0,0,0,0,0,0,0,0,0,0,0,0,0,0,0,0,0,0,0,0,0,0,0,0,0,0,
0,0,2002,0,0,0,0,0,0,0,0,0,0,0,0,0,0,0,0,0,0,0,0,0,0,0,0,0,0,0,
0,0,0,0,0,0,0,0,0,0,0,0,0,0,0,0,0,0,0,0,0,0,0,0,0,0,0,0,0,0,
0,0,0,0,0,0,0,0,0,0,0,0,0,0,0,0,0,0,0,0,0,0,0,0,0,0,0,0,0,0,
0,0,0,0,0,0,0,0,0,0,0,0,0,0,0,0,0,0,0,0,0,0,0,0,0,0,0,0,0,0,
0,0,0,0,0,0,0,0,0,0,0,0,0,0,0,0,0,0,0,0,0,0,0,0,0,0,0,0,0,0,
0,0,0,0,0,0,0,0,0,0,0,0,0,0,0,0,0,0,0,0,0,0,0,0,0,0,0,0,0,0,
0,0,0,0,0,0,0,0,0,0,0,0,0,0,0,0,0,0,0,0,0,0,0,0,0,0,0,0,0,0,
0,0,0,0,0,0,0,0,0,0,0,0,0,0,0,0,0,0,0,0,0,0,0,0,0,0,0,0,0,0,
0,0,0,0,0,0,0,0,0,0,0,0,0,0,0,0,0,0,0,0,0,0,0,0,0,0,0,0,0,0,
0,0,0,0,0,0,0,0,0,0,0,0,0,0,0,0,0,0,0,0,0,0,0,0,0,0,0,0,0,0,
0,0,0,0,0,0,0,0,0,0,0,0,0,0,0,0,0,0,0,0,0,0,0,0,0,0,0,0,0,0,
0,0,0,0,0,0,0,0,0,0,0,0,0,0,0,0,0,0,0,0,0,0,0,0,0,0,0,0,0,0,
0,0,0,0,0,0,0,0,0,0,0,0,0,0,0,0,0,0,0,0,0,0,0,0,0,0,0,0,0,0,
0,0,0,0,0,0,0,0,0,0,0,0,0,0,0,0,0,0,0,0,0,0,0,0,0,0,0,0,0,0,
0,0,0,0,0,0,0,0,0,0,0,0,0,0,0,0,0,0,0,0,0,0,0,0,0,0,0,0,0,0,
0,0,0,0,0,0,0,0,0,0,0,0,0,0,0,0,0,0,0,0,0,0,0,0,0,0,0,0,0,0,
0,0,0,0,0,0,0,0,0,0,0,0,0,0,0,0,0,0,0,0,0,0,0,0,0,0,0,0,0,0,
0,0,0,0,0,0,0,0,0,0,0,0,0,0,0,0,0,0,0,0,0,0,0,0,0,0,0,0,0,0
</data>
  </layer>
  <layer id="8" name="Front" width="30" height="30" opacity="1" offsetx="0" offsety="0">
    <properties />
    <data encoding="csv">
0,0,0,0,0,0,0,0,0,0,0,0,0,0,0,899,900,0,1496,1497,0,244,0,0,0,1182,0,1496,1497,36,
0,0,0,0,0,0,0,0,849,0,0,0,0,0,0,0,0,0,0,0,1498,0,934,0,0,0,1498,0,0,61,
0,0,0,442,0,0,0,0,0,0,0,0,0,0,0,0,0,0,0,0,0,0,0,0,0,0,0,0,0,86,
448,0,0,467,0,0,0,0,0,0,0,0,0,0,0,0,0,0,0,0,0,0,0,0,0,0,0,849,850,0,
0,448,0,492,0,2044,0,899,900,0,0,0,0,0,0,0,0,0,0,0,0,0,0,0,0,0,0,0,0,0,
0,0,2044,517,0,0,0,0,0,0,0,0,0,0,0,0,0,0,0,0,0,0,0,0,0,0,0,0,0,0,
449,1660,0,492,0,2044,0,0,0,0,0,0,0,0,0,0,0,0,0,0,0,0,0,0,0,0,0,0,0,0,
0,0,0,517,0,0,0,0,0,0,0,0,0,0,0,0,0,0,0,0,0,0,0,0,0,0,0,0,0,0,
0,0,0,542,0,0,0,0,0,0,0,0,0,0,0,0,0,0,0,0,0,0,0,0,0,0,0,0,0,0,
0,0,0,0,0,0,0,0,0,0,0,0,0,0,0,0,0,0,0,0,0,0,0,0,0,0,0,0,0,0,
0,0,0,0,0,0,0,0,0,0,0,0,0,0,0,0,0,0,0,0,0,0,0,0,0,0,0,0,0,0,
0,0,0,0,0,0,0,0,0,0,0,0,0,0,0,0,0,0,0,0,0,0,0,0,0,0,0,899,900,0,
0,0,0,0,0,0,0,0,0,0,0,0,0,0,0,0,0,0,0,0,0,0,0,0,0,0,0,0,0,0,
0,0,0,0,0,0,0,0,0,0,0,0,0,0,0,0,0,0,0,0,0,0,0,0,0,0,0,0,0,0,
0,0,0,0,0,0,0,0,0,0,0,0,0,0,0,0,0,0,0,0,0,0,0,0,0,0,0,0,0,0,
1739,1740,1741,1742,0,0,0,0,0,0,0,0,0,0,0,0,0,0,0,0,0,0,0,0,0,0,0,0,0,0,
0,0,0,0,0,0,0,0,0,0,0,0,0,0,0,0,0,0,0,0,0,0,0,0,0,0,0,849,850,0,
0,0,0,0,0,0,0,0,0,0,0,0,0,0,0,0,0,0,0,0,0,0,0,0,0,0,0,0,0,0,
1889,1890,1891,1892,0,0,0,0,0,0,0,0,0,0,0,0,0,0,0,0,0,0,0,0,0,0,0,0,0,0,
0,0,0,0,0,0,0,0,0,0,0,0,0,0,0,0,0,0,0,0,0,0,0,0,0,0,0,0,0,0,
0,0,0,0,0,0,0,0,0,0,0,0,0,0,0,0,0,0,0,0,0,0,0,0,0,0,0,0,0,0,
0,0,0,0,0,0,0,0,0,0,0,0,0,0,0,0,0,0,0,0,0,0,0,0,0,0,0,0,0,0,
0,0,0,0,0,0,0,0,0,0,0,0,0,0,0,0,0,0,0,0,0,0,0,0,0,0,0,0,0,0,
0,0,0,0,0,0,0,0,0,0,0,0,0,0,0,0,0,0,0,0,0,0,0,0,0,0,0,0,0,0,
0,0,0,0,0,0,0,0,0,0,0,0,0,0,0,0,0,0,0,0,0,0,0,0,0,0,0,0,0,0,
0,0,0,0,0,0,0,0,0,0,0,0,0,0,0,0,0,0,0,0,0,0,0,0,0,0,0,899,900,416,
0,0,0,0,0,0,0,0,0,440,414,415,415,414,415,414,415,414,415,414,415,414,415,414,415,414,415,414,416,176,
0,0,0,0,0,0,0,0,0,392,176,176,176,176,176,176,176,176,151,176,151,176,176,176,176,151,176,176,176,0,
0,0,0,0,0,0,0,0,0,417,326,327,327,327,327,327,327,327,327,258,327,327,327,327,327,327,327,327,328,0,
0,0,0,0,0,0,0,0,0,0,351,352,352,352,352,352,352,352,301,352,352,330,352,305,306,352,352,352,0,0
</data>
  </layer>
  <layer id="9" name="AlwaysFront" width="30" height="30" opacity="1" offsetx="0" offsety="0">
    <properties />
    <data encoding="csv">
0,0,0,0,0,0,0,0,0,0,0,0,0,0,0,0,0,0,0,0,0,0,0,0,0,0,0,0,0,0,
0,0,0,0,0,0,0,0,0,0,0,0,0,0,0,0,0,0,0,0,0,0,0,0,0,0,0,0,0,0,
0,0,0,0,0,0,0,0,0,0,0,0,0,0,0,0,0,0,0,0,0,0,0,0,0,0,0,0,0,0,
0,0,0,0,0,0,0,0,0,0,0,0,0,0,0,0,0,0,0,0,0,0,0,0,0,0,0,0,0,0,
0,0,0,0,0,0,0,0,0,0,0,0,0,0,0,0,0,0,0,0,0,0,0,0,0,0,0,0,0,0,
2108,2041,2046,0,0,0,0,0,0,0,0,0,0,0,0,0,0,0,0,0,0,0,0,0,0,0,0,0,0,0,
0,0,0,0,0,0,0,0,0,0,0,0,0,0,0,0,0,0,0,0,0,0,0,0,0,0,0,0,0,0,
0,0,0,0,0,0,0,0,0,0,0,0,0,0,0,0,0,0,0,0,0,0,0,0,0,0,0,0,0,0,
0,0,0,0,0,0,0,0,0,0,0,0,0,0,0,0,0,0,0,0,0,0,0,0,0,0,0,0,0,0,
0,0,0,0,0,0,0,0,0,0,0,0,0,0,0,0,0,0,0,0,0,0,0,0,0,0,0,0,0,0,
0,0,0,0,0,0,0,0,0,0,0,0,0,0,0,0,0,0,0,0,0,0,0,0,0,0,0,0,0,0,
0,0,0,0,0,0,0,0,0,0,0,0,0,0,0,0,0,0,0,0,0,0,0,0,0,0,0,0,0,0,
0,0,0,0,0,0,0,0,0,0,0,0,0,0,0,0,0,0,0,0,0,0,0,0,0,0,0,0,0,11,
0,0,0,0,0,0,0,0,0,0,0,0,0,0,0,0,0,0,0,0,0,0,0,0,0,0,0,0,0,36,
0,0,0,0,0,0,0,0,0,0,0,0,0,0,0,0,0,0,0,0,0,0,0,0,0,0,0,0,0,61,
0,0,0,0,0,0,0,0,0,0,0,0,0,0,0,0,0,0,0,0,0,0,0,0,0,0,0,0,0,86,
0,0,0,0,0,0,0,0,0,0,0,0,0,0,0,0,0,0,0,0,0,0,0,0,0,0,0,0,0,0,
0,0,0,0,0,0,0,0,0,0,0,0,0,0,0,0,0,0,0,0,0,0,0,0,0,0,0,0,0,0,
0,0,0,0,0,0,0,0,0,0,0,0,0,0,0,0,0,0,0,0,0,0,0,0,0,0,0,0,0,0,
0,0,0,0,0,0,0,0,0,0,0,0,0,0,0,0,0,0,0,0,0,0,0,0,0,0,0,0,0,0,
0,0,0,0,0,0,0,0,0,0,0,0,0,0,0,0,0,0,0,0,0,0,0,0,0,0,0,0,0,0,
0,0,0,0,0,0,0,0,0,0,0,0,0,0,0,0,0,0,0,0,0,0,0,0,0,0,0,0,0,0,
0,0,0,0,0,0,0,0,0,0,0,0,0,0,0,0,0,0,0,0,0,0,0,0,0,0,0,0,0,0,
0,0,0,0,0,0,0,0,0,0,0,0,0,0,0,0,0,0,0,0,0,0,0,0,0,0,0,0,0,0,
0,0,0,0,0,0,0,0,0,0,0,0,0,0,0,0,0,0,0,0,0,0,0,0,0,0,0,0,0,0,
0,0,0,0,0,0,0,0,0,0,0,0,0,0,17,11,12,13,0,0,0,0,0,0,0,0,0,0,440,416,
0,0,0,0,0,0,0,0,0,0,89,90,0,0,0,36,37,38,0,0,0,14,15,16,0,0,11,12,13,0,
0,0,0,0,0,0,0,0,0,0,114,115,0,258,0,61,62,63,0,0,0,39,40,41,308,0,36,37,38,233,
0,0,0,11,12,13,0,0,0,0,0,11,12,327,0,86,87,88,0,327,233,64,65,66,0,0,61,62,63,0,
0,0,0,36,37,38,0,0,11,12,13,36,37,38,233,0,112,11,12,13,11,12,13,11,12,13,86,87,88,11
</data>
  </layer>
  </map>