<?xml version="1.0" encoding="UTF-8"?>
<map version="1.10" tiledversion="1.11.1" orientation="orthogonal" renderorder="right-down" width="35" height="22" tilewidth="16" tileheight="16" infinite="0" nextlayerid="8" nextobjectid="1">
 <properties>
  <property name="AmbientLight" value="90 90 90"/>
  <property name="DayTiles" value="Front 8 2 256 Front 8 3 288 Front 10 2 256 Front 10 3 288 Front 12 2 256 Front 12 3 288 Front 14 2 256 Front 14 3 288 Front 16 2 256 Front 16 3 288 Front 18 2 256 Front 18 3 288 Front 20 2 256 Front 20 3 288 Front 22 2 256 Front 22 3 288 Front 24 2 256 Front 24 3 288 Front 4 9 256 Front 4 10 288"/>
  <property name="ForceAllowTreePlanting" value="T"/>
  <property name="IsGreenhouse" value="T"/>
  <property name="NightTiles" value="Front 8 2 1253 Front 8 3 1285 Front 10 2 1253 Front 10 3 1285 Front 12 2 1253 Front 12 3 1285 Front 14 2 1253 Front 14 3 1285 Front 16 2 1253 Front 16 3 1285 Front 18 2 1253 Front 18 3 1285 Front 20 2 1253 Front 20 3 1285 Front 22 2 1253 Front 22 3 1285 Front 24 2 1253 Front 24 3 1285 Front 4 9 1253 Front 4 10 1285"/>
  <property name="Warp" value="-50 -50 Farm 50 50"/>
 </properties>
 <tileset firstgid="1" name="paths" tilewidth="16" tileheight="16" tilecount="64" columns="4">
  <image source="paths.png" width="64" height="256"/>
 </tileset>
 <tileset firstgid="65" name="untitled tile sheet" tilewidth="16" tileheight="16" tilecount="2176" columns="32">
  <image source="townInterior.png" width="512" height="1088"/>
  <tile id="1885">
   <properties>
    <property name="Type" value="Wood"/>
   </properties>
  </tile>
  <tile id="1887">
   <properties>
    <property name="Type" value="Stone"/>
   </properties>
  </tile>
  <tile id="1945">
   <properties>
    <property name="Type" value="Stone"/>
   </properties>
  </tile>
  <tile id="1946">
   <properties>
    <property name="Diggable" value="T"/>
    <property name="Type" value="Dirt"/>
   </properties>
  </tile>
  <tile id="2075">
   <properties>
    <property name="Diggable" value="T"/>
    <property name="Type" value="Dirt"/>
   </properties>
  </tile>
  <tile id="2076">
   <properties>
    <property name="Diggable" type="bool" value="true"/>
    <property name="Type" value="Dirt"/>
   </properties>
  </tile>
  <tile id="2078">
   <properties>
    <property name="Type" value="Wood"/>
   </properties>
  </tile>
  <tile id="2079">
   <properties>
    <property name="Type" value="Wood"/>
   </properties>
  </tile>
  <tile id="2106">
   <properties>
    <property name="Type" value="Wood"/>
   </properties>
  </tile>
  <tile id="2107">
   <properties>
    <property name="Diggable" value="T"/>
    <property name="Type" value="Dirt"/>
   </properties>
  </tile>
  <tile id="2108">
   <properties>
    <property name="Diggable" value="T"/>
    <property name="Type" value="Dirt"/>
   </properties>
  </tile>
  <tile id="2109">
   <properties>
    <property name="Type" value="Stone"/>
   </properties>
  </tile>
 </tileset>
 <tileset firstgid="2241" name="Z_Tilesheet" tilewidth="16" tileheight="16" tilecount="1975" columns="25">
  <image source="spring_outdoorsTileSheet.png" width="400" height="1264"/>
 </tileset>
 <tileset firstgid="4216" name="VanillaWallsAndFloors" tilewidth="16" tileheight="16" tilecount="560" columns="16">
  <image source="VanillaWallsAndFloors.png" width="256" height="560"/>
 </tileset>
 <tileset firstgid="4776" name="VanillaFloors" tilewidth="16" tileheight="16" tilecount="84" columns="4">
  <image source="VanillaFloors.png" width="64" height="336"/>
 </tileset>
 <tileset firstgid="4860" name="VanillaFurniture" tilewidth="16" tileheight="16" tilecount="2976" columns="32">
  <image source="VanillaFurniture.png" width="512" height="1488"/>
 </tileset>
 <tileset firstgid="7836" name="VanillaCraftables" tilewidth="16" tileheight="16" tilecount="576" columns="8">
  <image source="VanillaCraftables.png" width="128" height="1152"/>
 </tileset>
 <tileset firstgid="8412" name="spring_z_extras" tilewidth="16" tileheight="16" tilecount="6400" columns="25">
  <image source="spring_z_extras.png" width="400" height="4096"/>
 </tileset>
 <tileset firstgid="14812" name="townInterior_2" tilewidth="16" tileheight="16" tilecount="1312" columns="32">
  <image source="townInterior_2.png" width="512" height="656"/>
 </tileset>
 <layer id="1" name="Back" width="35" height="22">
  <data encoding="csv">
65,65,0,0,0,0,0,0,0,0,0,0,0,0,0,0,0,0,0,0,0,0,0,0,0,0,0,0,0,0,0,0,0,0,0,
65,65,0,0,0,0,0,99,99,99,99,99,99,99,99,99,99,99,99,99,99,99,99,99,99,99,0,0,0,0,0,0,0,0,0,
65,65,0,0,0,0,130,131,131,131,131,131,131,131,131,131,131,131,131,131,131,131,131,131,131,131,132,0,0,0,0,0,0,0,0,
65,65,0,0,0,0,162,163,163,163,163,163,163,163,163,163,163,163,163,163,163,163,163,163,163,163,164,0,0,0,0,0,0,0,0,
65,65,0,0,0,0,194,0,0,0,0,0,0,0,0,0,0,0,0,0,0,0,0,0,0,0,196,0,0,0,0,0,0,0,0,
65,65,0,0,0,0,263,265,264,265,264,265,264,265,264,265,264,265,264,265,264,265,264,265,264,265,295,0,0,0,0,0,0,0,0,
65,65,0,0,0,0,296,1373,427,427,427,427,427,427,427,427,427,427,427,427,427,427,427,427,427,1374,296,0,0,0,0,0,0,0,0,
65,65,0,0,0,0,296,1311,4789,4790,4790,4790,4790,4790,4790,4790,4790,4790,4790,4790,4790,4790,4790,4790,4791,1312,297,0,0,0,0,0,0,0,0,
65,65,0,0,0,0,2183,1343,4780,2140,2140,2140,2140,2140,2140,2140,2140,2140,2140,2140,2140,2140,2140,2141,4780,1344,329,0,0,0,0,0,0,0,0,
0,0,0,99,99,99,2215,1311,4784,2172,2172,2172,2172,2172,2172,2172,2172,2172,2172,2172,2172,2172,2172,2173,4784,1312,297,0,0,0,0,0,0,0,0,
0,0,0,131,131,131,328,1343,4784,2172,2172,2172,2172,2172,2172,2172,2172,2172,2172,2172,2172,2172,2172,2173,4784,1344,329,0,0,0,0,0,0,0,0,
0,0,0,163,163,163,1374,1311,4784,2172,2172,2172,2172,2172,2172,2172,2172,2172,2172,2172,2172,2172,2172,2173,4784,1312,264,0,0,0,0,0,0,0,0,
0,0,0,1062,1062,1062,1312,1343,4784,2172,2172,2172,2172,2172,2172,2172,2172,2172,2172,2172,2172,2172,2172,2173,4784,1344,329,0,0,0,0,0,0,0,0,
0,0,0,1063,1063,1063,1312,1311,4784,2172,2172,2172,2172,2172,2172,2172,2172,2172,2172,2172,2172,2172,2172,2173,4784,1312,297,0,0,99,99,99,0,0,0,
0,0,0,1063,1063,1063,1344,1343,4784,2172,2172,2172,2172,2172,2172,2172,2172,2172,2172,2172,2172,2172,2172,2173,4784,1344,329,99,99,131,131,131,0,0,0,
0,0,0,0,0,0,1376,1311,4784,2172,2172,2172,2172,2172,2172,2172,2172,2172,2172,2172,2172,2172,2172,2173,4784,1312,264,131,131,163,163,163,0,0,0,
0,0,0,0,0,0,328,1343,4784,2172,2172,2172,2172,2172,2172,2172,2172,2172,2172,2172,2172,2172,2172,2173,4784,1344,329,163,163,87,87,87,0,0,0,
0,0,0,0,0,265,2216,1311,4788,2172,2172,2172,2172,2172,2172,2172,2172,2172,2172,2172,2172,2172,2172,2173,4788,1312,69,265,1279,86,86,86,0,0,0,
0,0,0,0,0,297,328,1343,4789,4790,4790,4790,4790,4790,4790,4790,4790,4790,4790,4790,4790,4790,4790,4790,4791,1344,297,297,1311,86,86,86,0,0,0,
65,65,0,0,0,0,296,1375,357,357,357,393,357,393,357,357,357,357,357,393,357,357,357,393,357,1376,297,0,0,0,0,0,0,0,0,
65,65,0,0,0,0,328,329,297,296,297,296,297,296,297,296,297,296,297,296,297,296,297,296,297,328,329,0,0,0,0,0,0,0,0,
0,0,0,0,0,0,0,0,0,0,0,0,0,0,0,0,0,0,0,0,0,0,0,0,0,0,0,0,0,0,0,0,0,0,0
</data>
 </layer>
 <objectgroup id="2" name="Back">
  <object id="1" name="TileData" x="288" y="80" width="16" height="16">
   <properties>
    <property name="Type" value="Wood"/>
   </properties>
  </object>
  <object id="2" name="TileData" x="320" y="80" width="16" height="16">
   <properties>
    <property name="Type" value="Wood"/>
   </properties>
  </object>
  <object id="3" name="TileData" x="112" y="96" width="16" height="16">
   <properties>
    <property name="Type" value="Wood"/>
   </properties>
  </object>
  <object id="4" name="TileData" x="128" y="96" width="16" height="16">
   <properties>
    <property name="Type" value="Wood"/>
   </properties>
  </object>
  <object id="5" name="TileData" x="144" y="96" width="16" height="16">
   <properties>
    <property name="Type" value="Wood"/>
   </properties>
  </object>
  <object id="6" name="TileData" x="160" y="96" width="16" height="16">
   <properties>
    <property name="Type" value="Wood"/>
   </properties>
  </object>
  <object id="7" name="TileData" x="176" y="96" width="16" height="16">
   <properties>
    <property name="Type" value="Wood"/>
   </properties>
  </object>
  <object id="8" name="TileData" x="192" y="96" width="16" height="16">
   <properties>
    <property name="Type" value="Wood"/>
   </properties>
  </object>
  <object id="9" name="TileData" x="208" y="96" width="16" height="16">
   <properties>
    <property name="Type" value="Wood"/>
   </properties>
  </object>
  <object id="10" name="TileData" x="224" y="96" width="16" height="16">
   <properties>
    <property name="Type" value="Wood"/>
   </properties>
  </object>
  <object id="11" name="TileData" x="240" y="96" width="16" height="16">
   <properties>
    <property name="Type" value="Wood"/>
   </properties>
  </object>
  <object id="12" name="TileData" x="256" y="96" width="16" height="16">
   <properties>
    <property name="Type" value="Wood"/>
   </properties>
  </object>
  <object id="13" name="TileData" x="272" y="96" width="16" height="16">
   <properties>
    <property name="Type" value="Wood"/>
   </properties>
  </object>
  <object id="14" name="TileData" x="288" y="96" width="16" height="16">
   <properties>
    <property name="Type" value="Wood"/>
   </properties>
  </object>
  <object id="15" name="TileData" x="304" y="96" width="16" height="16">
   <properties>
    <property name="Type" value="Wood"/>
   </properties>
  </object>
  <object id="16" name="TileData" x="320" y="96" width="16" height="16">
   <properties>
    <property name="Type" value="Wood"/>
   </properties>
  </object>
  <object id="17" name="TileData" x="336" y="96" width="16" height="16">
   <properties>
    <property name="Type" value="Wood"/>
   </properties>
  </object>
  <object id="18" name="TileData" x="352" y="96" width="16" height="16">
   <properties>
    <property name="Type" value="Wood"/>
   </properties>
  </object>
  <object id="19" name="TileData" x="368" y="96" width="16" height="16">
   <properties>
    <property name="Type" value="Wood"/>
   </properties>
  </object>
  <object id="20" name="TileData" x="384" y="96" width="16" height="16">
   <properties>
    <property name="Type" value="Wood"/>
   </properties>
  </object>
  <object id="21" name="TileData" x="400" y="96" width="16" height="16">
   <properties>
    <property name="Type" value="Wood"/>
   </properties>
  </object>
  <object id="22" name="TileData" x="112" y="112" width="16" height="16">
   <properties>
    <property name="Type" value="Wood"/>
   </properties>
  </object>
  <object id="23" name="TileData" x="128" y="112" width="16" height="16">
   <properties>
    <property name="Type" value="Wood"/>
   </properties>
  </object>
  <object id="24" name="TileData" x="144" y="112" width="16" height="16">
   <properties>
    <property name="Type" value="Wood"/>
   </properties>
  </object>
  <object id="25" name="TileData" x="160" y="112" width="16" height="16">
   <properties>
    <property name="Type" value="Wood"/>
   </properties>
  </object>
  <object id="26" name="TileData" x="176" y="112" width="16" height="16">
   <properties>
    <property name="Type" value="Wood"/>
   </properties>
  </object>
  <object id="27" name="TileData" x="192" y="112" width="16" height="16">
   <properties>
    <property name="Type" value="Wood"/>
   </properties>
  </object>
  <object id="28" name="TileData" x="208" y="112" width="16" height="16">
   <properties>
    <property name="Type" value="Wood"/>
   </properties>
  </object>
  <object id="29" name="TileData" x="224" y="112" width="16" height="16">
   <properties>
    <property name="Type" value="Wood"/>
   </properties>
  </object>
  <object id="30" name="TileData" x="240" y="112" width="16" height="16">
   <properties>
    <property name="Type" value="Wood"/>
   </properties>
  </object>
  <object id="31" name="TileData" x="256" y="112" width="16" height="16">
   <properties>
    <property name="Type" value="Wood"/>
   </properties>
  </object>
  <object id="32" name="TileData" x="272" y="112" width="16" height="16">
   <properties>
    <property name="Type" value="Wood"/>
   </properties>
  </object>
  <object id="33" name="TileData" x="288" y="112" width="16" height="16">
   <properties>
    <property name="Type" value="Wood"/>
   </properties>
  </object>
  <object id="34" name="TileData" x="304" y="112" width="16" height="16">
   <properties>
    <property name="Type" value="Wood"/>
   </properties>
  </object>
  <object id="35" name="TileData" x="320" y="112" width="16" height="16">
   <properties>
    <property name="Type" value="Wood"/>
   </properties>
  </object>
  <object id="36" name="TileData" x="336" y="112" width="16" height="16">
   <properties>
    <property name="Type" value="Wood"/>
   </properties>
  </object>
  <object id="37" name="TileData" x="352" y="112" width="16" height="16">
   <properties>
    <property name="Type" value="Wood"/>
   </properties>
  </object>
  <object id="38" name="TileData" x="368" y="112" width="16" height="16">
   <properties>
    <property name="Type" value="Wood"/>
   </properties>
  </object>
  <object id="39" name="TileData" x="384" y="112" width="16" height="16">
   <properties>
    <property name="Type" value="Wood"/>
   </properties>
  </object>
  <object id="40" name="TileData" x="400" y="112" width="16" height="16">
   <properties>
    <property name="Type" value="Wood"/>
   </properties>
  </object>
  <object id="41" name="TileData" x="96" y="128" width="16" height="16">
   <properties>
    <property name="Type" value="Wood"/>
   </properties>
  </object>
  <object id="42" name="TileData" x="112" y="128" width="16" height="16">
   <properties>
    <property name="Type" value="Wood"/>
   </properties>
  </object>
  <object id="43" name="TileData" x="128" y="128" width="16" height="16">
   <properties>
    <property name="Type" value="Wood"/>
   </properties>
  </object>
  <object id="44" name="TileData" x="384" y="128" width="16" height="16">
   <properties>
    <property name="Type" value="Wood"/>
   </properties>
  </object>
  <object id="45" name="TileData" x="400" y="128" width="16" height="16">
   <properties>
    <property name="Type" value="Wood"/>
   </properties>
  </object>
  <object id="46" name="TileData" x="416" y="128" width="16" height="16">
   <properties>
    <property name="Type" value="Wood"/>
   </properties>
  </object>
  <object id="47" name="TileData" x="96" y="144" width="16" height="16">
   <properties>
    <property name="Type" value="Wood"/>
   </properties>
  </object>
  <object id="48" name="TileData" x="112" y="144" width="16" height="16">
   <properties>
    <property name="Type" value="Wood"/>
   </properties>
  </object>
  <object id="49" name="TileData" x="128" y="144" width="16" height="16">
   <properties>
    <property name="Type" value="Wood"/>
   </properties>
  </object>
  <object id="50" name="TileData" x="384" y="144" width="16" height="16">
   <properties>
    <property name="Type" value="Wood"/>
   </properties>
  </object>
  <object id="51" name="TileData" x="400" y="144" width="16" height="16">
   <properties>
    <property name="Type" value="Wood"/>
   </properties>
  </object>
  <object id="52" name="TileData" x="112" y="160" width="16" height="16">
   <properties>
    <property name="Type" value="Wood"/>
   </properties>
  </object>
  <object id="53" name="TileData" x="128" y="160" width="16" height="16">
   <properties>
    <property name="Type" value="Wood"/>
   </properties>
  </object>
  <object id="54" name="TileData" x="384" y="160" width="16" height="16">
   <properties>
    <property name="Type" value="Wood"/>
   </properties>
  </object>
  <object id="55" name="TileData" x="400" y="160" width="16" height="16">
   <properties>
    <property name="Type" value="Wood"/>
   </properties>
  </object>
  <object id="56" name="TileData" x="96" y="176" width="16" height="16">
   <properties>
    <property name="Type" value="Wood"/>
   </properties>
  </object>
  <object id="57" name="TileData" x="112" y="176" width="16" height="16">
   <properties>
    <property name="Type" value="Wood"/>
   </properties>
  </object>
  <object id="58" name="TileData" x="128" y="176" width="16" height="16">
   <properties>
    <property name="Type" value="Wood"/>
   </properties>
  </object>
  <object id="59" name="TileData" x="384" y="176" width="16" height="16">
   <properties>
    <property name="Type" value="Wood"/>
   </properties>
  </object>
  <object id="60" name="TileData" x="400" y="176" width="16" height="16">
   <properties>
    <property name="Type" value="Wood"/>
   </properties>
  </object>
  <object id="61" name="TileData" x="416" y="176" width="16" height="16">
   <properties>
    <property name="Type" value="Wood"/>
   </properties>
  </object>
  <object id="62" name="TileData" x="64" y="192" width="16" height="16">
   <properties>
    <property name="WaterSource" value="T"/>
   </properties>
  </object>
  <object id="63" name="TileData" x="80" y="192" width="16" height="16">
   <properties>
    <property name="WaterSource" value="T"/>
   </properties>
  </object>
  <object id="64" name="TileData" x="96" y="192" width="16" height="16">
   <properties>
    <property name="Type" value="Wood"/>
   </properties>
  </object>
  <object id="65" name="TileData" x="112" y="192" width="16" height="16">
   <properties>
    <property name="Type" value="Wood"/>
   </properties>
  </object>
  <object id="66" name="TileData" x="128" y="192" width="16" height="16">
   <properties>
    <property name="Type" value="Wood"/>
   </properties>
  </object>
  <object id="67" name="TileData" x="384" y="192" width="16" height="16">
   <properties>
    <property name="Type" value="Wood"/>
   </properties>
  </object>
  <object id="68" name="TileData" x="400" y="192" width="16" height="16">
   <properties>
    <property name="Type" value="Wood"/>
   </properties>
  </object>
  <object id="69" name="TileData" x="48" y="208" width="16" height="16">
   <properties>
    <property name="WaterSource" value="T"/>
   </properties>
  </object>
  <object id="70" name="TileData" x="64" y="208" width="16" height="16">
   <properties>
    <property name="Type" value="Stone"/>
   </properties>
  </object>
  <object id="71" name="TileData" x="80" y="208" width="16" height="16">
   <properties>
    <property name="Type" value="Stone"/>
   </properties>
  </object>
  <object id="72" name="TileData" x="96" y="208" width="16" height="16">
   <properties>
    <property name="Type" value="Wood"/>
   </properties>
  </object>
  <object id="73" name="TileData" x="112" y="208" width="16" height="16">
   <properties>
    <property name="Type" value="Wood"/>
   </properties>
  </object>
  <object id="74" name="TileData" x="128" y="208" width="16" height="16">
   <properties>
    <property name="Type" value="Wood"/>
   </properties>
  </object>
  <object id="75" name="TileData" x="384" y="208" width="16" height="16">
   <properties>
    <property name="Type" value="Wood"/>
   </properties>
  </object>
  <object id="76" name="TileData" x="400" y="208" width="16" height="16">
   <properties>
    <property name="Type" value="Wood"/>
   </properties>
  </object>
  <object id="77" name="TileData" x="48" y="224" width="16" height="16">
   <properties>
    <property name="Type" value="Stone"/>
   </properties>
  </object>
  <object id="78" name="TileData" x="64" y="224" width="16" height="16">
   <properties>
    <property name="Type" value="Stone"/>
   </properties>
  </object>
  <object id="79" name="TileData" x="80" y="224" width="16" height="16">
   <properties>
    <property name="Type" value="Stone"/>
   </properties>
  </object>
  <object id="80" name="TileData" x="112" y="224" width="16" height="16">
   <properties>
    <property name="Type" value="Wood"/>
   </properties>
  </object>
  <object id="81" name="TileData" x="128" y="224" width="16" height="16">
   <properties>
    <property name="Type" value="Wood"/>
   </properties>
  </object>
  <object id="82" name="TileData" x="384" y="224" width="16" height="16">
   <properties>
    <property name="Type" value="Wood"/>
   </properties>
  </object>
  <object id="83" name="TileData" x="400" y="224" width="16" height="16">
   <properties>
    <property name="Type" value="Wood"/>
   </properties>
  </object>
  <object id="84" name="TileData" x="416" y="224" width="16" height="16">
   <properties>
    <property name="Type" value="Wood"/>
   </properties>
  </object>
  <object id="85" name="TileData" x="96" y="240" width="16" height="16">
   <properties>
    <property name="Type" value="Wood"/>
   </properties>
  </object>
  <object id="86" name="TileData" x="112" y="240" width="16" height="16">
   <properties>
    <property name="Type" value="Wood"/>
   </properties>
  </object>
  <object id="87" name="TileData" x="128" y="240" width="16" height="16">
   <properties>
    <property name="Type" value="Wood"/>
   </properties>
  </object>
  <object id="88" name="TileData" x="384" y="240" width="16" height="16">
   <properties>
    <property name="Type" value="Wood"/>
   </properties>
  </object>
  <object id="89" name="TileData" x="400" y="240" width="16" height="16">
   <properties>
    <property name="Type" value="Wood"/>
   </properties>
  </object>
  <object id="90" name="TileData" x="416" y="240" width="16" height="16">
   <properties>
    <property name="Type" value="Wood"/>
   </properties>
  </object>
  <object id="91" name="TileData" x="112" y="256" width="16" height="16">
   <properties>
    <property name="Type" value="Wood"/>
   </properties>
  </object>
  <object id="92" name="TileData" x="128" y="256" width="16" height="16">
   <properties>
    <property name="Type" value="Wood"/>
   </properties>
  </object>
  <object id="93" name="TileData" x="384" y="256" width="16" height="16">
   <properties>
    <property name="Type" value="Wood"/>
   </properties>
  </object>
  <object id="94" name="TileData" x="400" y="256" width="16" height="16">
   <properties>
    <property name="Type" value="Wood"/>
   </properties>
  </object>
  <object id="95" name="TileData" x="416" y="256" width="16" height="16">
   <properties>
    <property name="Type" value="Wood"/>
   </properties>
  </object>
  <object id="96" name="TileData" x="480" y="256" width="16" height="16">
   <properties>
    <property name="WaterSource" value="T"/>
   </properties>
  </object>
  <object id="97" name="TileData" x="96" y="272" width="16" height="16">
   <properties>
    <property name="Type" value="Wood"/>
   </properties>
  </object>
  <object id="98" name="TileData" x="112" y="272" width="16" height="16">
   <properties>
    <property name="Type" value="Wood"/>
   </properties>
  </object>
  <object id="99" name="TileData" x="128" y="272" width="16" height="16">
   <properties>
    <property name="Type" value="Wood"/>
   </properties>
  </object>
  <object id="100" name="TileData" x="384" y="272" width="16" height="16">
   <properties>
    <property name="Type" value="Wood"/>
   </properties>
  </object>
  <object id="101" name="TileData" x="400" y="272" width="16" height="16">
   <properties>
    <property name="Type" value="Wood"/>
   </properties>
  </object>
  <object id="102" name="TileData" x="416" y="272" width="16" height="16">
   <properties>
    <property name="Type" value="Wood"/>
   </properties>
  </object>
  <object id="103" name="TileData" x="432" y="272" width="16" height="16">
   <properties>
    <property name="Type" value="Wood"/>
   </properties>
  </object>
  <object id="104" name="TileData" x="448" y="272" width="16" height="16">
   <properties>
    <property name="Type" value="Wood"/>
   </properties>
  </object>
  <object id="105" name="TileData" x="464" y="272" width="16" height="16">
   <properties>
    <property name="WaterSource" value="T"/>
   </properties>
  </object>
  <object id="106" name="TileData" x="480" y="272" width="16" height="16">
   <properties>
    <property name="Type" value="Stone"/>
   </properties>
  </object>
  <object id="107" name="TileData" x="496" y="272" width="16" height="16">
   <properties>
    <property name="Type" value="Stone"/>
   </properties>
  </object>
  <object id="108" name="TileData" x="112" y="288" width="16" height="16">
   <properties>
    <property name="Type" value="Wood"/>
   </properties>
  </object>
  <object id="109" name="TileData" x="128" y="288" width="16" height="16">
   <properties>
    <property name="Type" value="Wood"/>
   </properties>
  </object>
  <object id="110" name="TileData" x="144" y="288" width="16" height="16">
   <properties>
    <property name="Type" value="Wood"/>
   </properties>
  </object>
  <object id="111" name="TileData" x="160" y="288" width="16" height="16">
   <properties>
    <property name="Type" value="Wood"/>
   </properties>
  </object>
  <object id="112" name="TileData" x="176" y="288" width="16" height="16">
   <properties>
    <property name="Type" value="Wood"/>
   </properties>
  </object>
  <object id="113" name="TileData" x="192" y="288" width="16" height="16">
   <properties>
    <property name="Type" value="Wood"/>
   </properties>
  </object>
  <object id="114" name="TileData" x="208" y="288" width="16" height="16">
   <properties>
    <property name="Type" value="Wood"/>
   </properties>
  </object>
  <object id="115" name="TileData" x="224" y="288" width="16" height="16">
   <properties>
    <property name="Type" value="Wood"/>
   </properties>
  </object>
  <object id="116" name="TileData" x="240" y="288" width="16" height="16">
   <properties>
    <property name="Type" value="Wood"/>
   </properties>
  </object>
  <object id="117" name="TileData" x="256" y="288" width="16" height="16">
   <properties>
    <property name="Type" value="Wood"/>
   </properties>
  </object>
  <object id="118" name="TileData" x="272" y="288" width="16" height="16">
   <properties>
    <property name="Type" value="Wood"/>
   </properties>
  </object>
  <object id="119" name="TileData" x="288" y="288" width="16" height="16">
   <properties>
    <property name="Type" value="Wood"/>
   </properties>
  </object>
  <object id="120" name="TileData" x="304" y="288" width="16" height="16">
   <properties>
    <property name="Type" value="Wood"/>
   </properties>
  </object>
  <object id="121" name="TileData" x="320" y="288" width="16" height="16">
   <properties>
    <property name="Type" value="Wood"/>
   </properties>
  </object>
  <object id="122" name="TileData" x="336" y="288" width="16" height="16">
   <properties>
    <property name="Type" value="Wood"/>
   </properties>
  </object>
  <object id="123" name="TileData" x="352" y="288" width="16" height="16">
   <properties>
    <property name="Type" value="Wood"/>
   </properties>
  </object>
  <object id="124" name="TileData" x="368" y="288" width="16" height="16">
   <properties>
    <property name="Type" value="Wood"/>
   </properties>
  </object>
  <object id="125" name="TileData" x="384" y="288" width="16" height="16">
   <properties>
    <property name="Type" value="Wood"/>
   </properties>
  </object>
  <object id="126" name="TileData" x="400" y="288" width="16" height="16">
   <properties>
    <property name="Type" value="Wood"/>
   </properties>
  </object>
  <object id="127" name="TileData" x="416" y="288" width="16" height="16">
   <properties>
    <property name="Type" value="Wood"/>
   </properties>
  </object>
  <object id="128" name="TileData" x="432" y="288" width="16" height="16">
   <properties>
    <property name="Type" value="Wood"/>
   </properties>
  </object>
  <object id="129" name="TileData" x="448" y="288" width="16" height="16">
   <properties>
    <property name="Type" value="Wood"/>
   </properties>
  </object>
  <object id="130" name="TileData" x="464" y="288" width="16" height="16">
   <properties>
    <property name="Type" value="Stone"/>
   </properties>
  </object>
  <object id="131" name="TileData" x="480" y="288" width="16" height="16">
   <properties>
    <property name="Type" value="Stone"/>
   </properties>
  </object>
  <object id="132" name="TileData" x="496" y="288" width="16" height="16">
   <properties>
    <property name="Type" value="Stone"/>
   </properties>
  </object>
  <object id="133" name="TileData" x="96" y="304" width="16" height="16">
   <properties>
    <property name="Type" value="Wood"/>
   </properties>
  </object>
  <object id="134" name="TileData" x="112" y="304" width="16" height="16">
   <properties>
    <property name="Type" value="Wood"/>
   </properties>
  </object>
  <object id="135" name="TileData" x="128" y="304" width="16" height="16">
   <properties>
    <property name="Type" value="Wood"/>
   </properties>
  </object>
  <object id="136" name="TileData" x="144" y="304" width="16" height="16">
   <properties>
    <property name="Type" value="Wood"/>
   </properties>
  </object>
  <object id="137" name="TileData" x="160" y="304" width="16" height="16">
   <properties>
    <property name="Type" value="Wood"/>
   </properties>
  </object>
  <object id="138" name="TileData" x="176" y="304" width="16" height="16">
   <properties>
    <property name="Type" value="Wood"/>
   </properties>
  </object>
  <object id="139" name="TileData" x="192" y="304" width="16" height="16">
   <properties>
    <property name="Type" value="Wood"/>
   </properties>
  </object>
  <object id="140" name="TileData" x="208" y="304" width="16" height="16">
   <properties>
    <property name="Type" value="Wood"/>
   </properties>
  </object>
  <object id="141" name="TileData" x="224" y="304" width="16" height="16">
   <properties>
    <property name="Type" value="Wood"/>
   </properties>
  </object>
  <object id="142" name="TileData" x="240" y="304" width="16" height="16">
   <properties>
    <property name="Type" value="Wood"/>
   </properties>
  </object>
  <object id="143" name="TileData" x="256" y="304" width="16" height="16">
   <properties>
    <property name="Type" value="Wood"/>
   </properties>
  </object>
  <object id="144" name="TileData" x="272" y="304" width="16" height="16">
   <properties>
    <property name="Type" value="Wood"/>
   </properties>
  </object>
  <object id="145" name="TileData" x="288" y="304" width="16" height="16">
   <properties>
    <property name="Type" value="Wood"/>
   </properties>
  </object>
  <object id="146" name="TileData" x="304" y="304" width="16" height="16">
   <properties>
    <property name="Type" value="Wood"/>
   </properties>
  </object>
  <object id="147" name="TileData" x="320" y="304" width="16" height="16">
   <properties>
    <property name="Type" value="Wood"/>
   </properties>
  </object>
  <object id="148" name="TileData" x="336" y="304" width="16" height="16">
   <properties>
    <property name="Type" value="Wood"/>
   </properties>
  </object>
  <object id="149" name="TileData" x="352" y="304" width="16" height="16">
   <properties>
    <property name="Type" value="Wood"/>
   </properties>
  </object>
  <object id="150" name="TileData" x="368" y="304" width="16" height="16">
   <properties>
    <property name="Type" value="Wood"/>
   </properties>
  </object>
  <object id="151" name="TileData" x="384" y="304" width="16" height="16">
   <properties>
    <property name="Type" value="Wood"/>
   </properties>
  </object>
  <object id="152" name="TileData" x="400" y="304" width="16" height="16">
   <properties>
    <property name="Type" value="Wood"/>
   </properties>
  </object>
  <object id="153" name="TileData" x="128" y="320" width="16" height="16">
   <properties>
    <property name="Type" value="Wood"/>
   </properties>
  </object>
  <object id="154" name="TileData" x="176" y="320" width="16" height="16">
   <properties>
    <property name="Type" value="Wood"/>
   </properties>
  </object>
  <object id="155" name="TileData" x="192" y="320" width="16" height="16">
   <properties>
    <property name="Type" value="Wood"/>
   </properties>
  </object>
  <object id="156" name="TileData" x="256" y="320" width="16" height="16">
   <properties>
    <property name="Type" value="Wood"/>
   </properties>
  </object>
  <object id="157" name="TileData" x="272" y="320" width="16" height="16">
   <properties>
    <property name="Type" value="Wood"/>
   </properties>
  </object>
  <object id="158" name="TileData" x="288" y="320" width="16" height="16">
   <properties>
    <property name="Type" value="Wood"/>
   </properties>
  </object>
  <object id="159" name="TileData" x="304" y="320" width="16" height="16">
   <properties>
    <property name="Type" value="Wood"/>
   </properties>
  </object>
  <object id="160" name="TileData" x="352" y="320" width="16" height="16">
   <properties>
    <property name="Type" value="Wood"/>
   </properties>
  </object>
  <object id="161" name="TileData" x="384" y="320" width="16" height="16">
   <properties>
    <property name="Type" value="Wood"/>
   </properties>
  </object>
 </objectgroup>
 <layer id="3" name="Back2" width="35" height="22">
  <data encoding="csv">
0,0,0,0,0,0,0,0,0,0,0,0,0,0,0,0,0,0,0,0,0,0,0,0,0,0,0,0,0,0,0,0,0,0,0,
0,0,0,0,0,0,0,0,0,0,0,0,0,0,0,0,0,0,0,0,0,0,0,0,0,0,0,0,0,0,0,0,0,0,0,
0,0,0,0,0,0,0,0,0,0,0,0,0,0,0,0,0,0,0,0,0,0,0,0,0,0,0,0,0,0,0,0,0,0,0,
0,0,0,0,0,0,0,0,0,0,0,0,0,0,0,0,0,0,0,0,0,0,0,0,0,0,0,0,0,0,0,0,0,0,0,
0,0,0,0,0,0,0,0,0,0,0,0,0,0,0,0,0,0,0,0,0,0,0,0,0,0,0,0,0,0,0,0,0,0,0,
0,0,0,0,0,0,0,0,0,0,0,0,0,0,0,0,0,0,0,0,0,0,0,0,0,0,0,0,0,0,0,0,0,0,0,
0,0,0,0,0,0,1526,0,0,0,0,0,0,0,0,0,0,0,0,0,0,0,0,0,0,0,1525,0,0,0,0,0,0,0,0,
0,0,0,0,0,0,0,0,0,0,0,0,0,0,0,0,0,0,0,0,0,0,0,0,0,0,0,0,0,0,0,0,0,0,0,
0,0,0,0,0,0,0,0,0,0,0,0,0,0,0,0,0,0,0,0,0,0,0,0,0,0,0,0,0,0,0,0,0,0,0,
0,0,0,0,0,0,0,0,0,0,0,0,0,0,0,0,0,0,0,0,0,0,0,0,0,0,0,0,0,0,0,0,0,0,0,
0,0,0,0,0,0,0,0,0,0,0,0,0,0,0,0,0,0,0,0,0,0,0,0,0,0,0,0,0,0,0,0,0,0,0,
0,0,0,0,0,0,0,0,0,0,0,0,0,0,0,0,0,0,0,0,0,0,0,0,0,0,0,0,0,0,0,0,0,0,0,
0,0,0,0,0,0,0,0,0,0,0,0,0,0,0,0,0,0,0,0,0,0,0,0,0,0,0,0,0,0,0,0,0,0,0,
0,0,0,0,0,0,0,0,0,0,0,0,0,0,0,0,0,0,0,0,0,0,0,0,0,0,0,0,0,0,0,0,0,0,0,
0,0,0,0,0,0,0,0,0,0,0,0,0,0,0,0,0,0,0,0,0,0,0,0,0,0,0,0,0,0,0,0,0,0,0,
0,0,0,0,0,0,0,0,0,0,0,0,0,0,0,0,0,0,0,0,0,0,0,0,0,0,0,0,0,0,0,0,0,0,0,
0,0,0,0,0,0,0,0,0,0,0,0,0,0,0,0,0,0,0,0,0,0,0,0,0,0,0,0,0,0,0,0,0,0,0,
0,0,0,0,0,0,0,0,0,0,0,0,0,0,0,0,0,0,0,0,0,0,0,0,0,0,0,0,0,0,0,0,0,0,0,
0,0,0,0,0,0,0,0,0,0,0,0,0,0,0,0,0,0,0,0,0,0,0,0,0,0,0,0,0,0,0,0,0,0,0,
0,0,0,0,0,0,0,0,0,0,0,0,0,0,0,0,0,0,0,0,0,0,0,0,0,0,0,0,0,0,0,0,0,0,0,
0,0,0,0,0,0,0,0,0,0,0,0,0,0,0,0,0,0,0,0,0,0,0,0,0,0,0,0,0,0,0,0,0,0,0,
0,0,0,0,0,0,0,0,0,0,0,0,0,0,0,0,0,0,0,0,0,0,0,0,0,0,0,0,0,0,0,0,0,0,0
</data>
 </layer>
 <layer id="4" name="Buildings" width="35" height="22">
  <data encoding="csv">
65,65,65,65,65,65,66,67,67,67,67,2186,67,67,67,67,67,67,2186,67,67,67,67,67,2186,67,68,65,65,65,65,65,65,65,65,
65,65,65,65,65,97,98,0,0,0,0,0,0,0,0,0,0,0,0,0,0,0,0,0,0,0,100,101,65,65,65,65,65,65,65,
65,65,65,65,65,129,130,0,0,0,0,0,0,0,0,0,0,0,0,0,0,0,0,0,0,0,0,133,65,65,65,65,65,65,65,
65,65,65,65,65,2217,144,145,145,145,145,145,145,145,145,145,145,145,145,145,145,145,145,145,145,145,146,2218,65,65,65,65,65,65,65,
65,65,65,65,65,129,176,177,177,177,177,177,177,177,177,177,177,177,177,177,177,177,177,177,177,177,178,133,65,65,65,65,65,65,65,
65,65,65,65,65,129,208,6269,3364,8228,6640,6271,497,6278,8250,8249,8251,6220,0,6274,0,6639,6223,6270,498,5941,210,133,65,65,65,65,65,65,65,
65,65,65,65,65,2217,6268,0,0,0,0,0,0,0,0,0,0,0,0,0,0,0,0,0,0,0,5908,133,65,65,65,65,65,65,65,
0,0,65,65,65,129,6222,0,0,0,0,0,0,0,0,0,0,0,0,0,0,0,0,0,0,0,6273,2218,65,65,65,65,65,65,65,
65,0,74,67,2186,259,0,0,0,0,0,0,0,0,0,0,0,0,0,0,0,0,0,0,0,0,0,133,65,65,65,65,65,65,65,
65,65,129,0,0,220,0,0,0,0,0,0,0,0,0,0,0,0,0,0,0,0,0,0,0,0,6218,133,65,65,65,65,65,65,65,
65,65,129,145,145,252,0,0,0,0,0,0,0,0,0,0,0,0,0,0,0,0,0,0,0,0,2212,133,65,65,65,65,65,65,65,
65,65,129,177,177,284,3162,0,0,0,0,0,0,0,0,0,0,0,0,0,0,0,0,0,0,0,0,2218,65,65,65,65,65,65,65,
65,65,2217,11841,11791,11792,0,0,0,0,0,0,0,0,0,0,0,0,0,0,0,0,0,0,0,0,6275,133,74,67,2186,67,76,65,65,
65,65,129,0,0,0,0,0,0,0,0,0,0,0,0,0,0,0,0,0,0,0,0,0,0,0,2212,258,259,0,0,0,133,65,65,
65,65,161,0,0,0,0,0,0,0,0,0,0,0,0,0,0,0,0,0,0,0,0,0,0,0,2212,219,220,145,145,145,133,65,65,
65,65,65,65,65,129,0,0,0,0,0,0,0,0,0,0,0,0,0,0,0,0,0,0,0,0,0,251,252,177,177,177,2218,65,65,
65,65,65,65,65,129,6276,0,0,0,0,0,0,0,0,0,0,0,0,0,0,0,0,0,0,0,0,283,284,7940,0,7940,133,65,65,
65,65,65,65,65,129,0,0,0,0,0,0,0,0,0,0,0,0,0,0,0,0,0,0,0,0,0,0,0,0,0,0,133,65,65,
65,65,65,65,65,129,6272,0,0,0,0,0,0,0,0,0,0,0,0,0,0,0,0,0,0,0,0,0,0,0,0,0,195,65,65,
65,65,65,65,65,2217,0,0,0,0,0,0,0,0,0,0,0,0,0,0,0,0,0,0,0,0,2358,133,65,65,65,65,65,65,65,
0,65,65,65,65,225,6279,2212,0,8248,8249,0,0,2212,2212,1244,0,0,6221,0,3364,3339,0,466,0,465,0,232,65,65,65,65,65,65,65,
65,65,65,65,65,65,65,65,65,65,65,65,65,65,65,65,65,65,65,65,65,65,65,65,65,65,65,65,65,65,65,65,65,65,65
</data>
 </layer>
 <objectgroup id="5" name="Buildings">
  <object id="1" name="TileData" x="480" y="240" width="16" height="16">
   <properties>
    <property name="Action" value="Warp 25 14 Custom_GrandpasShed"/>
   </properties>
  </object>
 </objectgroup>
 <layer id="6" name="Buildings2" width="35" height="22">
  <data encoding="csv">
0,0,0,0,0,0,0,0,0,0,0,0,0,0,0,0,0,0,0,0,0,0,0,0,0,0,0,0,0,0,0,0,0,0,0,
0,0,0,0,0,0,0,0,0,0,0,0,0,0,0,0,0,0,0,0,0,0,0,0,0,0,0,0,0,0,0,0,0,0,0,
0,0,0,0,0,0,0,0,0,0,0,0,0,0,0,0,0,0,0,0,0,0,0,0,0,0,0,0,0,0,0,0,0,0,0,
0,0,0,0,0,0,0,0,0,0,0,0,0,0,0,0,0,0,0,0,0,0,0,0,0,0,0,0,0,0,0,0,0,0,0,
0,0,0,0,0,0,0,0,0,0,0,0,0,0,0,0,0,0,0,0,279,0,0,0,0,0,0,0,0,0,0,0,0,0,0,
0,0,0,0,0,0,0,0,0,0,0,0,0,0,0,0,0,0,0,0,0,0,0,0,0,0,0,0,0,0,0,0,0,0,0,
0,0,0,0,0,0,0,0,0,0,0,0,0,0,0,0,0,0,0,0,0,0,0,0,0,0,0,0,0,0,0,0,0,0,0,
0,0,0,0,0,0,0,0,0,0,0,0,0,0,0,0,0,0,0,0,0,0,0,0,0,0,0,0,0,0,0,0,0,0,0,
0,0,0,0,0,0,0,0,0,0,0,0,0,0,0,0,0,0,0,0,0,0,0,0,0,0,0,0,0,0,0,0,0,0,0,
0,0,0,0,0,0,0,0,0,0,0,0,0,0,0,0,0,0,0,0,0,0,0,0,0,0,0,0,0,0,0,0,0,0,0,
0,0,0,0,0,0,0,0,0,0,0,0,0,0,0,0,0,0,0,0,0,0,0,0,0,0,0,0,0,0,0,0,0,0,0,
0,0,0,0,0,0,0,0,0,0,0,0,0,0,0,0,0,0,0,0,0,0,0,0,0,0,0,0,0,0,0,0,0,0,0,
0,0,0,0,0,0,0,0,0,0,0,0,0,0,0,0,0,0,0,0,0,0,0,0,0,0,0,0,0,0,0,0,0,0,0,
0,0,0,0,0,0,0,0,0,0,0,0,0,0,0,0,0,0,0,0,0,0,0,0,0,0,2180,0,0,0,0,0,0,0,0,
0,0,0,0,0,0,0,0,0,0,0,0,0,0,0,0,0,0,0,0,0,0,0,0,0,0,0,0,0,0,1454,0,0,0,0,
0,0,0,0,0,0,0,0,0,0,0,0,0,0,0,0,0,0,0,0,0,0,0,0,0,0,0,0,0,0,1486,0,0,0,0,
0,0,0,0,0,0,0,0,0,0,0,0,0,0,0,0,0,0,0,0,0,0,0,0,0,0,0,0,0,0,0,0,0,0,0,
0,0,0,0,0,0,0,0,0,0,0,0,0,0,0,0,0,0,0,0,0,0,0,0,0,0,0,0,0,0,0,0,0,0,0,
0,0,0,0,0,0,0,0,0,0,0,0,0,0,0,0,0,0,0,0,0,0,0,0,0,0,0,0,0,0,0,0,0,0,0,
0,0,0,0,0,0,0,0,0,0,0,0,0,0,0,0,0,0,0,0,0,0,0,0,0,0,0,0,0,0,0,0,0,0,0,
0,0,0,0,0,0,0,0,0,0,0,0,0,0,0,0,0,0,0,0,0,0,0,0,0,0,0,0,0,0,0,0,0,0,0,
0,0,0,0,0,0,0,0,0,0,0,0,0,0,0,0,0,0,0,0,0,0,0,0,0,0,0,0,0,0,0,0,0,0,0
</data>
 </layer>
 <layer id="7" name="Paths" width="35" height="22">
  <data encoding="csv">
0,0,0,0,0,0,0,0,0,0,0,0,0,0,0,0,0,0,0,0,0,0,0,0,0,0,0,0,0,0,0,0,0,0,0,
0,0,0,0,0,0,0,0,0,0,0,0,0,0,0,0,0,0,0,0,0,0,0,0,0,0,0,0,0,0,0,0,0,0,0,
0,0,0,0,0,0,0,0,0,0,0,0,0,0,0,0,0,0,0,0,0,0,0,0,0,0,0,0,0,0,0,0,0,0,0,
0,0,0,0,0,0,0,0,0,0,0,0,0,0,0,0,0,0,0,0,0,0,0,0,0,0,0,0,0,0,0,0,0,0,0,
0,0,0,0,0,0,0,0,9,0,9,0,9,0,9,0,9,0,9,0,9,0,9,0,9,0,0,0,0,0,0,0,0,0,0,
0,0,0,0,0,0,0,0,0,0,0,0,0,0,0,0,0,0,0,0,0,0,0,0,0,0,0,0,0,0,0,0,0,0,0,
0,0,0,0,0,0,0,0,0,0,0,0,0,0,0,0,0,0,0,0,0,0,0,0,0,0,0,0,0,0,0,0,0,0,0,
0,0,0,0,0,0,0,0,9,0,0,0,0,0,0,9,0,9,0,0,0,0,0,0,9,0,0,0,0,0,0,0,0,0,0,
0,0,0,0,0,0,0,0,0,0,0,0,0,0,0,0,0,0,0,0,0,0,0,0,0,0,0,0,0,0,0,0,0,0,0,
0,0,0,0,0,0,0,0,0,0,0,0,0,0,0,0,0,0,0,0,0,0,0,0,0,0,0,0,0,0,0,0,0,0,0,
0,0,0,0,0,0,0,0,0,0,0,9,0,0,0,0,9,0,0,0,0,9,0,0,0,0,0,0,0,0,0,0,0,0,0,
0,0,0,0,9,0,0,0,0,0,0,0,0,0,0,0,0,0,0,0,0,0,0,0,0,0,0,0,0,0,0,0,0,0,0,
0,0,0,0,0,0,0,0,9,0,0,0,0,0,0,0,0,0,0,0,0,0,0,0,9,0,0,0,0,0,0,0,0,0,0,
0,0,0,0,9,0,0,0,9,0,0,0,0,0,0,0,0,0,0,0,0,0,0,0,9,0,0,0,0,0,0,0,0,0,0,
0,0,0,0,0,0,0,0,0,0,0,0,0,0,0,0,0,0,0,0,0,0,0,0,0,0,0,0,0,0,0,0,0,0,0,
0,0,0,0,0,0,0,0,0,0,0,9,0,0,0,0,9,0,0,0,0,9,0,0,0,0,0,0,0,0,0,0,0,0,0,
0,0,0,0,0,0,0,0,0,0,0,0,0,0,0,0,0,0,0,0,0,0,0,0,0,0,0,0,0,0,0,0,0,0,0,
0,0,0,0,0,0,0,0,0,0,0,0,0,0,0,0,0,0,0,0,0,0,0,0,0,0,0,9,0,0,9,0,0,0,0,
0,0,0,0,0,0,0,0,9,0,0,0,0,0,0,9,9,9,0,0,0,0,0,0,9,0,0,0,0,0,0,0,0,0,0,
0,0,0,0,0,0,0,0,0,0,0,0,0,0,0,0,0,0,0,0,0,0,0,0,0,0,0,0,0,0,0,0,0,0,0,
0,0,0,0,0,0,0,0,0,0,0,0,0,0,0,0,0,0,0,0,0,0,0,0,0,0,0,0,0,0,0,0,0,0,0,
0,0,0,0,0,0,0,0,0,0,0,0,0,0,0,0,0,0,0,0,0,0,0,0,0,0,0,0,0,0,0,0,0,0,0
</data>
 </layer>
 <layer id="8" name="Front" width="35" height="22">
  <data encoding="csv">
0,0,0,0,0,0,0,0,0,0,0,0,0,0,0,0,0,0,0,0,0,0,0,0,0,0,0,0,0,0,0,0,0,0,0,
0,0,0,0,0,0,0,6674,6674,6674,6674,6674,6674,6674,6674,6674,6674,6674,6674,6674,6674,6674,6674,6674,6674,6674,0,0,0,0,0,0,0,0,0,
0,0,0,0,0,0,0,0,321,0,321,14825,321,0,321,0,321,0,321,0,321,0,321,0,321,5845,0,0,0,0,0,0,0,0,0,
0,0,0,0,0,0,0,0,353,0,353,14857,353,0,353,0,353,6156,353,0,353,0,353,0,353,5877,0,0,0,0,0,0,0,0,0,
0,0,0,0,0,0,0,6237,0,8220,6608,6239,0,6246,8242,8241,8243,6188,0,6242,0,6607,0,6238,0,5909,0,0,0,0,0,0,0,0,0,
0,0,0,0,0,0,6236,0,0,0,0,0,0,0,0,0,0,0,0,0,0,0,0,0,0,0,5876,0,0,0,0,0,0,0,0,
0,0,0,0,0,0,0,0,0,0,0,0,0,0,0,0,0,0,0,0,0,0,0,0,0,0,6241,0,0,0,0,0,0,0,0,
0,0,0,0,0,0,0,0,0,0,0,0,0,0,0,0,0,0,0,0,0,0,0,0,0,0,0,0,0,0,0,0,0,0,0,
0,0,0,0,0,0,0,0,0,0,0,0,0,0,0,0,0,0,0,0,0,0,0,0,0,0,6186,0,0,0,0,0,0,0,0,
0,0,0,0,321,0,0,0,0,0,0,0,0,0,0,0,0,0,0,0,0,0,0,0,0,0,2180,0,0,0,0,0,0,0,0,
0,0,0,0,353,0,3137,0,0,0,0,0,0,0,0,0,0,0,0,0,0,0,0,0,0,0,0,0,0,0,0,0,0,0,0,
0,0,0,0,11818,11819,0,0,0,0,0,0,0,0,0,0,0,0,0,0,0,0,0,0,0,0,6243,0,0,0,0,0,0,0,0,
0,0,0,0,0,0,0,0,0,0,0,0,0,0,0,0,0,0,0,0,0,0,0,0,0,0,2180,0,0,0,0,0,0,0,0,
0,0,0,0,0,0,0,0,0,0,0,0,0,0,0,0,0,0,0,0,0,0,0,0,0,0,3339,0,0,6674,6674,6674,0,0,0,
0,0,0,261,2185,227,0,0,0,0,0,0,0,0,0,0,0,0,0,0,0,0,0,0,0,0,0,6674,6674,0,0,0,0,0,0,
0,0,0,0,0,0,6244,0,0,0,0,0,0,0,0,0,0,0,0,0,0,0,0,0,0,0,0,280,0,7932,0,7932,0,0,0,
0,0,0,0,0,0,0,0,0,0,0,0,0,0,0,0,0,0,0,0,0,0,0,0,0,0,0,0,0,0,0,0,0,0,0,
0,0,0,0,0,0,6240,0,0,0,0,0,0,0,0,0,0,0,0,0,0,0,0,0,0,0,0,0,0,0,0,0,0,0,0,
0,0,0,0,0,0,0,0,0,0,0,0,0,0,0,0,0,0,0,0,0,0,0,0,0,0,0,228,230,2185,230,230,0,0,0,
0,0,0,0,0,0,6247,2180,0,8240,8241,0,0,2180,2180,0,0,0,6189,0,0,0,0,434,0,433,0,0,0,0,0,0,0,0,0,
0,0,0,0,0,0,226,262,260,261,262,260,261,262,260,261,262,260,261,262,260,261,262,260,261,262,231,0,0,0,0,0,0,0,0,
0,0,0,0,0,0,0,0,0,0,0,0,0,0,0,0,0,0,0,0,0,0,0,0,0,0,0,0,0,0,0,0,0,0,0
</data>
 </layer>
 <layer id="9" name="AlwaysFront" width="35" height="22">
  <data encoding="csv">
0,0,0,0,0,0,0,0,0,0,0,0,0,0,0,0,0,0,0,0,0,0,0,0,0,0,0,0,0,0,0,0,0,0,0,
0,0,0,0,0,0,0,0,0,0,0,0,0,0,0,0,0,0,0,0,0,0,0,0,0,0,0,0,0,0,0,0,0,0,0,
0,0,0,0,0,0,0,0,0,0,0,0,0,0,0,0,0,0,0,0,0,0,0,0,0,0,0,0,0,0,0,0,0,0,0,
0,0,0,0,0,0,0,0,0,0,0,0,0,0,0,0,0,0,0,0,0,0,0,0,0,0,0,0,0,0,0,0,0,0,0,
0,0,0,0,0,0,0,0,0,0,0,0,0,0,0,0,0,0,0,0,0,0,0,0,0,0,5844,0,0,0,0,0,0,0,0,
0,0,0,0,0,0,0,0,0,0,0,0,0,0,0,0,0,0,0,0,0,0,0,0,0,0,0,0,0,0,0,0,0,0,0,
0,0,0,0,0,0,0,0,0,0,0,0,0,0,0,0,0,0,0,0,0,0,0,0,0,0,0,0,0,0,0,0,0,0,0,
0,0,0,0,0,0,0,0,0,0,0,0,0,0,0,0,0,0,0,0,0,0,0,0,0,0,6154,0,0,0,0,0,0,0,0,
0,0,0,0,0,0,0,0,0,0,0,0,0,0,0,0,0,0,0,0,0,0,0,0,0,0,0,0,0,0,0,0,0,0,0,
0,0,0,0,0,0,3112,0,0,0,0,0,0,0,0,0,0,0,0,0,0,0,0,0,0,0,0,0,0,0,0,0,0,0,0,
0,0,0,0,0,0,0,0,0,0,0,0,0,0,0,0,0,0,0,0,0,0,0,0,0,0,0,0,0,0,0,0,0,0,0,
0,0,0,0,0,0,0,0,0,0,0,0,0,0,0,0,0,0,0,0,0,0,0,0,0,0,0,0,0,0,0,0,0,0,0,
0,0,0,0,0,0,0,0,0,0,0,0,0,0,0,0,0,0,0,0,0,0,0,0,0,0,0,0,0,0,0,0,0,0,0,
0,0,0,0,0,0,0,0,0,0,0,0,0,0,0,0,0,0,0,0,0,0,0,0,0,0,0,0,0,0,0,0,0,0,0,
0,0,0,0,0,0,0,0,0,0,0,0,0,0,0,0,0,0,0,0,0,0,0,0,0,0,0,0,0,0,0,0,0,0,0,
0,0,0,0,0,0,0,0,0,0,0,0,0,0,0,0,0,0,0,0,0,0,0,0,0,0,0,0,0,0,0,0,0,0,0,
0,0,0,0,0,0,0,0,0,0,0,0,0,0,0,0,0,0,0,0,0,0,0,0,0,0,0,0,0,0,0,0,0,0,0,
0,0,0,0,0,0,0,0,0,0,0,0,0,0,0,0,0,0,0,0,0,0,0,0,0,0,0,0,0,0,0,0,0,0,0,
0,0,0,0,0,0,0,0,0,0,0,0,0,0,0,0,0,0,6157,0,0,0,0,0,400,401,402,0,0,0,0,0,0,0,0,
0,0,0,0,0,0,0,0,0,0,0,0,0,0,0,0,0,0,0,0,0,0,0,0,0,0,0,0,0,0,0,0,0,0,0,
0,0,0,0,0,0,0,0,0,0,0,0,0,0,0,0,0,0,0,0,0,0,0,0,0,0,0,0,0,0,0,0,0,0,0,
0,0,0,0,0,0,0,0,0,0,0,0,0,0,0,0,0,0,0,0,0,0,0,0,0,0,0,0,0,0,0,0,0,0,0
</data>
 </layer>
</map>
