<?xml version="1.0" encoding="UTF-8"?>
<map version="1.10" tiledversion="1.11.1" orientation="orthogonal" renderorder="right-down" width="32" height="18" tilewidth="16" tileheight="16" infinite="0" nextlayerid="10" nextobjectid="1">
 <properties>
  <property name="AmbientLight" value="90 90 90"/>
  <property name="CanCaskHere" value="T"/>
  <property name="DayTiles" value="Front 4 1 256 Front 4 2 288 Front 8 1 256 Front 8 2 288 Front 13 1 256 Front 13 2 288 Front 18 1 256 Front 18 2 288 Front 23 1 256 Front 23 2 288 Front 27 1 256 Front 27 2 288"/>
  <property name="NightTiles" value="Front 4 1 1253 Front 4 2 1285 Front 8 1 1253 Front 8 2 1285 Front 13 1 1253 Front 13 2 1285 Front 18 1 1253 Front 18 2 1285 Front 23 1 1253 Front 23 2 1285 Front 27 1 1253 Front 27 2 1285"/>
  <property name="Warp" value="-20 -20 Farm 69 14"/>
 </properties>
 <tileset firstgid="1" name="paths" tilewidth="16" tileheight="16" tilecount="64" columns="4">
  <image source="paths.png" width="64" height="256"/>
 </tileset>
 <tileset firstgid="65" name="untitled tile sheet" tilewidth="16" tileheight="16" tilecount="2176" columns="32">
  <image source="townInterior.png" width="512" height="1088"/>
  <tile id="1885">
   <properties>
    <property name="Type" value="Wood"/>
   </properties>
  </tile>
  <tile id="1887">
   <properties>
    <property name="Type" value="Stone"/>
   </properties>
  </tile>
  <tile id="1945">
   <properties>
    <property name="Type" value="Stone"/>
   </properties>
  </tile>
  <tile id="1946">
   <properties>
    <property name="Diggable" value="T"/>
    <property name="Type" value="Dirt"/>
   </properties>
  </tile>
  <tile id="2075">
   <properties>
    <property name="Diggable" value="T"/>
    <property name="Type" value="Dirt"/>
   </properties>
  </tile>
  <tile id="2076">
   <properties>
    <property name="Diggable" type="bool" value="true"/>
    <property name="Type" value="Dirt"/>
   </properties>
  </tile>
  <tile id="2078">
   <properties>
    <property name="Type" value="Wood"/>
   </properties>
  </tile>
  <tile id="2079">
   <properties>
    <property name="Type" value="Wood"/>
   </properties>
  </tile>
  <tile id="2106">
   <properties>
    <property name="Type" value="Wood"/>
   </properties>
  </tile>
  <tile id="2107">
   <properties>
    <property name="Diggable" value="T"/>
    <property name="Type" value="Dirt"/>
   </properties>
  </tile>
  <tile id="2108">
   <properties>
    <property name="Diggable" value="T"/>
    <property name="Type" value="Dirt"/>
   </properties>
  </tile>
  <tile id="2109">
   <properties>
    <property name="Type" value="Stone"/>
   </properties>
  </tile>
 </tileset>
 <tileset firstgid="2241" name="VanillaCraftables" tilewidth="16" tileheight="16" tilecount="576" columns="8">
  <image source="VanillaCraftables.png" width="128" height="1152"/>
 </tileset>
 <tileset firstgid="2817" name="1" tilewidth="16" tileheight="16" tilecount="2176" columns="32">
  <image source="townInterior" width="512" height="1088"/>
 </tileset>
 <tileset firstgid="4993" name="z_SVEbuildingShadow" tilewidth="16" tileheight="16" tilecount="600" columns="24">
  <image source="z_SVEbuildingShadow.png" width="384" height="400"/>
 </tileset>
 <tileset firstgid="5593" name="townInterior_2" tilewidth="16" tileheight="16" tilecount="1312" columns="32">
  <image source="townInterior_2.png" width="512" height="656"/>
 </tileset>
 <layer id="1" name="Back" width="32" height="18">
  <data encoding="csv">
65,65,65,0,0,0,0,0,0,0,0,0,0,0,0,0,0,0,0,0,0,0,0,0,0,0,0,0,0,99,0,0,
65,65,65,0,0,0,0,0,0,0,0,0,0,0,0,0,0,0,0,0,0,0,0,0,0,0,99,99,99,99,132,0,
65,130,131,131,131,131,131,131,131,131,131,131,131,131,131,131,131,131,131,131,131,131,131,131,131,131,131,131,131,131,132,0,
65,162,65,177,177,0,0,0,0,0,0,0,0,0,0,0,0,0,0,0,0,0,0,0,0,0,0,177,177,1062,164,0,
65,3745,264,1062,1062,1062,1062,1062,1062,1062,4527,1062,1062,1062,1062,1062,1062,1062,1062,4527,1062,1062,3391,3391,1062,1062,1062,2183,3017,3016,3047,0,
65,1063,1062,1063,1063,1063,1063,1063,1063,1063,1063,1062,1063,1063,1063,1063,1063,1063,1063,1063,1062,1063,5646,3423,1063,1063,1063,2215,2183,3017,3049,0,
65,1063,1063,1063,1063,1063,1063,1063,1063,1063,1063,1063,1063,1063,1063,1063,1063,1063,1063,1063,1063,1063,5646,3391,1063,1063,1063,3080,2215,3080,3081,0,
65,1063,1063,1063,1063,1063,1063,1063,1063,1063,1063,1063,1063,1063,1063,1063,1063,1063,1063,1063,1063,1063,5646,4962,1063,1063,1063,3048,4936,2821,3049,0,
65,1063,1063,1063,1063,1063,1063,1063,1063,1063,1063,1063,1063,1063,1063,1063,1063,1063,1063,1063,1063,1063,5646,3456,1063,1063,1063,3080,4968,3080,3081,0,
65,1063,1063,1063,1063,1063,1063,1063,1063,1063,1063,1063,1063,1063,1063,1063,1063,1063,1063,1063,1063,1063,5646,3424,1063,1063,1063,1063,1063,296,1063,0,
65,1063,1063,1063,1063,1063,1063,1063,1063,1063,1063,1063,1063,1063,1063,1063,1063,1063,1063,1063,1063,1063,5646,3456,1063,1063,1063,99,99,2183,99,0,
65,1063,1063,1063,1063,1063,1063,1063,1063,1063,1063,1063,1063,1063,1063,1063,1063,1063,1063,1063,1063,1063,5646,3424,99,99,99,131,131,2215,131,0,
65,1063,1063,1063,1063,1063,1063,1063,1063,1063,1063,1063,1063,1063,1063,1063,1063,1063,1063,1063,1063,1063,5646,3456,131,131,131,2929,2929,3179,1063,0,
65,1063,1063,1063,1063,1063,1063,1063,1063,1063,1063,1063,1063,1063,1063,1063,1063,1063,1063,1063,1063,1063,5646,3423,1063,1063,1063,3391,3392,3391,3392,0,
65,767,735,767,735,767,735,767,735,767,735,767,735,767,735,767,735,767,735,767,735,767,5710,3455,3391,3392,3391,3392,3391,4410,3424,3392,
65,3455,3456,4377,3456,671,703,671,671,703,671,703,4377,671,1214,1215,1215,1216,703,671,703,671,703,671,3423,3424,3423,3455,3456,3455,3456,3424,
65,703,703,703,703,703,703,703,703,703,703,703,703,703,1246,1247,1247,1248,703,703,703,703,703,703,3455,3456,3455,3456,3455,3456,3455,3456,
0,0,0,0,0,0,0,0,0,0,0,0,0,0,0,703,671,0,0,0,0,0,0,0,0,0,0,0,0,0,0,0
</data>
 </layer>
 <objectgroup id="2" name="Back">
  <object id="1" name="TileData" x="48" y="64" width="16" height="16">
   <properties>
    <property name="WaterSource" value="T"/>
   </properties>
  </object>
  <object id="2" name="TileData" x="64" y="64" width="16" height="16">
   <properties>
    <property name="Type" value="Stone"/>
   </properties>
  </object>
  <object id="3" name="TileData" x="80" y="64" width="16" height="16">
   <properties>
    <property name="Type" value="Stone"/>
   </properties>
  </object>
  <object id="4" name="TileData" x="96" y="64" width="16" height="16">
   <properties>
    <property name="WaterSource" value="T"/>
   </properties>
  </object>
  <object id="5" name="TileData" x="112" y="64" width="16" height="16">
   <properties>
    <property name="Type" value="Stone"/>
   </properties>
  </object>
  <object id="6" name="TileData" x="128" y="64" width="16" height="16">
   <properties>
    <property name="Type" value="Stone"/>
   </properties>
  </object>
  <object id="7" name="TileData" x="144" y="64" width="16" height="16">
   <properties>
    <property name="Type" value="Stone"/>
   </properties>
  </object>
  <object id="8" name="TileData" x="160" y="64" width="16" height="16">
   <properties>
    <property name="Type" value="Stone"/>
   </properties>
  </object>
  <object id="9" name="TileData" x="192" y="64" width="16" height="16">
   <properties>
    <property name="WaterSource" value="T"/>
   </properties>
  </object>
  <object id="10" name="TileData" x="208" y="64" width="16" height="16">
   <properties>
    <property name="Type" value="Stone"/>
   </properties>
  </object>
  <object id="11" name="TileData" x="224" y="64" width="16" height="16">
   <properties>
    <property name="Type" value="Stone"/>
   </properties>
  </object>
  <object id="12" name="TileData" x="240" y="64" width="16" height="16">
   <properties>
    <property name="WaterSource" value="T"/>
   </properties>
  </object>
  <object id="13" name="TileData" x="256" y="64" width="16" height="16">
   <properties>
    <property name="Type" value="Stone"/>
   </properties>
  </object>
  <object id="14" name="TileData" x="272" y="64" width="16" height="16">
   <properties>
    <property name="Type" value="Stone"/>
   </properties>
  </object>
  <object id="15" name="TileData" x="288" y="64" width="16" height="16">
   <properties>
    <property name="Type" value="Stone"/>
   </properties>
  </object>
  <object id="16" name="TileData" x="304" y="64" width="16" height="16">
   <properties>
    <property name="Type" value="Stone"/>
   </properties>
  </object>
  <object id="17" name="TileData" x="16" y="80" width="16" height="16">
   <properties>
    <property name="WaterSource" value="T"/>
   </properties>
  </object>
  <object id="18" name="TileData" x="32" y="80" width="16" height="16">
   <properties>
    <property name="Type" value="Stone"/>
   </properties>
  </object>
  <object id="19" name="TileData" x="48" y="80" width="16" height="16">
   <properties>
    <property name="Type" value="Stone"/>
   </properties>
  </object>
  <object id="20" name="TileData" x="64" y="80" width="16" height="16">
   <properties>
    <property name="WaterSource" value="T"/>
   </properties>
  </object>
  <object id="21" name="TileData" x="80" y="80" width="16" height="16">
   <properties>
    <property name="Type" value="Stone"/>
   </properties>
  </object>
  <object id="22" name="TileData" x="96" y="80" width="16" height="16">
   <properties>
    <property name="Type" value="Stone"/>
   </properties>
  </object>
  <object id="23" name="TileData" x="112" y="80" width="16" height="16">
   <properties>
    <property name="WaterSource" value="T"/>
   </properties>
  </object>
  <object id="24" name="TileData" x="128" y="80" width="16" height="16">
   <properties>
    <property name="Type" value="Stone"/>
   </properties>
  </object>
  <object id="25" name="TileData" x="144" y="80" width="16" height="16">
   <properties>
    <property name="Type" value="Stone"/>
   </properties>
  </object>
  <object id="26" name="TileData" x="160" y="80" width="16" height="16">
   <properties>
    <property name="WaterSource" value="T"/>
   </properties>
  </object>
  <object id="27" name="TileData" x="176" y="80" width="16" height="16">
   <properties>
    <property name="Type" value="Stone"/>
   </properties>
  </object>
  <object id="28" name="TileData" x="192" y="80" width="16" height="16">
   <properties>
    <property name="Type" value="Stone"/>
   </properties>
  </object>
  <object id="29" name="TileData" x="208" y="80" width="16" height="16">
   <properties>
    <property name="WaterSource" value="T"/>
   </properties>
  </object>
  <object id="30" name="TileData" x="224" y="80" width="16" height="16">
   <properties>
    <property name="Type" value="Stone"/>
   </properties>
  </object>
  <object id="31" name="TileData" x="240" y="80" width="16" height="16">
   <properties>
    <property name="Type" value="Stone"/>
   </properties>
  </object>
  <object id="32" name="TileData" x="256" y="80" width="16" height="16">
   <properties>
    <property name="WaterSource" value="T"/>
   </properties>
  </object>
  <object id="33" name="TileData" x="272" y="80" width="16" height="16">
   <properties>
    <property name="Type" value="Stone"/>
   </properties>
  </object>
  <object id="34" name="TileData" x="288" y="80" width="16" height="16">
   <properties>
    <property name="Type" value="Stone"/>
   </properties>
  </object>
  <object id="35" name="TileData" x="304" y="80" width="16" height="16">
   <properties>
    <property name="WaterSource" value="T"/>
   </properties>
  </object>
  <object id="36" name="TileData" x="320" y="80" width="16" height="16">
   <properties>
    <property name="Type" value="Stone"/>
   </properties>
  </object>
  <object id="37" name="TileData" x="336" y="80" width="16" height="16">
   <properties>
    <property name="Type" value="Stone"/>
   </properties>
  </object>
  <object id="38" name="TileData" x="16" y="96" width="16" height="16">
   <properties>
    <property name="Type" value="Stone"/>
   </properties>
  </object>
  <object id="39" name="TileData" x="32" y="96" width="16" height="16">
   <properties>
    <property name="Type" value="Stone"/>
   </properties>
  </object>
  <object id="40" name="TileData" x="48" y="96" width="16" height="16">
   <properties>
    <property name="Type" value="Stone"/>
   </properties>
  </object>
  <object id="41" name="TileData" x="64" y="96" width="16" height="16">
   <properties>
    <property name="Type" value="Stone"/>
   </properties>
  </object>
  <object id="42" name="TileData" x="80" y="96" width="16" height="16">
   <properties>
    <property name="Type" value="Stone"/>
   </properties>
  </object>
  <object id="43" name="TileData" x="96" y="96" width="16" height="16">
   <properties>
    <property name="Type" value="Stone"/>
   </properties>
  </object>
  <object id="44" name="TileData" x="112" y="96" width="16" height="16">
   <properties>
    <property name="Type" value="Stone"/>
   </properties>
  </object>
  <object id="45" name="TileData" x="128" y="96" width="16" height="16">
   <properties>
    <property name="Type" value="Stone"/>
   </properties>
  </object>
  <object id="46" name="TileData" x="144" y="96" width="16" height="16">
   <properties>
    <property name="Type" value="Stone"/>
   </properties>
  </object>
  <object id="47" name="TileData" x="160" y="96" width="16" height="16">
   <properties>
    <property name="Type" value="Stone"/>
   </properties>
  </object>
  <object id="48" name="TileData" x="176" y="96" width="16" height="16">
   <properties>
    <property name="Type" value="Stone"/>
   </properties>
  </object>
  <object id="49" name="TileData" x="192" y="96" width="16" height="16">
   <properties>
    <property name="Type" value="Stone"/>
   </properties>
  </object>
  <object id="50" name="TileData" x="208" y="96" width="16" height="16">
   <properties>
    <property name="Type" value="Stone"/>
   </properties>
  </object>
  <object id="51" name="TileData" x="224" y="96" width="16" height="16">
   <properties>
    <property name="Type" value="Stone"/>
   </properties>
  </object>
  <object id="52" name="TileData" x="240" y="96" width="16" height="16">
   <properties>
    <property name="Type" value="Stone"/>
   </properties>
  </object>
  <object id="53" name="TileData" x="256" y="96" width="16" height="16">
   <properties>
    <property name="Type" value="Stone"/>
   </properties>
  </object>
  <object id="54" name="TileData" x="272" y="96" width="16" height="16">
   <properties>
    <property name="Type" value="Stone"/>
   </properties>
  </object>
  <object id="55" name="TileData" x="288" y="96" width="16" height="16">
   <properties>
    <property name="Type" value="Stone"/>
   </properties>
  </object>
  <object id="56" name="TileData" x="304" y="96" width="16" height="16">
   <properties>
    <property name="Type" value="Stone"/>
   </properties>
  </object>
  <object id="57" name="TileData" x="320" y="96" width="16" height="16">
   <properties>
    <property name="Type" value="Stone"/>
   </properties>
  </object>
  <object id="58" name="TileData" x="336" y="96" width="16" height="16">
   <properties>
    <property name="Type" value="Stone"/>
   </properties>
  </object>
  <object id="59" name="TileData" x="16" y="112" width="16" height="16">
   <properties>
    <property name="WaterSource" value="T"/>
   </properties>
  </object>
  <object id="60" name="TileData" x="32" y="112" width="16" height="16">
   <properties>
    <property name="Type" value="Stone"/>
   </properties>
  </object>
  <object id="61" name="TileData" x="48" y="112" width="16" height="16">
   <properties>
    <property name="Type" value="Stone"/>
   </properties>
  </object>
  <object id="62" name="TileData" x="64" y="112" width="16" height="16">
   <properties>
    <property name="WaterSource" value="T"/>
   </properties>
  </object>
  <object id="63" name="TileData" x="80" y="112" width="16" height="16">
   <properties>
    <property name="Type" value="Stone"/>
   </properties>
  </object>
  <object id="64" name="TileData" x="96" y="112" width="16" height="16">
   <properties>
    <property name="Type" value="Stone"/>
   </properties>
  </object>
  <object id="65" name="TileData" x="112" y="112" width="16" height="16">
   <properties>
    <property name="WaterSource" value="T"/>
   </properties>
  </object>
  <object id="66" name="TileData" x="128" y="112" width="16" height="16">
   <properties>
    <property name="Type" value="Stone"/>
   </properties>
  </object>
  <object id="67" name="TileData" x="144" y="112" width="16" height="16">
   <properties>
    <property name="Type" value="Stone"/>
   </properties>
  </object>
  <object id="68" name="TileData" x="160" y="112" width="16" height="16">
   <properties>
    <property name="WaterSource" value="T"/>
   </properties>
  </object>
  <object id="69" name="TileData" x="176" y="112" width="16" height="16">
   <properties>
    <property name="Type" value="Stone"/>
   </properties>
  </object>
  <object id="70" name="TileData" x="192" y="112" width="16" height="16">
   <properties>
    <property name="Type" value="Stone"/>
   </properties>
  </object>
  <object id="71" name="TileData" x="208" y="112" width="16" height="16">
   <properties>
    <property name="WaterSource" value="T"/>
   </properties>
  </object>
  <object id="72" name="TileData" x="224" y="112" width="16" height="16">
   <properties>
    <property name="Type" value="Stone"/>
   </properties>
  </object>
  <object id="73" name="TileData" x="240" y="112" width="16" height="16">
   <properties>
    <property name="Type" value="Stone"/>
   </properties>
  </object>
  <object id="74" name="TileData" x="256" y="112" width="16" height="16">
   <properties>
    <property name="WaterSource" value="T"/>
   </properties>
  </object>
  <object id="75" name="TileData" x="272" y="112" width="16" height="16">
   <properties>
    <property name="Type" value="Stone"/>
   </properties>
  </object>
  <object id="76" name="TileData" x="288" y="112" width="16" height="16">
   <properties>
    <property name="Type" value="Stone"/>
   </properties>
  </object>
  <object id="77" name="TileData" x="304" y="112" width="16" height="16">
   <properties>
    <property name="WaterSource" value="T"/>
   </properties>
  </object>
  <object id="78" name="TileData" x="320" y="112" width="16" height="16">
   <properties>
    <property name="Type" value="Stone"/>
   </properties>
  </object>
  <object id="79" name="TileData" x="336" y="112" width="16" height="16">
   <properties>
    <property name="Type" value="Stone"/>
   </properties>
  </object>
  <object id="80" name="TileData" x="16" y="128" width="16" height="16">
   <properties>
    <property name="Type" value="Stone"/>
   </properties>
  </object>
  <object id="81" name="TileData" x="32" y="128" width="16" height="16">
   <properties>
    <property name="Type" value="Stone"/>
   </properties>
  </object>
  <object id="82" name="TileData" x="48" y="128" width="16" height="16">
   <properties>
    <property name="Type" value="Stone"/>
   </properties>
  </object>
  <object id="83" name="TileData" x="64" y="128" width="16" height="16">
   <properties>
    <property name="Type" value="Stone"/>
   </properties>
  </object>
  <object id="84" name="TileData" x="80" y="128" width="16" height="16">
   <properties>
    <property name="Type" value="Stone"/>
   </properties>
  </object>
  <object id="85" name="TileData" x="96" y="128" width="16" height="16">
   <properties>
    <property name="Type" value="Stone"/>
   </properties>
  </object>
  <object id="86" name="TileData" x="112" y="128" width="16" height="16">
   <properties>
    <property name="Type" value="Stone"/>
   </properties>
  </object>
  <object id="87" name="TileData" x="128" y="128" width="16" height="16">
   <properties>
    <property name="Type" value="Stone"/>
   </properties>
  </object>
  <object id="88" name="TileData" x="144" y="128" width="16" height="16">
   <properties>
    <property name="Type" value="Stone"/>
   </properties>
  </object>
  <object id="89" name="TileData" x="160" y="128" width="16" height="16">
   <properties>
    <property name="Type" value="Stone"/>
   </properties>
  </object>
  <object id="90" name="TileData" x="176" y="128" width="16" height="16">
   <properties>
    <property name="Type" value="Stone"/>
   </properties>
  </object>
  <object id="91" name="TileData" x="192" y="128" width="16" height="16">
   <properties>
    <property name="Type" value="Stone"/>
   </properties>
  </object>
  <object id="92" name="TileData" x="208" y="128" width="16" height="16">
   <properties>
    <property name="Type" value="Stone"/>
   </properties>
  </object>
  <object id="93" name="TileData" x="224" y="128" width="16" height="16">
   <properties>
    <property name="Type" value="Stone"/>
   </properties>
  </object>
  <object id="94" name="TileData" x="240" y="128" width="16" height="16">
   <properties>
    <property name="Type" value="Stone"/>
   </properties>
  </object>
  <object id="95" name="TileData" x="256" y="128" width="16" height="16">
   <properties>
    <property name="Type" value="Stone"/>
   </properties>
  </object>
  <object id="96" name="TileData" x="272" y="128" width="16" height="16">
   <properties>
    <property name="Type" value="Stone"/>
   </properties>
  </object>
  <object id="97" name="TileData" x="288" y="128" width="16" height="16">
   <properties>
    <property name="Type" value="Stone"/>
   </properties>
  </object>
  <object id="98" name="TileData" x="304" y="128" width="16" height="16">
   <properties>
    <property name="Type" value="Stone"/>
   </properties>
  </object>
  <object id="99" name="TileData" x="320" y="128" width="16" height="16">
   <properties>
    <property name="Type" value="Stone"/>
   </properties>
  </object>
  <object id="100" name="TileData" x="336" y="128" width="16" height="16">
   <properties>
    <property name="Type" value="Stone"/>
   </properties>
  </object>
  <object id="101" name="TileData" x="16" y="144" width="16" height="16">
   <properties>
    <property name="WaterSource" value="T"/>
   </properties>
  </object>
  <object id="102" name="TileData" x="32" y="144" width="16" height="16">
   <properties>
    <property name="Type" value="Stone"/>
   </properties>
  </object>
  <object id="103" name="TileData" x="48" y="144" width="16" height="16">
   <properties>
    <property name="Type" value="Stone"/>
   </properties>
  </object>
  <object id="104" name="TileData" x="64" y="144" width="16" height="16">
   <properties>
    <property name="WaterSource" value="T"/>
   </properties>
  </object>
  <object id="105" name="TileData" x="80" y="144" width="16" height="16">
   <properties>
    <property name="Type" value="Stone"/>
   </properties>
  </object>
  <object id="106" name="TileData" x="96" y="144" width="16" height="16">
   <properties>
    <property name="Type" value="Stone"/>
   </properties>
  </object>
  <object id="107" name="TileData" x="112" y="144" width="16" height="16">
   <properties>
    <property name="WaterSource" value="T"/>
   </properties>
  </object>
  <object id="108" name="TileData" x="128" y="144" width="16" height="16">
   <properties>
    <property name="Type" value="Stone"/>
   </properties>
  </object>
  <object id="109" name="TileData" x="144" y="144" width="16" height="16">
   <properties>
    <property name="Type" value="Stone"/>
   </properties>
  </object>
  <object id="110" name="TileData" x="160" y="144" width="16" height="16">
   <properties>
    <property name="WaterSource" value="T"/>
   </properties>
  </object>
  <object id="111" name="TileData" x="176" y="144" width="16" height="16">
   <properties>
    <property name="Type" value="Stone"/>
   </properties>
  </object>
  <object id="112" name="TileData" x="192" y="144" width="16" height="16">
   <properties>
    <property name="Type" value="Stone"/>
   </properties>
  </object>
  <object id="113" name="TileData" x="208" y="144" width="16" height="16">
   <properties>
    <property name="WaterSource" value="T"/>
   </properties>
  </object>
  <object id="114" name="TileData" x="224" y="144" width="16" height="16">
   <properties>
    <property name="Type" value="Stone"/>
   </properties>
  </object>
  <object id="115" name="TileData" x="240" y="144" width="16" height="16">
   <properties>
    <property name="Type" value="Stone"/>
   </properties>
  </object>
  <object id="116" name="TileData" x="256" y="144" width="16" height="16">
   <properties>
    <property name="WaterSource" value="T"/>
   </properties>
  </object>
  <object id="117" name="TileData" x="272" y="144" width="16" height="16">
   <properties>
    <property name="Type" value="Stone"/>
   </properties>
  </object>
  <object id="118" name="TileData" x="288" y="144" width="16" height="16">
   <properties>
    <property name="Type" value="Stone"/>
   </properties>
  </object>
  <object id="119" name="TileData" x="304" y="144" width="16" height="16">
   <properties>
    <property name="WaterSource" value="T"/>
   </properties>
  </object>
  <object id="120" name="TileData" x="320" y="144" width="16" height="16">
   <properties>
    <property name="Type" value="Stone"/>
   </properties>
  </object>
  <object id="121" name="TileData" x="336" y="144" width="16" height="16">
   <properties>
    <property name="Type" value="Stone"/>
   </properties>
  </object>
  <object id="122" name="TileData" x="16" y="160" width="16" height="16">
   <properties>
    <property name="Type" value="Stone"/>
   </properties>
  </object>
  <object id="123" name="TileData" x="32" y="160" width="16" height="16">
   <properties>
    <property name="Type" value="Stone"/>
   </properties>
  </object>
  <object id="124" name="TileData" x="48" y="160" width="16" height="16">
   <properties>
    <property name="Type" value="Stone"/>
   </properties>
  </object>
  <object id="125" name="TileData" x="64" y="160" width="16" height="16">
   <properties>
    <property name="Type" value="Stone"/>
   </properties>
  </object>
  <object id="126" name="TileData" x="80" y="160" width="16" height="16">
   <properties>
    <property name="Type" value="Stone"/>
   </properties>
  </object>
  <object id="127" name="TileData" x="96" y="160" width="16" height="16">
   <properties>
    <property name="Type" value="Stone"/>
   </properties>
  </object>
  <object id="128" name="TileData" x="112" y="160" width="16" height="16">
   <properties>
    <property name="Type" value="Stone"/>
   </properties>
  </object>
  <object id="129" name="TileData" x="128" y="160" width="16" height="16">
   <properties>
    <property name="Type" value="Stone"/>
   </properties>
  </object>
  <object id="130" name="TileData" x="144" y="160" width="16" height="16">
   <properties>
    <property name="Type" value="Stone"/>
   </properties>
  </object>
  <object id="131" name="TileData" x="160" y="160" width="16" height="16">
   <properties>
    <property name="Type" value="Stone"/>
   </properties>
  </object>
  <object id="132" name="TileData" x="176" y="160" width="16" height="16">
   <properties>
    <property name="Type" value="Stone"/>
   </properties>
  </object>
  <object id="133" name="TileData" x="192" y="160" width="16" height="16">
   <properties>
    <property name="Type" value="Stone"/>
   </properties>
  </object>
  <object id="134" name="TileData" x="208" y="160" width="16" height="16">
   <properties>
    <property name="Type" value="Stone"/>
   </properties>
  </object>
  <object id="135" name="TileData" x="224" y="160" width="16" height="16">
   <properties>
    <property name="Type" value="Stone"/>
   </properties>
  </object>
  <object id="136" name="TileData" x="240" y="160" width="16" height="16">
   <properties>
    <property name="Type" value="Stone"/>
   </properties>
  </object>
  <object id="137" name="TileData" x="256" y="160" width="16" height="16">
   <properties>
    <property name="Type" value="Stone"/>
   </properties>
  </object>
  <object id="138" name="TileData" x="272" y="160" width="16" height="16">
   <properties>
    <property name="Type" value="Stone"/>
   </properties>
  </object>
  <object id="139" name="TileData" x="288" y="160" width="16" height="16">
   <properties>
    <property name="Type" value="Stone"/>
   </properties>
  </object>
  <object id="140" name="TileData" x="304" y="160" width="16" height="16">
   <properties>
    <property name="Type" value="Stone"/>
   </properties>
  </object>
  <object id="141" name="TileData" x="320" y="160" width="16" height="16">
   <properties>
    <property name="Type" value="Stone"/>
   </properties>
  </object>
  <object id="142" name="TileData" x="336" y="160" width="16" height="16">
   <properties>
    <property name="Type" value="Stone"/>
   </properties>
  </object>
  <object id="143" name="TileData" x="16" y="176" width="16" height="16">
   <properties>
    <property name="WaterSource" value="T"/>
   </properties>
  </object>
  <object id="144" name="TileData" x="32" y="176" width="16" height="16">
   <properties>
    <property name="Type" value="Stone"/>
   </properties>
  </object>
  <object id="145" name="TileData" x="48" y="176" width="16" height="16">
   <properties>
    <property name="Type" value="Stone"/>
   </properties>
  </object>
  <object id="146" name="TileData" x="64" y="176" width="16" height="16">
   <properties>
    <property name="WaterSource" value="T"/>
   </properties>
  </object>
  <object id="147" name="TileData" x="80" y="176" width="16" height="16">
   <properties>
    <property name="Type" value="Stone"/>
   </properties>
  </object>
  <object id="148" name="TileData" x="96" y="176" width="16" height="16">
   <properties>
    <property name="Type" value="Stone"/>
   </properties>
  </object>
  <object id="149" name="TileData" x="112" y="176" width="16" height="16">
   <properties>
    <property name="WaterSource" value="T"/>
   </properties>
  </object>
  <object id="150" name="TileData" x="128" y="176" width="16" height="16">
   <properties>
    <property name="Type" value="Stone"/>
   </properties>
  </object>
  <object id="151" name="TileData" x="144" y="176" width="16" height="16">
   <properties>
    <property name="Type" value="Stone"/>
   </properties>
  </object>
  <object id="152" name="TileData" x="160" y="176" width="16" height="16">
   <properties>
    <property name="WaterSource" value="T"/>
   </properties>
  </object>
  <object id="153" name="TileData" x="176" y="176" width="16" height="16">
   <properties>
    <property name="Type" value="Stone"/>
   </properties>
  </object>
  <object id="154" name="TileData" x="192" y="176" width="16" height="16">
   <properties>
    <property name="Type" value="Stone"/>
   </properties>
  </object>
  <object id="155" name="TileData" x="208" y="176" width="16" height="16">
   <properties>
    <property name="WaterSource" value="T"/>
   </properties>
  </object>
  <object id="156" name="TileData" x="224" y="176" width="16" height="16">
   <properties>
    <property name="Type" value="Stone"/>
   </properties>
  </object>
  <object id="157" name="TileData" x="240" y="176" width="16" height="16">
   <properties>
    <property name="Type" value="Stone"/>
   </properties>
  </object>
  <object id="158" name="TileData" x="256" y="176" width="16" height="16">
   <properties>
    <property name="WaterSource" value="T"/>
   </properties>
  </object>
  <object id="159" name="TileData" x="272" y="176" width="16" height="16">
   <properties>
    <property name="Type" value="Stone"/>
   </properties>
  </object>
  <object id="160" name="TileData" x="288" y="176" width="16" height="16">
   <properties>
    <property name="Type" value="Stone"/>
   </properties>
  </object>
  <object id="161" name="TileData" x="304" y="176" width="16" height="16">
   <properties>
    <property name="WaterSource" value="T"/>
   </properties>
  </object>
  <object id="162" name="TileData" x="320" y="176" width="16" height="16">
   <properties>
    <property name="Type" value="Stone"/>
   </properties>
  </object>
  <object id="163" name="TileData" x="336" y="176" width="16" height="16">
   <properties>
    <property name="Type" value="Stone"/>
   </properties>
  </object>
  <object id="164" name="TileData" x="16" y="192" width="16" height="16">
   <properties>
    <property name="Type" value="Stone"/>
   </properties>
  </object>
  <object id="165" name="TileData" x="32" y="192" width="16" height="16">
   <properties>
    <property name="Type" value="Stone"/>
   </properties>
  </object>
  <object id="166" name="TileData" x="48" y="192" width="16" height="16">
   <properties>
    <property name="Type" value="Stone"/>
   </properties>
  </object>
  <object id="167" name="TileData" x="64" y="192" width="16" height="16">
   <properties>
    <property name="Type" value="Stone"/>
   </properties>
  </object>
  <object id="168" name="TileData" x="80" y="192" width="16" height="16">
   <properties>
    <property name="Type" value="Stone"/>
   </properties>
  </object>
  <object id="169" name="TileData" x="96" y="192" width="16" height="16">
   <properties>
    <property name="Type" value="Stone"/>
   </properties>
  </object>
  <object id="170" name="TileData" x="112" y="192" width="16" height="16">
   <properties>
    <property name="Type" value="Stone"/>
   </properties>
  </object>
  <object id="171" name="TileData" x="128" y="192" width="16" height="16">
   <properties>
    <property name="Type" value="Stone"/>
   </properties>
  </object>
  <object id="172" name="TileData" x="144" y="192" width="16" height="16">
   <properties>
    <property name="Type" value="Stone"/>
   </properties>
  </object>
  <object id="173" name="TileData" x="160" y="192" width="16" height="16">
   <properties>
    <property name="Type" value="Stone"/>
   </properties>
  </object>
  <object id="174" name="TileData" x="176" y="192" width="16" height="16">
   <properties>
    <property name="Type" value="Stone"/>
   </properties>
  </object>
  <object id="175" name="TileData" x="192" y="192" width="16" height="16">
   <properties>
    <property name="Type" value="Stone"/>
   </properties>
  </object>
  <object id="176" name="TileData" x="208" y="192" width="16" height="16">
   <properties>
    <property name="Type" value="Stone"/>
   </properties>
  </object>
  <object id="177" name="TileData" x="224" y="192" width="16" height="16">
   <properties>
    <property name="Type" value="Stone"/>
   </properties>
  </object>
  <object id="178" name="TileData" x="240" y="192" width="16" height="16">
   <properties>
    <property name="Type" value="Stone"/>
   </properties>
  </object>
  <object id="179" name="TileData" x="256" y="192" width="16" height="16">
   <properties>
    <property name="Type" value="Stone"/>
   </properties>
  </object>
  <object id="180" name="TileData" x="272" y="192" width="16" height="16">
   <properties>
    <property name="Type" value="Stone"/>
   </properties>
  </object>
  <object id="181" name="TileData" x="288" y="192" width="16" height="16">
   <properties>
    <property name="Type" value="Stone"/>
   </properties>
  </object>
  <object id="182" name="TileData" x="304" y="192" width="16" height="16">
   <properties>
    <property name="Type" value="Stone"/>
   </properties>
  </object>
  <object id="183" name="TileData" x="320" y="192" width="16" height="16">
   <properties>
    <property name="Type" value="Stone"/>
   </properties>
  </object>
  <object id="184" name="TileData" x="336" y="192" width="16" height="16">
   <properties>
    <property name="Type" value="Stone"/>
   </properties>
  </object>
  <object id="185" name="TileData" x="16" y="208" width="16" height="16">
   <properties>
    <property name="Type" value="Stone"/>
   </properties>
  </object>
  <object id="186" name="TileData" x="32" y="208" width="16" height="16">
   <properties>
    <property name="Type" value="Stone"/>
   </properties>
  </object>
  <object id="187" name="TileData" x="48" y="208" width="16" height="16">
   <properties>
    <property name="Type" value="Stone"/>
   </properties>
  </object>
  <object id="188" name="TileData" x="64" y="208" width="16" height="16">
   <properties>
    <property name="Type" value="Stone"/>
   </properties>
  </object>
  <object id="189" name="TileData" x="80" y="208" width="16" height="16">
   <properties>
    <property name="Type" value="Stone"/>
   </properties>
  </object>
  <object id="190" name="TileData" x="96" y="208" width="16" height="16">
   <properties>
    <property name="Type" value="Stone"/>
   </properties>
  </object>
  <object id="191" name="TileData" x="112" y="208" width="16" height="16">
   <properties>
    <property name="Type" value="Stone"/>
   </properties>
  </object>
  <object id="192" name="TileData" x="128" y="208" width="16" height="16">
   <properties>
    <property name="Type" value="Stone"/>
   </properties>
  </object>
  <object id="193" name="TileData" x="144" y="208" width="16" height="16">
   <properties>
    <property name="Type" value="Stone"/>
   </properties>
  </object>
  <object id="194" name="TileData" x="160" y="208" width="16" height="16">
   <properties>
    <property name="Type" value="Stone"/>
   </properties>
  </object>
  <object id="195" name="TileData" x="176" y="208" width="16" height="16">
   <properties>
    <property name="Type" value="Stone"/>
   </properties>
  </object>
  <object id="196" name="TileData" x="192" y="208" width="16" height="16">
   <properties>
    <property name="Type" value="Stone"/>
   </properties>
  </object>
  <object id="197" name="TileData" x="208" y="208" width="16" height="16">
   <properties>
    <property name="Type" value="Stone"/>
   </properties>
  </object>
  <object id="198" name="TileData" x="224" y="208" width="16" height="16">
   <properties>
    <property name="Type" value="Stone"/>
   </properties>
  </object>
  <object id="199" name="TileData" x="240" y="208" width="16" height="16">
   <properties>
    <property name="Type" value="Stone"/>
   </properties>
  </object>
  <object id="200" name="TileData" x="256" y="208" width="16" height="16">
   <properties>
    <property name="Type" value="Stone"/>
   </properties>
  </object>
  <object id="201" name="TileData" x="272" y="208" width="16" height="16">
   <properties>
    <property name="Type" value="Stone"/>
   </properties>
  </object>
  <object id="202" name="TileData" x="288" y="208" width="16" height="16">
   <properties>
    <property name="Type" value="Stone"/>
   </properties>
  </object>
  <object id="203" name="TileData" x="304" y="208" width="16" height="16">
   <properties>
    <property name="Type" value="Stone"/>
   </properties>
  </object>
  <object id="204" name="TileData" x="320" y="208" width="16" height="16">
   <properties>
    <property name="Type" value="Stone"/>
   </properties>
  </object>
  <object id="205" name="TileData" x="336" y="208" width="16" height="16">
   <properties>
    <property name="Type" value="Stone"/>
   </properties>
  </object>
  <object id="206" name="TileData" x="240" y="272" width="16" height="16">
   <properties>
    <property name="TouchAction" value="LoadMap Custom_GrandpasShedOutside 22 17"/>
   </properties>
  </object>
  <object id="207" name="TileData" x="256" y="272" width="16" height="16">
   <properties>
    <property name="TouchAction" value="LoadMap Custom_GrandpasShedOutside 23 17"/>
   </properties>
  </object>
 </objectgroup>
 <layer id="3" name="Back2" width="32" height="18">
  <data encoding="csv">
0,0,0,0,0,0,0,0,0,0,0,0,0,0,0,0,0,0,0,0,0,0,0,0,0,0,0,0,0,0,0,0,
0,0,0,0,0,0,0,0,0,0,0,0,0,0,0,0,0,0,0,0,0,0,0,0,0,0,0,0,0,0,0,0,
0,0,0,0,0,0,0,0,0,0,0,0,0,0,0,0,0,0,0,0,0,0,0,0,0,0,0,0,0,0,0,0,
0,0,0,0,0,0,0,0,0,0,0,0,0,0,0,0,0,0,0,0,0,0,0,0,0,0,0,0,0,0,0,0,
0,5219,5264,5264,5264,5264,5264,5264,5264,5264,5264,5264,5264,5264,5264,5264,5264,5264,5264,5264,5264,5264,5264,5264,0,0,0,5833,5834,0,0,0,
0,0,0,0,0,0,0,0,0,0,0,0,0,0,0,0,0,0,0,0,0,0,0,0,0,0,0,5865,5866,0,0,0,
0,5241,0,0,0,0,0,0,0,0,0,0,0,0,0,0,0,0,0,0,0,0,0,5239,0,0,0,5897,5898,0,0,0,
0,5241,0,0,0,0,0,0,0,0,0,0,0,0,0,0,0,0,0,0,0,0,0,5239,0,0,0,0,0,0,0,0,
0,5241,0,0,0,0,0,0,0,0,0,0,0,0,0,0,0,0,0,0,0,0,0,5239,0,0,0,0,0,0,0,0,
0,5241,0,0,0,0,0,0,0,0,0,0,0,0,0,0,0,0,0,0,0,0,0,5239,0,0,0,0,0,0,0,0,
0,5241,0,0,0,0,0,0,0,0,0,0,0,0,0,0,0,0,0,0,0,0,0,5239,0,0,0,0,0,0,0,0,
0,5241,0,0,0,0,0,0,0,0,0,0,0,0,0,0,0,0,0,0,0,0,0,5239,0,0,0,0,0,0,0,0,
0,5241,0,0,0,0,0,0,0,0,0,0,0,0,0,0,0,0,0,0,0,0,0,5239,0,0,0,0,0,0,0,0,
0,5241,0,0,0,0,0,0,0,0,0,0,0,0,0,0,0,0,0,0,0,0,0,5239,0,0,0,0,0,0,0,0,
0,5241,0,0,0,0,0,0,0,0,0,0,0,0,0,0,0,0,0,0,0,0,0,0,0,0,0,0,0,0,0,0,
0,0,0,0,0,0,0,0,0,0,0,0,0,0,0,0,0,0,0,0,0,0,0,0,0,0,0,0,0,0,0,0,
0,0,0,0,0,0,0,0,0,0,0,0,0,0,0,0,0,0,0,0,0,0,0,0,0,0,0,0,0,0,0,0,
0,0,0,0,0,0,0,0,0,0,0,0,0,0,0,0,0,0,0,0,0,0,0,0,0,0,0,0,0,0,0,0
</data>
 </layer>
 <layer id="4" name="Back3" width="32" height="18">
  <data encoding="csv">
0,0,0,0,0,0,0,0,0,0,0,0,0,0,0,0,0,0,0,0,0,0,0,0,0,0,0,0,0,0,0,0,
0,0,0,0,0,0,0,0,0,0,0,0,0,0,0,0,0,0,0,0,0,0,0,0,0,0,0,0,0,0,0,0,
0,0,0,0,0,0,0,0,0,0,0,0,0,0,0,0,0,0,0,0,0,0,0,0,0,0,0,0,0,0,0,0,
0,0,0,0,0,0,0,0,0,0,0,0,0,0,0,0,0,0,0,0,0,0,0,0,0,0,0,0,0,0,0,0,
0,5217,0,0,0,0,0,0,0,0,0,0,0,0,0,0,0,0,0,0,0,0,0,0,0,0,0,0,0,0,0,0,
0,5241,0,0,0,0,0,0,0,0,0,0,0,0,0,0,0,0,0,0,0,0,0,0,0,0,0,0,0,0,0,0,
0,0,0,0,0,0,0,0,0,0,0,0,0,0,0,0,0,0,0,0,0,0,0,0,0,0,0,0,0,0,0,0,
0,0,0,0,0,0,0,0,0,0,0,0,0,0,0,0,0,0,0,0,0,0,0,0,0,0,0,0,0,0,0,0,
0,0,0,0,0,0,0,0,0,0,0,0,0,0,0,0,0,0,0,0,0,0,0,0,0,0,0,0,0,0,0,0,
0,0,0,0,0,0,0,0,0,0,0,0,0,0,0,0,0,0,0,0,0,0,0,0,0,0,0,0,0,0,0,0,
0,0,0,0,0,0,0,0,0,0,0,0,0,0,0,0,0,0,0,0,0,0,0,0,0,0,0,0,0,0,0,0,
0,0,0,0,0,0,0,0,0,0,0,0,0,0,0,0,0,0,0,0,0,0,0,0,0,0,0,0,0,0,0,0,
0,0,0,0,0,0,0,0,0,0,0,0,0,0,0,0,0,0,0,0,0,0,0,0,0,0,0,0,0,0,0,0,
0,0,0,0,0,0,0,0,0,0,0,0,0,0,0,0,0,0,0,0,0,0,0,0,0,0,0,0,0,0,0,0,
0,0,0,0,0,0,0,0,0,0,0,0,0,0,0,0,0,0,0,0,0,0,0,5263,5264,5264,5264,5264,5265,0,0,0,
0,5241,5216,5216,5216,5216,5216,5216,5216,5216,5216,5216,5216,5216,5217,0,0,5215,5216,5216,5216,5216,5216,5216,5216,5216,5216,5216,5216,5216,5216,5216,
0,0,0,0,0,0,0,0,0,0,0,0,0,0,0,0,0,0,0,0,0,0,0,0,0,0,0,0,0,0,0,0,
0,0,0,0,0,0,0,0,0,0,0,0,0,0,0,0,0,0,0,0,0,0,0,0,0,0,0,0,0,0,0,0
</data>
 </layer>
 <layer id="5" name="Buildings" width="32" height="18">
  <data encoding="csv">
65,66,67,67,67,67,67,67,67,67,67,67,67,67,67,67,67,67,67,67,67,67,67,67,2828,2817,2826,67,67,67,68,65,
97,98,99,99,99,99,99,99,99,99,99,99,99,99,99,99,99,99,99,99,99,99,99,99,2885,2817,2881,99,99,99,100,101,
129,144,145,145,145,145,145,145,145,145,145,145,145,145,145,145,145,145,145,145,145,145,145,145,2885,2817,2881,145,145,145,146,133,
129,176,177,177,177,177,177,177,177,177,177,177,177,177,177,177,177,177,177,177,177,177,177,177,2885,2817,2881,744,745,177,178,133,
129,2960,2221,0,0,0,0,0,0,0,0,2221,0,0,0,0,0,0,0,0,2221,1424,1425,1432,2885,2817,2881,776,777,2221,2962,133,
129,0,0,0,0,0,0,0,0,0,0,0,0,0,0,0,0,0,0,0,0,0,0,2212,2885,2817,2881,1244,0,2665,897,133,
129,0,0,0,0,0,0,0,0,0,0,0,0,0,0,0,0,0,0,0,0,0,0,0,2885,2817,2881,0,0,0,897,133,
129,0,0,0,0,0,0,0,0,0,0,0,0,0,0,0,0,0,0,0,0,0,0,0,2885,2817,2881,3269,0,0,897,133,
129,0,0,0,0,0,0,0,0,0,0,0,0,0,0,0,0,0,0,0,0,0,0,0,2885,2817,2913,6155,0,0,3681,2947,
129,0,0,0,0,0,0,0,0,0,0,0,0,0,0,0,0,0,0,0,0,0,0,0,2885,2817,2826,2819,3011,0,3010,2828,
129,0,0,0,0,0,0,0,0,0,0,0,0,0,0,0,0,0,0,0,0,0,0,0,258,67,259,0,2972,0,2971,133,
129,0,0,0,0,0,0,0,0,0,0,0,0,0,0,0,0,0,0,0,0,0,0,0,219,0,220,2897,3004,0,3003,133,
129,0,0,0,0,0,0,0,0,0,0,0,0,0,0,0,0,0,0,0,0,0,0,0,251,145,252,3284,3036,0,3035,133,
129,0,0,0,0,0,0,0,0,0,0,0,0,0,0,0,0,0,0,0,0,0,0,0,283,177,284,6365,6373,0,3337,133,
129,0,0,0,0,0,0,0,0,0,0,0,0,0,0,0,0,0,0,0,0,0,0,0,0,0,0,0,0,0,3339,133,
161,0,0,0,0,0,0,0,0,0,0,0,0,0,0,0,0,0,0,0,0,0,0,0,0,0,0,0,0,0,0,195,
65,65,65,65,65,65,65,65,65,65,65,65,65,65,161,0,0,195,65,65,65,65,65,65,65,65,65,65,65,65,65,65,
2817,2817,2817,2817,2817,2817,2817,2817,2817,2817,2817,2817,2817,2817,2817,0,0,2817,2817,2817,2817,2817,2817,2817,2817,2817,2817,2817,2817,2817,2817,2817
</data>
 </layer>
 <objectgroup id="6" name="Buildings">
  <object id="1" name="TileData" x="464" y="80" width="16" height="16">
   <properties>
    <property name="Action" value="Message &quot;GrandpasShed.4&quot;"/>
   </properties>
  </object>
  <object id="2" name="TileData" x="480" y="96" width="16" height="16">
   <properties>
    <property name="Action" value="Letter &quot;GrandpasShed.2&quot;"/>
   </properties>
  </object>
  <object id="3" name="TileData" x="480" y="112" width="16" height="16">
   <properties>
    <property name="Action" value="Letter &quot;GrandpasShed.2&quot;"/>
   </properties>
  </object>
  <object id="4" name="TileData" x="432" y="128" width="16" height="16">
   <properties>
    <property name="Action" value="Letter &quot;GrandpasShed.3&quot;"/>
   </properties>
  </object>
  <object id="5" name="TileData" x="480" y="128" width="16" height="16">
   <properties>
    <property name="Action" value="Letter &quot;GrandpasShed.2&quot;"/>
   </properties>
  </object>
  <object id="6" name="TileData" x="400" y="208" width="16" height="16">
   <properties>
    <property name="Action" value="Warp 30 16 Custom_GrandpasShedGreenhouse"/>
   </properties>
  </object>
  <object id="7" name="TileData" x="432" y="208" width="16" height="16">
   <properties>
    <property name="Action" value="kitchen"/>
   </properties>
  </object>
  <object id="8" name="TileData" x="448" y="208" width="16" height="16">
   <properties>
    <property name="Action" value="kitchen"/>
   </properties>
  </object>
  <object id="9" name="TileData" x="480" y="208" width="16" height="16">
   <properties>
    <property name="Action" value="Message &quot;GrandpasShed.6&quot;"/>
   </properties>
  </object>
 </objectgroup>
 <layer id="7" name="Buildings2" width="32" height="18">
  <data encoding="csv">
0,0,0,0,0,0,0,0,0,0,0,0,0,0,0,0,0,0,0,0,0,0,0,0,0,0,0,0,0,0,0,0,
0,0,0,0,0,0,0,0,0,0,0,0,0,0,0,0,0,0,0,0,0,0,0,0,0,0,0,0,0,0,0,0,
0,0,0,0,0,0,0,0,0,0,0,0,0,0,0,0,0,0,0,0,0,0,0,0,0,0,0,0,0,0,0,0,
0,0,5216,5216,5216,5216,5216,5216,5216,5216,5216,5216,5216,5216,5216,5216,5216,5216,5216,5216,5216,5216,5216,5216,0,0,0,0,0,0,0,0,
0,0,0,0,0,0,0,0,0,0,0,0,0,0,0,0,0,0,0,0,0,0,0,2180,0,0,0,0,0,0,0,0,
0,0,0,0,0,0,0,0,0,0,0,0,0,0,0,0,0,0,0,0,0,0,0,5239,0,0,0,0,0,0,0,0,
0,0,0,0,0,0,0,0,0,0,0,0,0,0,0,0,0,0,0,0,0,0,0,0,0,0,0,0,0,0,0,0,
0,0,0,0,0,0,0,0,0,0,0,0,0,0,0,0,0,0,0,0,0,0,0,0,0,0,0,0,0,0,0,0,
0,0,0,0,0,0,0,0,0,0,0,0,0,0,0,0,0,0,0,0,0,0,0,0,0,0,0,0,0,0,0,0,
0,0,0,0,0,0,0,0,0,0,0,0,0,0,0,0,0,0,0,0,0,0,0,0,0,0,0,0,0,0,0,0,
0,0,0,0,0,0,0,0,0,0,0,0,0,0,0,0,0,0,0,0,0,0,0,0,0,0,0,0,0,0,0,0,
0,0,0,0,0,0,0,0,0,0,0,0,0,0,0,0,0,0,0,0,0,0,0,0,0,0,0,0,0,0,0,0,
0,0,0,0,0,0,0,0,0,0,0,0,0,0,0,0,0,0,0,0,0,0,0,0,0,1454,0,0,0,0,3305,0,
0,0,0,0,0,0,0,0,0,0,0,0,0,0,0,0,0,0,0,0,0,0,0,0,0,1486,0,0,0,0,0,0,
0,0,0,0,0,0,0,0,0,0,0,0,0,0,0,0,0,0,0,0,0,0,0,0,0,0,0,0,0,0,0,0,
0,0,0,0,0,0,0,0,0,0,0,0,0,0,0,0,0,0,0,0,0,0,0,0,0,0,0,0,0,0,0,0,
0,0,0,0,0,0,0,0,0,0,0,0,0,0,0,0,0,0,0,0,0,0,0,0,0,0,0,0,0,0,0,0,
0,0,0,0,0,0,0,0,0,0,0,0,0,0,0,0,0,0,0,0,0,0,0,0,0,0,0,0,0,0,0,0
</data>
 </layer>
 <layer id="8" name="Buildings3" width="32" height="18">
  <data encoding="csv">
0,0,0,0,0,0,0,0,0,0,0,0,0,0,0,0,0,0,0,0,0,0,0,0,0,0,0,0,0,0,0,0,
0,0,0,0,0,0,0,0,0,0,0,0,0,0,0,0,0,0,0,0,0,0,0,0,0,0,0,0,0,0,0,0,
0,0,0,0,0,0,0,0,0,0,0,0,0,0,0,0,0,0,0,0,0,0,0,0,0,0,0,0,0,0,0,0,
0,0,2222,0,0,0,0,0,0,0,0,0,0,0,0,0,0,0,0,0,0,0,0,1400,0,0,0,0,0,0,0,0,
0,0,5216,0,0,0,0,0,0,0,0,5216,0,0,0,0,0,0,0,0,5216,0,0,577,0,0,0,0,0,0,0,0,
0,0,0,0,0,0,0,0,0,0,0,0,0,0,0,0,0,0,0,0,0,0,0,0,0,0,0,0,0,0,0,0,
0,0,0,0,0,0,0,0,0,0,0,0,0,0,0,0,0,0,0,0,0,0,0,0,0,0,0,0,0,0,0,0,
0,0,0,0,0,0,0,0,0,0,0,0,0,0,0,0,0,0,0,0,0,0,0,0,0,0,0,0,0,0,0,0,
0,0,0,0,0,0,0,0,0,0,0,0,0,0,0,0,0,0,0,0,0,0,0,0,0,0,0,0,0,0,0,0,
0,0,0,0,0,0,0,0,0,0,0,0,0,0,0,0,0,0,0,0,0,0,0,0,0,0,0,0,0,0,0,0,
0,0,0,0,0,0,0,0,0,0,0,0,0,0,0,0,0,0,0,0,0,0,0,0,0,0,0,0,0,0,0,0,
0,0,0,0,0,0,0,0,0,0,0,0,0,0,0,0,0,0,0,0,0,0,0,0,0,0,0,0,0,0,0,0,
0,0,0,0,0,0,0,0,0,0,0,0,0,0,0,0,0,0,0,0,0,0,0,0,0,0,0,0,0,0,0,0,
0,0,0,0,0,0,0,0,0,0,0,0,0,0,0,0,0,0,0,0,0,0,0,0,0,0,0,0,0,0,0,0,
0,0,0,0,0,0,0,0,0,0,0,0,0,0,0,0,0,0,0,0,0,0,0,0,0,0,0,0,0,0,0,0,
0,0,0,0,0,0,0,0,0,0,0,0,0,0,0,0,0,0,0,0,0,0,0,0,0,0,0,0,0,0,0,0,
0,0,0,0,0,0,0,0,0,0,0,0,0,0,0,0,0,0,0,0,0,0,0,0,0,0,0,0,0,0,0,0,
0,0,0,0,0,0,0,0,0,0,0,0,0,0,0,0,0,0,0,0,0,0,0,0,0,0,0,0,0,0,0,0
</data>
 </layer>
 <layer id="9" name="Paths" width="32" height="18">
  <data encoding="csv">
0,0,0,0,0,0,0,0,0,0,0,0,0,0,0,0,0,0,0,0,0,0,0,0,0,0,0,0,0,0,0,0,
0,0,0,0,0,0,0,0,0,0,0,0,0,0,0,0,0,0,0,0,0,0,0,0,0,0,0,0,0,0,0,0,
0,0,0,0,0,0,0,0,0,0,0,0,0,0,0,0,0,0,0,0,0,0,0,0,0,0,0,0,0,0,0,0,
0,0,0,0,9,0,0,0,9,0,0,0,0,9,0,0,0,0,9,0,0,0,0,9,0,0,0,9,0,0,0,0,
0,0,0,0,0,0,0,0,0,0,0,0,0,0,0,0,0,0,0,0,0,0,0,0,0,0,0,0,0,0,0,0,
0,0,0,0,0,0,0,0,0,0,0,0,0,0,0,0,0,0,0,0,0,0,0,0,0,0,0,0,0,0,0,0,
0,0,0,9,0,0,0,0,0,0,0,9,0,0,0,0,0,0,0,0,9,0,0,0,0,0,0,0,9,0,0,0,
0,0,0,0,0,0,0,0,0,0,0,0,0,0,0,0,0,0,0,0,0,0,0,0,0,0,0,0,0,0,0,0,
0,0,0,0,0,0,0,0,0,0,0,0,0,0,0,0,0,0,0,0,0,0,0,0,0,0,0,0,0,0,0,0,
0,0,0,0,0,0,0,0,0,0,0,0,0,0,0,0,0,0,0,0,0,0,0,0,0,0,0,0,0,0,0,0,
0,0,0,0,0,0,0,0,0,0,0,0,0,0,0,0,0,0,0,0,0,0,0,0,0,0,0,0,0,0,0,0,
0,0,0,9,0,0,0,0,0,0,0,9,0,0,0,0,0,0,0,0,9,0,0,0,0,0,0,0,9,0,0,0,
0,0,0,0,0,0,0,0,0,0,0,0,0,0,0,0,0,0,0,0,0,0,0,0,0,0,0,0,0,0,0,0,
0,0,0,0,0,0,0,0,0,0,0,0,0,0,0,0,0,0,0,0,0,0,0,0,0,0,0,0,0,0,0,0,
0,0,0,0,0,0,0,0,0,0,0,0,0,0,0,0,0,0,0,0,0,0,0,0,0,0,0,0,0,0,0,0,
0,0,0,0,0,0,0,0,0,0,0,0,0,0,0,9,9,0,0,0,0,0,0,0,0,0,0,0,0,0,0,0,
0,0,0,0,0,0,0,0,0,0,0,0,0,0,0,0,0,0,0,0,0,0,0,0,0,0,0,0,0,0,0,0,
0,0,0,0,0,0,0,0,0,0,0,0,0,0,0,0,0,0,0,0,0,0,0,0,0,0,0,0,0,0,0,0
</data>
 </layer>
 <layer id="10" name="Front" width="32" height="18">
  <data encoding="csv">
0,0,2191,0,0,0,0,0,0,0,0,2191,0,0,0,0,0,0,0,0,2191,0,0,0,0,0,0,0,0,2191,0,0,
0,0,2223,0,321,0,0,0,321,0,0,2223,0,321,0,0,0,0,321,0,2223,0,0,321,0,0,0,321,6824,2223,6737,0,
0,0,2190,0,353,0,0,0,353,0,0,2190,0,353,0,0,0,0,353,0,2190,0,0,353,4970,0,0,353,6856,2190,6769,0,
0,0,0,0,0,0,0,0,0,0,0,2222,0,0,0,0,0,0,0,0,2222,1392,1393,5215,0,0,0,741,740,2222,801,0,
0,0,0,0,0,0,0,0,0,0,0,0,0,0,0,0,0,0,0,0,0,0,0,5239,0,0,0,0,0,2657,833,0,
0,0,0,0,0,0,0,0,0,0,0,0,0,0,0,0,0,0,0,0,0,0,0,0,0,0,0,0,0,0,833,0,
0,0,0,0,0,0,0,0,0,0,0,0,0,0,0,0,0,0,0,0,0,0,0,0,0,0,0,4163,0,0,865,0,
0,0,0,0,0,0,0,0,0,0,0,0,0,0,0,0,0,0,0,0,0,0,0,0,0,0,0,6091,0,0,0,0,
0,0,0,0,0,0,0,0,0,0,0,0,0,0,0,0,0,0,0,0,0,0,0,0,0,0,0,3013,2979,0,2980,0,
0,0,0,0,0,0,0,0,0,0,0,0,0,0,0,0,0,0,0,0,0,0,0,0,0,0,0,0,0,0,0,0,
0,0,0,0,0,0,0,0,0,0,0,0,0,0,0,0,0,0,0,0,0,0,0,0,0,0,0,5756,0,0,0,0,
0,0,0,0,0,0,0,0,0,0,0,0,0,0,0,0,0,0,0,0,0,0,0,0,0,0,0,5788,0,0,0,0,
0,0,0,0,0,0,0,0,0,0,0,0,0,0,0,0,0,0,0,0,0,0,0,0,3032,0,0,6333,6341,0,3525,0,
0,0,0,0,0,0,0,0,0,0,0,0,0,0,0,0,0,0,0,0,0,0,0,0,0,0,0,0,0,0,3307,0,
0,0,0,0,0,0,0,0,0,0,0,0,0,0,0,0,0,0,0,0,0,0,0,0,0,0,0,0,0,0,0,0,
0,230,3014,3012,230,230,3014,3012,3013,3013,3013,3014,230,230,227,0,0,228,230,3014,3012,230,230,3014,3012,3013,3013,3013,3014,230,230,0,
0,0,0,0,0,0,0,0,0,0,0,0,0,0,0,230,230,0,0,0,0,0,0,0,0,0,0,0,0,0,0,0,
0,0,0,0,0,0,0,0,0,0,0,0,0,0,0,0,0,0,0,0,0,0,0,0,0,0,0,0,0,0,0,0
</data>
 </layer>
 <layer id="11" name="AlwaysFront" width="32" height="18">
  <data encoding="csv">
0,0,0,0,4938,0,0,0,0,0,4938,0,0,0,0,0,0,0,4938,0,0,0,0,0,0,0,0,0,0,0,0,0,
0,0,0,0,0,0,0,0,0,0,0,0,0,0,0,0,0,0,0,0,0,0,0,0,0,0,0,0,0,0,0,0,
0,0,0,0,0,0,0,0,0,0,0,0,0,0,0,0,0,0,0,0,0,0,0,0,0,0,0,0,0,0,0,0,
0,0,0,0,0,0,0,0,0,0,0,0,0,0,0,0,0,0,0,0,0,0,0,0,0,0,4969,0,0,0,5648,4970,
4969,0,0,0,0,0,0,0,0,0,0,0,0,0,0,0,0,0,0,0,0,0,0,0,0,0,0,0,0,0,3650,0,
0,0,0,0,0,0,0,0,0,0,0,0,0,0,0,0,0,0,0,0,0,0,0,0,0,0,0,0,0,0,3651,0,
0,0,0,0,0,0,0,0,0,0,0,0,0,0,0,0,0,0,0,0,0,0,0,0,0,0,0,0,0,0,0,0,
0,0,0,0,0,0,0,0,0,0,0,0,0,0,0,0,0,0,0,0,0,0,0,0,0,0,0,3492,0,0,0,4970,
0,0,0,0,0,0,0,0,0,0,0,0,0,0,0,0,0,0,0,0,0,0,0,0,4970,0,0,0,0,0,0,0,
4969,0,0,0,0,0,0,0,0,0,0,0,0,0,0,0,0,0,0,0,0,0,0,0,0,0,0,4938,0,0,0,0,
0,0,0,0,0,0,0,0,0,0,0,0,0,0,0,0,0,0,0,0,0,0,0,0,0,4938,0,0,0,0,0,0,
0,0,0,0,0,0,0,0,0,0,0,0,0,0,0,0,0,0,0,0,0,0,0,0,0,0,0,0,0,0,0,0,
0,0,0,0,0,0,0,0,0,0,0,0,0,0,0,0,0,0,0,0,0,0,0,0,0,0,0,0,0,0,0,0,
4969,0,0,0,0,0,0,0,0,0,0,0,0,0,0,0,0,0,0,0,0,0,0,0,0,0,0,0,0,0,0,4970,
0,0,0,0,0,0,0,0,0,0,0,0,0,0,0,0,0,0,0,0,0,0,0,0,0,0,0,0,0,0,0,0,
2913,2982,0,0,0,0,0,0,0,0,0,0,0,0,2979,0,0,2980,0,0,0,0,0,0,0,0,0,0,0,0,3013,2947,
2817,2817,0,0,0,0,0,0,0,0,0,0,0,0,2913,3013,4937,2947,0,0,0,0,0,0,0,0,0,0,0,0,2817,2817,
0,0,0,0,0,0,0,0,0,0,0,0,0,0,0,2817,2817,0,0,0,0,0,0,0,0,0,0,0,0,0,0,0
</data>
 </layer>
</map>
